;FLAVOR:Marlin
;TIME:444
;Filament used: 0.182535m
;Layer height: 0.1
;Generated with Cura_SteamEngine 3.6.0
M140 S60
M105
M190 S60
M104 S195
M105
M109 S195
M82 ;absolute extrusion mode
G28 ;Home
G1 Z15.0 F6000 ;Move the platform down 15mm
;Prime the extruder
G92 E0
G1 F200 E3
G92 E0
G92 E0
G1 F2400 E-5
;LAYER_COUNT:21
;LAYER:0
M107
M204 S5000
M205 X30 Y30
;MESH:Object 6
G0 F3600 X142.281 Y113.992 Z0.2
M204 S500
M205 X20 Y20
;TYPE:WALL-OUTER
G1 F2400 E0
G1 F1496.4 X142.281 Y129.933 E0.5302
G1 X142.088 Y129.943 E0.53663
G1 X142.087 Y129.944 E0.53667
G1 X141.879 Y129.952 E0.5436
G1 X141.879 Y129.744 E0.54803
G1 X141.879 Y129.743 E0.54806
G1 X141.879 Y113.59 E1.08531
G1 X144.875 Y113.59 E1.18496
G1 X144.892 Y113.592 E1.18553
G1 X144.925 Y113.593 E1.18663
G1 X145.094 Y113.605 E1.19226
G1 X145.147 Y113.616 E1.19406
G1 X145.285 Y113.647 E1.19877
G1 X145.37 Y113.678 E1.20178
G1 X145.471 Y113.716 E1.20537
G1 X145.581 Y113.776 E1.20953
G1 X145.649 Y113.813 E1.21211
G1 X145.773 Y113.907 E1.21728
G1 X145.812 Y113.936 E1.2189
G1 X145.948 Y114.072 E1.2253
G1 X145.976 Y114.11 E1.22687
G1 X146.072 Y114.238 E1.23219
G1 X146.106 Y114.3 E1.23454
G1 X146.167 Y114.411 E1.23875
G1 X146.204 Y114.511 E1.2423
G1 X146.237 Y114.598 E1.2454
G1 X146.266 Y114.733 E1.24999
G1 X146.279 Y114.789 E1.2519
G1 X146.29 Y114.96 E1.2576
G1 X146.294 Y115.009 E1.25923
G1 X146.294 Y129.885 E1.75401
G1 X146.091 Y129.886 E1.76076
G1 X145.891 Y129.886 E1.76742
G1 X145.891 Y129.686 E1.77172
G1 X145.891 Y114.987 E2.26061
G1 X145.877 Y114.819 E2.26622
G1 X145.832 Y114.651 E2.27201
G1 X145.758 Y114.492 E2.27784
G1 X145.658 Y114.349 E2.28364
G1 X145.534 Y114.225 E2.28948
G1 X145.39 Y114.125 E2.29531
G1 X145.232 Y114.052 E2.3011
G1 X145.063 Y114.005 E2.30693
G1 X144.898 Y113.991 E2.31244
G1 X144.865 Y113.991 E2.31353
G1 X142.281 Y113.992 E2.39948
M204 S5000
M205 X30 Y30
G0 F3600 X142.281 Y114.192
G0 X142.279 Y114.192
G1 F2400 E-2.60052
;MESH:Object 4
G0 F3600 X142.181 Y114.192
G0 X142.267 Y129.92
G0 X142.308 Y130.797
G0 X154.752 Y180.771
G0 X154.721 Y181.635
G0 X155.109 Y195.658
G0 X155.172 Y196.079
G0 X155.16 Y196.111
M204 S500
M205 X20 Y20
;TYPE:WALL-INNER
G1 F2400 E2.39948
G1 F1496.4 X155.203 Y196.123 E2.40096
G1 X155.191 Y196.143
G1 X155.123 Y196.253 E2.40332
G1 X155.123 Y196.123 E2.40386
G1 X155.123 Y196.102
G1 X155.16 Y196.111
M204 S5000
M205 X30 Y30
G0 F3600 X155.125 Y195.689
M204 S500
M205 X20 Y20
;TYPE:WALL-OUTER
G1 F1496.4 X155.423 Y195.768 E2.41412
G1 X155.424 Y195.768 E2.41415
G1 X155.435 Y195.748 E2.41491
G1 X155.514 Y195.607 E2.42028
G1 X155.934 Y194.859 E2.44882
G1 X156.326 Y194.097 E2.47732
G1 X156.342 Y194.066 E2.47848
G1 X156.719 Y193.259 E2.5081
G1 X157.064 Y192.438 E2.53772
G1 X157.378 Y191.604 E2.56736
G1 X157.529 Y191.153 E2.58318
G1 X157.644 Y190.812 E2.59515
G1 X157.661 Y190.759 E2.597
G1 X157.676 Y190.706 E2.59883
G1 X157.895 Y189.962 E2.62463
G1 X157.911 Y189.905 E2.6266
G1 X158.129 Y189.04 E2.65627
G1 X158.138 Y188.995 E2.6578
G1 X158.313 Y188.169 E2.68588
G1 X158.357 Y187.916 E2.69442
G1 X158.466 Y187.29 E2.71555
G1 X158.471 Y187.251 E2.71686
G1 X158.584 Y186.408 E2.74515
G1 X158.667 Y185.52 E2.77481
G1 X158.719 Y184.632 E2.8044
G1 X158.735 Y183.743 E2.83397
G1 X158.735 Y181.593 E2.90548
G1 X158.938 Y181.592 E2.91223
G1 X159.138 Y181.592 E2.91889
G1 X159.138 Y181.792 E2.92319
G1 X159.138 Y183.736 E2.98785
G1 X159.122 Y184.59 E3.01626
G1 X159.076 Y185.449 E3.04487
G1 X159.001 Y186.292 E3.07302
G1 X158.895 Y187.139 E3.10141
G1 X158.867 Y187.314 E3.10731
G1 X158.861 Y187.353 E3.10862
G1 X158.758 Y187.981 E3.12976
G1 X158.591 Y188.819 E3.15818
G1 X158.528 Y189.087 E3.16733
G1 X158.518 Y189.131 E3.16883
G1 X158.395 Y189.649 E3.18654
G1 X158.296 Y190.01 E3.19899
G1 X158.281 Y190.067 E3.20095
G1 X158.169 Y190.472 E3.21492
G1 X158.058 Y190.825 E3.22723
G1 X158.042 Y190.878 E3.22907
G1 X158.026 Y190.931 E3.23091
G1 X157.913 Y191.287 E3.24333
G1 X157.755 Y191.737 E3.25918
G1 X157.627 Y192.1 E3.27198
G1 X157.436 Y192.585 E3.28932
G1 X157.317 Y192.886 E3.30008
G1 X157.085 Y193.418 E3.31938
G1 X156.976 Y193.668 E3.32846
G1 X156.702 Y194.239 E3.34952
G1 X156.687 Y194.27 E3.35066
G1 X156.607 Y194.437 E3.35682
G1 X156.211 Y195.194 E3.38524
G1 X155.863 Y195.803 E3.40857
G1 X155.784 Y195.942 E3.41388
G1 X155.763 Y195.976 E3.4152
G1 X155.762 Y195.977 E3.41525
G1 X155.34 Y196.662 E3.44201
G1 X155.101 Y197.019 E3.4563
G1 X154.865 Y197.371 E3.47039
G1 X154.723 Y197.568 E3.47847
G1 X154.723 Y197.371 E3.47931
G1 X154.723 Y196.947 E3.48906
G1 X154.723 Y181.843 E3.99142
G1 X154.723 Y181.842 E3.99145
G1 X154.723 Y181.636 E3.9983
G1 X154.929 Y181.642 E4.0027
G1 X154.93 Y181.643 E4.00275
G1 X155.125 Y181.651 E4.00924
G1 X155.125 Y195.527 E4.47076
G1 X155.125 Y195.689 E4.4756
M204 S5000
M205 X30 Y30
G0 F3600 X155.318 Y195.74
G1 F2400 E-0.5244
;MESH:NONMESH
G0 F3600 X155.291 Y195.835
G0 X155.128 Y195.676
G0 X154.721 Y181.635
G0 X154.752 Y180.771
G0 X142.308 Y130.797
G0 X142.267 Y129.92
G0 X142.211 Y113.922
G0 X142.281 Y113.992
;TIME_ELAPSED:17.339874
;LAYER:1
M140 S60
M106 S255
;MESH:Object 6
G0 F5400 X142.281 Y113.992 Z0.3
M204 S500
M205 X20 Y20
;TYPE:WALL-OUTER
G1 F2400 E4.4756
G1 F1800 X142.281 Y154.982 E5.15726
G1 X142.281 Y155.088 E5.15902
G1 X142.187 Y155.093 E5.16059
G1 X142.085 Y155.098 E5.16229
G1 X141.979 Y155.094 E5.16405
G1 X141.879 Y155.09 E5.16572
G1 X141.879 Y154.988 E5.16741
G1 X141.879 Y113.589 E5.85588
G1 X144.875 Y113.589 E5.90571
G1 X144.909 Y113.592 E5.90627
G1 X144.925 Y113.592 E5.90654
G1 X145.094 Y113.604 E5.90936
G1 X145.148 Y113.616 E5.91028
G1 X145.285 Y113.646 E5.91261
G1 X145.369 Y113.677 E5.9141
G1 X145.473 Y113.716 E5.91594
G1 X145.581 Y113.775 E5.91799
G1 X145.646 Y113.811 E5.91923
G1 X145.771 Y113.905 E5.92183
G1 X145.812 Y113.935 E5.92267
G1 X145.948 Y114.071 E5.92587
G1 X145.976 Y114.109 E5.92666
G1 X146.072 Y114.237 E5.92932
G1 X146.106 Y114.3 E5.93051
G1 X146.167 Y114.41 E5.9326
G1 X146.205 Y114.512 E5.93441
G1 X146.237 Y114.598 E5.93594
G1 X146.266 Y114.733 E5.93823
G1 X146.279 Y114.789 E5.93919
G1 X146.29 Y114.96 E5.94204
G1 X146.294 Y115.009 E5.94286
G1 X146.294 Y155.032 E6.60844
G1 X146.091 Y155.033 E6.61182
G1 X145.891 Y155.033 E6.61514
G1 X145.891 Y154.833 E6.6173
G1 X145.891 Y114.987 E7.27994
G1 X145.877 Y114.819 E7.28274
G1 X145.832 Y114.651 E7.28563
G1 X145.758 Y114.492 E7.28855
G1 X145.658 Y114.348 E7.29147
G1 X145.534 Y114.224 E7.29438
G1 X145.39 Y114.124 E7.2973
G1 X145.231 Y114.05 E7.30021
G1 X145.063 Y114.005 E7.30311
G1 X144.898 Y113.991 E7.30586
G1 X144.882 Y113.991 E7.30613
G1 X142.281 Y113.992 E7.34938
M204 S5000
M205 X30 Y30
G0 F5400 X142.281 Y114.192
G0 X142.279 Y114.192
G1 F2400 E2.34938
;MESH:Object 4
G0 F5400 X142.181 Y114.192
G0 X142.253 Y113.964
G0 X145.069 Y113.966
G0 X145.559 Y114.194
G0 X145.869 Y114.638
G0 X145.902 Y114.834
G0 X146.28 Y155.018
G0 X147.159 Y155.018
G0 X153.858 Y156.499
G0 X154.721 Y156.499
G0 X155.109 Y195.657
G0 X155.173 Y196.09
G0 X155.19 Y196.142
M204 S500
M205 X20 Y20
;TYPE:WALL-INNER
G1 F2400 E7.34938
G1 F2700 X155.123 Y196.252 E7.35152
G1 X155.123 Y196.123 E7.35178
G1 X155.123 Y196.102
G1 X155.16 Y196.111
G1 X155.202 Y196.123
G1 X155.19 Y196.142
M204 S5000
M205 X30 Y30
G0 F5400 X155.424 Y195.768
M204 S500
M205 X20 Y20
;TYPE:WALL-OUTER
G1 F1800 X155.435 Y195.748 E7.35216
G1 X155.514 Y195.607 E7.35485
G1 X155.934 Y194.86 E7.3691
G1 X156.326 Y194.098 E7.38335
G1 X156.342 Y194.067 E7.38393
G1 X156.719 Y193.26 E7.39875
G1 X157.064 Y192.439 E7.41356
G1 X157.378 Y191.605 E7.42838
G1 X157.529 Y191.154 E7.43629
G1 X157.644 Y190.813 E7.44227
G1 X157.661 Y190.76 E7.4432
G1 X157.676 Y190.707 E7.44411
G1 X157.895 Y189.963 E7.45701
G1 X157.911 Y189.906 E7.45799
G1 X158.129 Y189.041 E7.47283
G1 X158.138 Y188.996 E7.47359
G1 X158.313 Y188.17 E7.48763
G1 X158.357 Y187.917 E7.4919
G1 X158.466 Y187.291 E7.50247
G1 X158.471 Y187.252 E7.50312
G1 X158.584 Y186.409 E7.51727
G1 X158.667 Y185.521 E7.5321
G1 X158.719 Y184.633 E7.54689
G1 X158.735 Y183.744 E7.56168
G1 X158.735 Y156.445 E8.01566
G1 X158.938 Y156.444 E8.01904
G1 X159.138 Y156.444 E8.02237
G1 X159.138 Y156.644 E8.02452
G1 X159.138 Y183.737 E8.47508
G1 X159.122 Y184.591 E8.48928
G1 X159.076 Y185.45 E8.50359
G1 X159.001 Y186.293 E8.51766
G1 X158.895 Y187.14 E8.53186
G1 X158.867 Y187.315 E8.53481
G1 X158.861 Y187.354 E8.53546
G1 X158.758 Y187.982 E8.54603
G1 X158.591 Y188.82 E8.56024
G1 X158.528 Y189.088 E8.56482
G1 X158.518 Y189.132 E8.56557
G1 X158.395 Y189.65 E8.57442
G1 X158.296 Y190.011 E8.58065
G1 X158.281 Y190.068 E8.58163
G1 X158.169 Y190.473 E8.58862
G1 X158.058 Y190.826 E8.59477
G1 X158.042 Y190.879 E8.59569
G1 X158.026 Y190.932 E8.59661
G1 X157.913 Y191.288 E8.60282
G1 X157.755 Y191.738 E8.61074
G1 X157.627 Y192.101 E8.61714
G1 X157.436 Y192.586 E8.62581
G1 X157.317 Y192.887 E8.63119
G1 X157.085 Y193.419 E8.64085
G1 X156.976 Y193.669 E8.64538
G1 X156.702 Y194.24 E8.65591
G1 X156.687 Y194.271 E8.65649
G1 X156.607 Y194.438 E8.65957
G1 X156.211 Y195.195 E8.67377
G1 X155.863 Y195.803 E8.68542
G1 X155.784 Y195.942 E8.68808
G1 X155.764 Y195.976 E8.68873
G1 X155.34 Y196.663 E8.70216
G1 X155.101 Y197.02 E8.7093
G1 X154.865 Y197.372 E8.71635
G1 X154.723 Y197.568 E8.72038
G1 X154.723 Y197.372 E8.72079
G1 X154.723 Y196.948 E8.72567
G1 X154.723 Y156.501 E9.3983
G1 X154.944 Y156.509 E9.40198
G1 X155.125 Y156.501 E9.40499
G1 X155.125 Y195.527 E10.054
G1 X155.125 Y195.689 E10.05642
G1 X155.424 Y195.768 E10.06156
M204 S5000
M205 X30 Y30
G0 F5400 X155.435 Y195.748
G0 X155.514 Y195.607
G0 X155.522 Y195.593
G0 X155.537 Y195.599
G1 F2400 E5.06156
;MESH:NONMESH
G0 F5400 X155.609 Y195.64
G0 X155.454 Y195.748
G0 X155.109 Y195.657
G0 X154.721 Y156.499
G0 X153.858 Y156.499
G0 X147.159 Y155.018
G0 X146.28 Y155.018
G0 X145.916 Y114.813
G0 X145.688 Y114.323
G0 X145.244 Y114.013
G0 X145.049 Y113.98
G0 X142.211 Y113.922
G0 X142.281 Y113.991
;TIME_ELAPSED:31.521101
;LAYER:2
;MESH:Object 6
G0 F7200 X142.281 Y113.991 Z0.4
M204 S500
M205 X20 Y20
;TYPE:WALL-OUTER
G1 F2400 E10.06156
G1 F1800 X142.281 Y171.653 E11.02048
G1 X142.281 Y171.654 E11.0205
G1 X142.281 Y171.859 E11.02391
G1 X142.076 Y171.854 E11.0261
G1 X142.075 Y171.853 E11.02612
G1 X141.879 Y171.846 E11.02938
G1 X141.879 Y113.589 E11.9982
G1 X144.875 Y113.589 E12.04802
G1 X144.892 Y113.591 E12.04831
G1 X144.925 Y113.592 E12.04886
G1 X145.094 Y113.604 E12.05168
G1 X145.147 Y113.615 E12.05258
G1 X145.285 Y113.646 E12.05493
G1 X145.37 Y113.677 E12.05643
G1 X145.471 Y113.715 E12.05823
G1 X145.581 Y113.775 E12.06031
G1 X145.649 Y113.812 E12.0616
G1 X145.773 Y113.906 E12.06419
G1 X145.812 Y113.935 E12.06499
G1 X145.948 Y114.071 E12.06819
G1 X145.976 Y114.109 E12.06898
G1 X146.072 Y114.237 E12.07164
G1 X146.106 Y114.299 E12.07281
G1 X146.167 Y114.41 E12.07492
G1 X146.204 Y114.51 E12.07669
G1 X146.237 Y114.597 E12.07824
G1 X146.266 Y114.732 E12.08054
G1 X146.279 Y114.788 E12.08149
G1 X146.29 Y114.959 E12.08434
G1 X146.294 Y115.008 E12.08516
G1 X146.294 Y171.797 E13.02957
G1 X146.091 Y171.798 E13.03294
G1 X145.891 Y171.798 E13.03627
G1 X145.891 Y171.598 E13.03842
G1 X145.891 Y114.986 E13.97988
G1 X145.877 Y114.818 E13.98269
G1 X145.832 Y114.65 E13.98558
G1 X145.758 Y114.491 E13.9885
G1 X145.658 Y114.348 E13.9914
G1 X145.534 Y114.224 E13.99431
G1 X145.39 Y114.124 E13.99723
G1 X145.232 Y114.051 E14.00012
G1 X145.063 Y114.004 E14.00304
G1 X144.898 Y113.99 E14.00579
G1 X144.865 Y113.99 E14.00634
G1 X142.281 Y113.991 E14.04931
M204 S5000
M205 X30 Y30
G0 F7200 X142.281 Y114.191
G0 X142.279 Y114.191
G1 F2400 E9.04931
;MESH:Object 4
G0 F7200 X142.181 Y114.191
G0 X142.253 Y113.963
G0 X145.07 Y113.965
G0 X145.559 Y114.194
G0 X145.869 Y114.637
G0 X145.902 Y114.833
G0 X146.28 Y171.783
G0 X147.159 Y171.783
G0 X153.858 Y171.783
G0 X154.728 Y171.783
G0 X155.109 Y195.658
G0 X155.173 Y196.079
G0 X155.16 Y196.112
M204 S500
M205 X20 Y20
;TYPE:WALL-INNER
G1 F2400 E14.04931
G1 F3600 X155.203 Y196.124 E14.05006
G1 X155.191 Y196.144
G1 X155.123 Y196.254 E14.05123
G1 X155.123 Y196.124 E14.05151
G1 X155.123 Y196.103
G1 X155.16 Y196.112
M204 S5000
M205 X30 Y30
G0 F7200 X155.125 Y195.69
M204 S500
M205 X20 Y20
;TYPE:WALL-OUTER
G1 F1800 X155.423 Y195.769 E14.05663
G1 X155.424 Y195.769 E14.05665
G1 X155.435 Y195.749 E14.05703
G1 X155.514 Y195.608 E14.05972
G1 X155.934 Y194.861 E14.07397
G1 X156.326 Y194.099 E14.08822
G1 X156.342 Y194.068 E14.0888
G1 X156.719 Y193.261 E14.10361
G1 X157.064 Y192.44 E14.11842
G1 X157.378 Y191.606 E14.13324
G1 X157.399 Y191.542 E14.13436
G1 X157.644 Y190.813 E14.14715
G1 X157.661 Y190.761 E14.14806
G1 X157.676 Y190.708 E14.14898
G1 X157.895 Y189.964 E14.16188
G1 X157.911 Y189.907 E14.16286
G1 X158.129 Y189.042 E14.1777
G1 X158.138 Y188.997 E14.17846
G1 X158.313 Y188.171 E14.1925
G1 X158.357 Y187.918 E14.19677
G1 X158.466 Y187.292 E14.20734
G1 X158.471 Y187.253 E14.20799
G1 X158.584 Y186.41 E14.22214
G1 X158.667 Y185.522 E14.23697
G1 X158.719 Y184.634 E14.25176
G1 X158.735 Y183.745 E14.26655
G1 X158.735 Y139.68 E14.99935
G1 X158.938 Y139.679 E15.00273
G1 X159.138 Y139.679 E15.00605
G1 X159.138 Y139.879 E15.00821
G1 X159.138 Y183.738 E15.73758
G1 X159.122 Y184.592 E15.75179
G1 X159.076 Y185.451 E15.7661
G1 X159.001 Y186.294 E15.78017
G1 X158.895 Y187.141 E15.79437
G1 X158.867 Y187.316 E15.79731
G1 X158.861 Y187.355 E15.79797
G1 X158.758 Y187.983 E15.80854
G1 X158.591 Y188.821 E15.82275
G1 X158.528 Y189.089 E15.82733
G1 X158.518 Y189.133 E15.82808
G1 X158.395 Y189.651 E15.83693
G1 X158.296 Y190.012 E15.84316
G1 X158.281 Y190.069 E15.84413
G1 X158.169 Y190.474 E15.85112
G1 X158.058 Y190.827 E15.85728
G1 X158.042 Y190.88 E15.8582
G1 X158.026 Y190.932 E15.8591
G1 X157.913 Y191.289 E15.86533
G1 X157.777 Y191.675 E15.87213
G1 X157.755 Y191.739 E15.87326
G1 X157.627 Y192.102 E15.87966
G1 X157.436 Y192.587 E15.88833
G1 X157.317 Y192.888 E15.89371
G1 X157.085 Y193.42 E15.90336
G1 X156.976 Y193.67 E15.9079
G1 X156.702 Y194.241 E15.91843
G1 X156.687 Y194.272 E15.919
G1 X156.607 Y194.439 E15.92208
G1 X156.211 Y195.196 E15.93629
G1 X155.863 Y195.804 E15.94794
G1 X155.784 Y195.943 E15.95059
G1 X155.763 Y195.977 E15.95126
G1 X155.762 Y195.978 E15.95128
G1 X155.34 Y196.663 E15.96466
G1 X155.101 Y197.02 E15.9718
G1 X154.865 Y197.372 E15.97885
G1 X154.723 Y197.569 E15.98289
G1 X154.723 Y197.372 E15.98331
G1 X154.723 Y196.948 E15.98818
G1 X154.723 Y139.744 E16.93949
G1 X154.919 Y139.738 E16.94275
G1 X154.92 Y139.737 E16.94277
G1 X155.125 Y139.732 E16.94618
G1 X155.125 Y139.937 E16.94838
G1 X155.125 Y139.938 E16.94839
G1 X155.125 Y195.528 E17.87286
G1 X155.125 Y195.69 E17.87527
M204 S5000
M205 X30 Y30
G0 F7200 X155.318 Y195.741
G1 F2400 E12.87527
;MESH:NONMESH
G0 F7200 X155.292 Y195.836
G0 X155.128 Y195.676
G0 X154.722 Y139.742
G0 X153.858 Y139.742
G0 X147.159 Y139.742
G0 X146.274 Y139.742
G0 X145.916 Y114.812
G0 X145.688 Y114.323
G0 X145.245 Y114.014
G0 X145.05 Y113.979
G0 X142.211 Y113.921
G0 X142.281 Y113.991
;TIME_ELAPSED:49.711817
;LAYER:3
;MESH:Object 6
G0 X142.281 Y113.991 Z0.5
M204 S500
M205 X20 Y20
;TYPE:WALL-OUTER
G1 F2400 E17.87527
G1 F1800 X142.281 Y188.41 E19.11287
G1 X142.281 Y188.411 E19.11288
G1 X142.281 Y188.618 E19.11633
G1 X142.074 Y188.611 E19.11854
G1 X142.073 Y188.61 E19.11856
G1 X141.879 Y188.602 E19.12179
G1 X141.879 Y113.588 E20.36928
G1 X144.875 Y113.588 E20.4191
G1 X144.909 Y113.591 E20.41967
G1 X144.925 Y113.591 E20.41993
G1 X145.094 Y113.603 E20.42275
G1 X145.148 Y113.615 E20.42367
G1 X145.285 Y113.645 E20.426
G1 X145.369 Y113.676 E20.42749
G1 X145.471 Y113.714 E20.4293
G1 X145.581 Y113.774 E20.43139
