;FLAVOR:Marlin
;TIME:2480
;Filament used: 0.296176m
;Layer height: 0.06
;Generated with Cura_SteamEngine 3.6.0
M140 S60
M105
M190 S60
M104 S195
M105
M109 S195
M82 ;absolute extrusion mode
G28 ;Home
G1 Z15.0 F6000 ;Move the platform down 15mm
;Prime the extruder
G92 E0
G1 F200 E3
G92 E0
G92 E0
G1 F2400 E-5
;LAYER_COUNT:127
;LAYER:0
M107
M204 S5000
M205 X30 Y30
;MESH:Battery Case V3 Top.stl
G0 F1200 X150.797 Y110.806 Z0.2
M204 S500
M205 X20 Y20
;TYPE:WALL-INNER
G1 F2400 E0
G1 F1200 X151.311 Y110.878 E0.01726
G1 X151.858 Y110.991 E0.03584
G1 X152.363 Y111.135 E0.05331
G1 X152.867 Y111.319 E0.07115
G1 X153.365 Y111.539 E0.08926
G1 X153.844 Y111.792 E0.10728
G1 X154.295 Y112.073 E0.12495
G1 X154.736 Y112.392 E0.14305
G1 X155.146 Y112.735 E0.16083
G1 X155.532 Y113.105 E0.17862
G1 X155.903 Y113.514 E0.19698
G1 X156.214 Y113.912 E0.21378
G1 X156.533 Y114.385 E0.23276
G1 X156.8 Y114.845 E0.25045
G1 X157.04 Y115.331 E0.26848
G1 X157.236 Y115.813 E0.28578
G1 X157.403 Y116.324 E0.30366
G1 X157.537 Y116.859 E0.32201
G1 X157.631 Y117.391 E0.33997
G1 X157.689 Y117.926 E0.35787
G1 X157.708 Y118.454 E0.37545
G1 X157.692 Y118.997 E0.39351
G1 X157.637 Y119.532 E0.4114
G1 X157.544 Y120.068 E0.4295
G1 X157.418 Y120.578 E0.44697
G1 X157.25 Y121.097 E0.46511
G1 X157.052 Y121.591 E0.48281
G1 X156.809 Y122.088 E0.50121
G1 X156.545 Y122.548 E0.51885
G1 X156.256 Y122.981 E0.53617
G1 X155.918 Y123.415 E0.55446
G1 X155.549 Y123.825 E0.57281
G1 X155.18 Y124.183 E0.58991
G1 X154.751 Y124.545 E0.60858
G1 X154.329 Y124.853 E0.62596
G1 X153.86 Y125.146 E0.64435
G1 X153.408 Y125.389 E0.66142
G1 X152.901 Y125.617 E0.67991
G1 X152.385 Y125.805 E0.69817
G1 X151.89 Y125.947 E0.7153
G1 X151.353 Y126.063 E0.73357
G1 X150.815 Y126.14 E0.75165
G1 X150.291 Y126.178 E0.76912
G1 X149.752 Y126.18 E0.78705
G1 X149.203 Y126.143 E0.80535
G1 X148.689 Y126.071 E0.82262
G1 X148.142 Y125.958 E0.84119
G1 X147.632 Y125.813 E0.85883
G1 X147.136 Y125.633 E0.87638
G1 X146.636 Y125.412 E0.89456
G1 X146.157 Y125.158 E0.91259
G1 X145.704 Y124.876 E0.93034
G1 X145.257 Y124.552 E0.9487
G1 X144.854 Y124.214 E0.9662
G1 X144.465 Y123.841 E0.98412
G1 X144.097 Y123.435 E1.00235
G1 X143.785 Y123.035 E1.01922
G1 X143.467 Y122.564 E1.03812
G1 X143.2 Y122.104 E1.05581
G1 X142.966 Y121.631 E1.07336
G1 X142.758 Y121.118 E1.09178
G1 X142.596 Y120.622 E1.10913
G1 X142.463 Y120.091 E1.12734
G1 X142.369 Y119.558 E1.14534
G1 X142.311 Y119.023 E1.16324
G1 X142.292 Y118.496 E1.18078
G1 X142.308 Y117.952 E1.19888
G1 X142.364 Y117.411 E1.21697
G1 X142.458 Y116.875 E1.23507
G1 X142.582 Y116.373 E1.25226
G1 X142.752 Y115.847 E1.27065
G1 X142.95 Y115.355 E1.28829
G1 X143.192 Y114.858 E1.30668
G1 X143.46 Y114.392 E1.32456
G1 X143.744 Y113.969 E1.3415
G1 X144.082 Y113.534 E1.35982
G1 X144.453 Y113.122 E1.37826
G1 X144.82 Y112.766 E1.39527
G1 X145.249 Y112.404 E1.41394
G1 X145.671 Y112.096 E1.43132
G1 X146.135 Y111.805 E1.44953
G1 X146.597 Y111.559 E1.46694
G1 X147.095 Y111.335 E1.4851
G1 X147.619 Y111.143 E1.50366
G1 X148.11 Y111.002 E1.52066
G1 X148.647 Y110.886 E1.53893
G1 X149.173 Y110.811 E1.5566
G1 X149.721 Y110.772 E1.57487
G1 X150.25 Y110.77 E1.59247
G1 X150.797 Y110.806 E1.6107
M204 S5000
M205 X30 Y30
G0 X150.787 Y110.905
G0 X152.142 Y118.475
G0 X152.058 Y119.065
G0 X151.815 Y119.61
G0 X151.471 Y120.019
G0 X150.68 Y120.569
G0 X150.65 Y120.474
M204 S500
M205 X20 Y20
G1 X150.922 Y120.363 E1.62047
G1 X151.176 Y120.216 E1.63023
G1 X151.406 Y120.036 E1.63995
G1 X151.609 Y119.826 E1.64966
G1 X151.782 Y119.589 E1.65942
G1 X151.919 Y119.33 E1.66917
G1 X152.02 Y119.054 E1.67894
G1 X152.081 Y118.767 E1.6887
G1 X152.102 Y118.475 E1.69844
G1 X152.081 Y118.182 E1.70821
G1 X152.02 Y117.895 E1.71797
G1 X151.919 Y117.619 E1.72774
G1 X151.782 Y117.362 E1.73743
G1 X151.61 Y117.123 E1.74722
G1 X151.406 Y116.913 E1.75696
G1 X151.176 Y116.733 E1.76667
G1 X150.922 Y116.586 E1.77643
G1 X150.65 Y116.476 E1.78619
G1 X150.362 Y116.404 E1.79607
G1 X150.072 Y116.375 E1.80576
G1 X149.781 Y116.385 E1.81544
G1 X149.491 Y116.435 E1.82523
G1 X149.211 Y116.527 E1.83503
G1 X148.949 Y116.656 E1.84475
G1 X148.708 Y116.818 E1.85441
G1 X148.489 Y117.014 E1.86418
G1 X148.299 Y117.239 E1.87398
G1 X148.145 Y117.488 E1.88371
G1 X148.025 Y117.756 E1.89348
G1 X147.945 Y118.039 E1.90326
G1 X147.904 Y118.328 E1.91297
G1 X147.904 Y118.621 E1.92271
G1 X147.945 Y118.911 E1.93246
G1 X148.025 Y119.194 E1.94224
G1 X148.145 Y119.461 E1.95197
G1 X148.299 Y119.71 E1.96171
G1 X148.489 Y119.935 E1.97151
G1 X148.707 Y120.131 E1.98126
G1 X148.95 Y120.295 E1.99101
G1 X149.213 Y120.423 E2.00074
G1 X149.491 Y120.514 E2.01046
G1 X149.781 Y120.564 E2.02025
G1 X150.073 Y120.575 E2.02997
G1 X150.364 Y120.544 E2.0397
G1 X150.65 Y120.474 E2.0495
M204 S5000
M205 X30 Y30
G0 X150.68 Y120.569
G0 X151.432 Y120.065
G0 X151.815 Y119.61
G0 X152.058 Y119.065
G0 X152.142 Y118.475
G0 X152.058 Y117.884
G0 X151.815 Y117.341
G0 X151.432 Y116.884
G0 X150.939 Y116.551
G0 X150.426 Y116.384
G0 X149.433 Y116.349
G0 X149.588 Y116.824
M204 S500
M205 X20 Y20
;TYPE:WALL-OUTER
G1 X149.363 Y116.898 E2.05738
G1 X149.15 Y117.003 E2.06527
G1 X148.954 Y117.135 E2.07313
G1 X148.777 Y117.293 E2.08103
G1 X148.624 Y117.475 E2.08893
G1 X148.499 Y117.676 E2.09681
G1 X148.402 Y117.893 E2.10471
G1 X148.337 Y118.122 E2.11263
G1 X148.304 Y118.356 E2.12049
G1 X148.304 Y118.593 E2.12837
G1 X148.337 Y118.828 E2.13626
G1 X148.402 Y119.057 E2.14418
G1 X148.499 Y119.273 E2.15206
G1 X148.624 Y119.474 E2.15993
G1 X148.777 Y119.656 E2.16784
G1 X148.954 Y119.815 E2.17575
G1 X149.15 Y119.948 E2.18363
G1 X149.363 Y120.051 E2.1915
G1 X149.588 Y120.125 E2.19938
G1 X149.822 Y120.165 E2.20727
G1 X150.059 Y120.174 E2.21516
G1 X150.295 Y120.149 E2.22305
G1 X150.526 Y120.092 E2.23097
G1 X150.746 Y120.003 E2.23886
G1 X150.951 Y119.884 E2.24674
G1 X151.138 Y119.738 E2.25464
G1 X151.302 Y119.568 E2.26249
G1 X151.442 Y119.376 E2.2704
G1 X151.553 Y119.167 E2.27827
G1 X151.635 Y118.943 E2.2862
G1 X151.684 Y118.711 E2.29409
G1 X151.701 Y118.475 E2.30196
G1 X151.684 Y118.238 E2.30986
G1 X151.635 Y118.006 E2.31775
G1 X151.553 Y117.783 E2.32565
G1 X151.442 Y117.574 E2.33352
G1 X151.303 Y117.381 E2.34143
G1 X151.138 Y117.211 E2.34931
G1 X150.951 Y117.065 E2.3572
G1 X150.746 Y116.946 E2.36508
G1 X150.526 Y116.857 E2.37298
G1 X150.294 Y116.799 E2.38093
G1 X150.059 Y116.776 E2.38878
G1 X149.822 Y116.784 E2.39667
G1 X149.588 Y116.824 E2.40457
M204 S5000
M205 X30 Y30
G0 X149.398 Y116.886
G0 X149.242 Y116.411
G0 X150.073 Y116.336
G0 X150.662 Y116.438
G0 X151.198 Y116.7
G0 X156.721 Y122.042
G0 X157.165 Y122.272
M204 S500
M205 X20 Y20
G1 X156.886 Y122.758 E2.42321
G1 X156.576 Y123.221 E2.44174
G1 X156.228 Y123.668 E2.46058
G1 X155.843 Y124.097 E2.47975
G1 X155.438 Y124.489 E2.4985
G1 X155.001 Y124.858 E2.51752
G1 X154.556 Y125.183 E2.53585
G1 X154.065 Y125.49 E2.55511
G1 X153.577 Y125.752 E2.57353
G1 X153.051 Y125.988 E2.59271
G1 X152.515 Y126.183 E2.61168
G1 X151.985 Y126.336 E2.63003
G1 X151.421 Y126.457 E2.64921
G1 X150.858 Y126.538 E2.66813
G1 X150.307 Y126.578 E2.6865
G1 X149.74 Y126.58 E2.70536
G1 X149.163 Y126.541 E2.7246
G1 X148.613 Y126.464 E2.74307
G1 X148.049 Y126.347 E2.76223
G1 X147.513 Y126.195 E2.78076
G1 X146.981 Y126.002 E2.79958
G1 X146.465 Y125.774 E2.81834
G1 X145.955 Y125.503 E2.83755
G1 X145.48 Y125.208 E2.85615
G1 X145.016 Y124.872 E2.8752
G1 X144.587 Y124.513 E2.89381
G1 X144.18 Y124.123 E2.91256
G1 X143.794 Y123.696 E2.9317
G1 X143.454 Y123.261 E2.95007
G1 X143.13 Y122.781 E2.96933
G1 X142.846 Y122.292 E2.98814
G1 X142.599 Y121.791 E3.00671
G1 X142.387 Y121.269 E3.02545
G1 X142.211 Y120.73 E3.04431
G1 X142.071 Y120.171 E3.06348
G1 X141.972 Y119.614 E3.08229
G1 X141.912 Y119.051 E3.10113
G1 X141.892 Y118.499 E3.1195
G1 X141.908 Y117.926 E3.13856
G1 X141.967 Y117.357 E3.15759
G1 X142.065 Y116.8 E3.1764
G1 X142.201 Y116.25 E3.19524
G1 X142.371 Y115.724 E3.21363
G1 X142.587 Y115.187 E3.23288
G1 X142.835 Y114.676 E3.25177
G1 X143.116 Y114.187 E3.27053
G1 X143.424 Y113.728 E3.28892
G1 X143.772 Y113.281 E3.30776
G1 X144.159 Y112.85 E3.32702
G1 X144.562 Y112.46 E3.34568
G1 X144.999 Y112.091 E3.3647
G1 X145.444 Y111.766 E3.38303
G1 X145.936 Y111.458 E3.40233
G1 X146.423 Y111.198 E3.4207
G1 X146.949 Y110.962 E3.43987
G1 X147.484 Y110.766 E3.45882
G1 X148.015 Y110.613 E3.4772
G1 X148.579 Y110.492 E3.49639
G1 X149.129 Y110.413 E3.51487
G1 X149.706 Y110.372 E3.53411
G1 X150.26 Y110.37 E3.55253
G1 X150.837 Y110.408 E3.57177
G1 X151.387 Y110.485 E3.59024
G1 X151.951 Y110.602 E3.6094
G1 X152.487 Y110.754 E3.62793
G1 X153.018 Y110.948 E3.64673
G1 X153.541 Y111.179 E3.66574
G1 X154.041 Y111.443 E3.68455
G1 X154.52 Y111.741 E3.70331
G1 X154.984 Y112.077 E3.72237
G1 X155.413 Y112.436 E3.74097
G1 X155.817 Y112.823 E3.75958
G1 X156.206 Y113.253 E3.77887
G1 X156.546 Y113.688 E3.79723
G1 X156.87 Y114.168 E3.81649
G1 X157.154 Y114.657 E3.8353
G1 X157.399 Y115.154 E3.85373
G1 X157.612 Y115.677 E3.87251
G1 X157.788 Y116.216 E3.89137
G1 X157.929 Y116.778 E3.91064
G1 X158.028 Y117.335 E3.92946
G1 X158.088 Y117.898 E3.94829
G1 X158.108 Y118.451 E3.96669
G1 X158.092 Y119.023 E3.98573
G1 X158.034 Y119.586 E4.00455
G1 X157.936 Y120.146 E4.02346
G1 X157.8 Y120.697 E4.04234
G1 X157.629 Y121.225 E4.0608
G1 X157.415 Y121.759 E4.07993
G1 X157.165 Y122.272 E4.09891
M204 S5000
M205 X30 Y30
G0 X157.066 Y122.445
G0 X156.633 Y122.196
G0 X156.464 Y121.905
M204 S500
M205 X20 Y20
;TYPE:SKIN
G1 X156.211 Y122.346 E4.11582
G1 X155.948 Y122.741 E4.1316
G1 X155.619 Y123.164 E4.14943
G1 X155.263 Y123.56 E4.16714
G1 X154.922 Y123.89 E4.18292
G1 X154.51 Y124.238 E4.20086
G1 X154.109 Y124.531 E4.21738
G1 X153.665 Y124.808 E4.23478
G1 X153.232 Y125.041 E4.25114
G1 X152.755 Y125.256 E4.26854
G1 X152.268 Y125.433 E4.28577
G1 X151.792 Y125.569 E4.30224
G1 X151.287 Y125.679 E4.31943
G1 X150.773 Y125.752 E4.3367
G1 X150.276 Y125.788 E4.35327
G1 X149.776 Y125.79 E4.3699
G1 X149.23 Y125.753 E4.3881
G1 X148.757 Y125.687 E4.40399
G1 X148.236 Y125.58 E4.42168
G1 X147.757 Y125.444 E4.43824
G1 X147.282 Y125.27 E4.45506
G1 X146.808 Y125.061 E4.47229
G1 X146.35 Y124.819 E4.48952
G1 X145.911 Y124.545 E4.50673
G1 X145.494 Y124.243 E4.52386
G1 X145.11 Y123.92 E4.54055
G1 X144.751 Y123.576 E4.55708
G1 X144.396 Y123.184 E4.57467
G1 X144.097 Y122.8 E4.59086
G1 X143.792 Y122.349 E4.60897
G1 X143.542 Y121.917 E4.62557
G1 X143.319 Y121.466 E4.6423
G1 X143.128 Y120.994 E4.65924
G1 X142.97 Y120.511 E4.67614
G1 X142.845 Y120.013 E4.69322
G1 X142.756 Y119.506 E4.71034
G1 X142.699 Y118.98 E4.72794
G1 X142.682 Y118.508 E4.74365
G1 X142.698 Y117.971 E4.76152
G1 X142.752 Y117.452 E4.77887
G1 X142.842 Y116.943 E4.79606
G1 X142.955 Y116.487 E4.81169
G1 X143.119 Y115.981 E4.82938
G1 X143.307 Y115.513 E4.84615
G1 X143.537 Y115.041 E4.86362
G1 X143.798 Y114.587 E4.88104
G1 X144.06 Y114.198 E4.89663
G1 X144.372 Y113.795 E4.91359
G1 X144.743 Y113.383 E4.93203
G1 X145.078 Y113.059 E4.94753
G1 X145.49 Y112.711 E4.96546
G1 X145.89 Y112.419 E4.98194
G1 X146.324 Y112.147 E4.99897
G1 X146.78 Y111.904 E5.01616
G1 X147.239 Y111.697 E5.0329
G1 X147.74 Y111.514 E5.05064
G1 X148.208 Y111.38 E5.06684
G1 X148.713 Y111.27 E5.08403
G1 X149.214 Y111.199 E5.10086
G1 X149.735 Y111.162 E5.11823
G1 X150.226 Y111.16 E5.13456
G1 X150.77 Y111.196 E5.15269
G1 X151.243 Y111.262 E5.16858
G1 X151.763 Y111.369 E5.18623
G1 X152.242 Y111.506 E5.2028
G1 X152.717 Y111.68 E5.21963
G1 X153.199 Y111.892 E5.23714
G1 X153.649 Y112.13 E5.25407
G1 X154.078 Y112.397 E5.27088
G1 X154.497 Y112.7 E5.28808
G1 X154.891 Y113.03 E5.30517
G1 X155.243 Y113.367 E5.32138
G1 X155.604 Y113.765 E5.33925
G1 X155.898 Y114.142 E5.35515
G1 X156.209 Y114.603 E5.37365
G1 X156.451 Y115.018 E5.38963
G1 X156.685 Y115.492 E5.40721
G1 X156.865 Y115.934 E5.42308
G1 X157.028 Y116.432 E5.44051
G1 X157.154 Y116.934 E5.45773
G1 X157.243 Y117.433 E5.47458
G1 X157.3 Y117.955 E5.49205
G1 X157.318 Y118.442 E5.50826
G1 X157.302 Y118.975 E5.52599
G1 X157.251 Y119.481 E5.54291
G1 X157.161 Y119.995 E5.56026
G1 X157.045 Y120.464 E5.57633
G1 X156.883 Y120.964 E5.59381
G1 X156.701 Y121.42 E5.61014
G1 X156.464 Y121.905 E5.6281
M204 S5000
M205 X30 Y30
G0 X152.114 Y119.796
M204 S500
M205 X20 Y20
G1 X152.276 Y119.488 E5.63967
G1 X152.396 Y119.162 E5.65123
G1 X152.468 Y118.822 E5.66279
G1 X152.494 Y118.475 E5.67436
G1 X152.469 Y118.127 E5.68596
G1 X152.396 Y117.787 E5.69753
G1 X152.276 Y117.459 E5.70915
G1 X152.114 Y117.155 E5.7206
G1 X151.91 Y116.872 E5.73221
G1 X151.667 Y116.622 E5.7438
G1 X151.395 Y116.409 E5.75529
G1 X151.094 Y116.235 E5.76686
G1 X150.771 Y116.104 E5.77845
G1 X150.428 Y116.018 E5.79021
G1 X150.085 Y115.985 E5.80167
G1 X149.741 Y115.997 E5.81312
G1 X149.397 Y116.055 E5.82472
G1 X149.063 Y116.165 E5.83642
G1 X148.753 Y116.318 E5.84792
G1 X148.468 Y116.509 E5.85933
G1 X148.208 Y116.741 E5.87092
G1 X147.983 Y117.009 E5.88256
G1 X147.8 Y117.305 E5.89413
G1 X147.658 Y117.623 E5.90572
G1 X147.563 Y117.958 E5.9173
G1 X147.514 Y118.301 E5.92882
G1 X147.514 Y118.648 E5.94036
G1 X147.563 Y118.991 E5.95189
G1 X147.658 Y119.328 E5.96353
G1 X147.8 Y119.644 E5.97505
G1 X147.983 Y119.94 E5.98663
G1 X148.208 Y120.208 E5.99827
G1 X148.467 Y120.439 E6.00981
G1 X148.755 Y120.634 E6.02138
G1 X149.067 Y120.786 E6.03292
G1 X149.397 Y120.894 E6.04447
G1 X149.74 Y120.952 E6.05604
G1 X150.087 Y120.965 E6.06759
G1 X150.432 Y120.929 E6.07913
G1 X150.771 Y120.846 E6.09074
G1 X151.094 Y120.714 E6.10234
G1 X151.395 Y120.54 E6.1139
G1 X151.667 Y120.327 E6.12539
G1 X151.908 Y120.078 E6.13692
G1 X152.114 Y119.796 E6.14854
M204 S5000
M205 X30 Y30
G0 X156.141 Y114.846
M204 S500
M205 X20 Y20
G1 X153.619 Y112.324 E6.26716
G1 X153.549 Y112.254
M204 S5000
M205 X30 Y30
G0 X152.534 Y111.805
M204 S500
M205 X20 Y20
G1 X156.675 Y115.946 E6.46194
G1 X156.745 Y116.016
M204 S5000
M205 X30 Y30
G0 X156.924 Y116.761
M204 S500
M205 X20 Y20
G1 X151.705 Y111.541 E6.70745
M204 S5000
M205 X30 Y30
G0 X151.009 Y111.411
M204 S500
M205 X20 Y20
G1 X157.065 Y117.467 E6.99231
M204 S5000
M205 X30 Y30
G0 X157.124 Y118.092
M204 S500
M205 X20 Y20
G1 X150.383 Y111.351 E7.30938
M204 S5000
M205 X30 Y30
G0 X149.809 Y111.342
M204 S500
M205 X20 Y20
G1 X157.131 Y118.664 E7.65379
M204 S5000
M205 X30 Y30
G0 X157.098 Y119.197
M204 S500
M205 X20 Y20
G1 X149.275 Y111.374 E8.02176
M204 S5000
M205 X30 Y30
G0 X148.778 Y111.442
M204 S500
M205 X20 Y20
G1 X157.03 Y119.695 E8.40993
M204 S5000
M205 X30 Y30
G0 X156.933 Y120.163
M204 S500
M205 X20 Y20
G1 X148.312 Y111.542 E8.81544
M204 S5000
M205 X30 Y30
G0 X147.868 Y111.664
M204 S500
M205 X20 Y20
G1 X156.809 Y120.605 E9.23599
M204 S5000
M205 X30 Y30
G0 X156.664 Y121.026
M204 S500
M205 X20 Y20
G1 X147.45 Y111.811 E9.66941
M204 S5000
M205 X30 Y30
G0 X147.051 Y111.978
M204 S500
M205 X20 Y20
G1 X151.127 Y116.054 E9.86114
G1 X151.197 Y116.124
M204 S5000
M205 X30 Y30
G0 X150.334 Y115.827
M204 S500
M205 X20 Y20
G1 X146.672 Y112.165 E10.03339
M204 S5000
M205 X30 Y30
G0 X146.309 Y112.368
M204 S500
M205 X20 Y20
G1 X149.757 Y115.816 E10.19557
M204 S5000
M205 X30 Y30
G0 X149.278 Y115.903
M204 S500
M205 X20 Y20
G1 X145.963 Y112.588 E10.3515
M204 S5000
M205 X30 Y30
G0 X145.636 Y112.826
M204 S500
M205 X20 Y20
G1 X148.869 Y116.059 E10.50357
M204 S5000
M205 X30 Y30
G0 X148.509 Y116.265
M204 S500
M205 X20 Y20
G1 X145.327 Y113.083 E10.65324
M204 S5000
M205 X30 Y30
G0 X145.031 Y113.353
M204 S500
M205 X20 Y20
G1 X148.191 Y116.513 E10.80188
M204 S5000
M205 X30 Y30
G0 X147.918 Y116.806
M204 S500
M205 X20 Y20
G1 X144.752 Y113.639 E10.95082
M204 S5000
M205 X30 Y30
G0 X144.485 Y113.938
M204 S500
M205 X20 Y20
