;FLAVOR:Marlin
;TIME:2136
;Filament used: 0.261478m
;Layer height: 0.06
;Generated with Cura_SteamEngine 3.6.0
M140 S60
M105
M190 S60
M104 S195
M105
M109 S195
M82 ;absolute extrusion mode
G28 ;Home
G1 Z15.0 F6000 ;Move the platform down 15mm
;Prime the extruder
G92 E0
G1 F200 E3
G92 E0
G92 E0
G1 F2400 E-5
;LAYER_COUNT:141
;LAYER:0
M107
M204 S5000
M205 X30 Y30
;MESH:Battery Case Top.stl
G0 F1200 X152.697 Y148.938 Z0.2
M204 S500
M205 X20 Y20
;TYPE:WALL-INNER
G1 F2400 E0
G1 F1200 X153.181 Y149.006 E0.01626
G1 X153.664 Y149.107 E0.03267
G1 X154.139 Y149.242 E0.04909
G1 X154.605 Y149.411 E0.06558
G1 X155.071 Y149.617 E0.08253
G1 X155.497 Y149.843 E0.09856
G1 X155.926 Y150.109 E0.11535
G1 X156.319 Y150.394 E0.1315
G1 X156.707 Y150.718 E0.14831
G1 X157.059 Y151.057 E0.16457
G1 X157.393 Y151.427 E0.18115
G1 X157.698 Y151.816 E0.19759
G1 X157.973 Y152.22 E0.21384
G1 X158.222 Y152.651 E0.2304
G1 X158.446 Y153.107 E0.24729
G1 X158.626 Y153.548 E0.26314
G1 X158.777 Y154.009 E0.27927
G1 X158.904 Y154.514 E0.29659
G1 X158.991 Y154.996 E0.31288
G1 X159.043 Y155.482 E0.32914
G1 X159.062 Y155.981 E0.34575
G1 X159.047 Y156.484 E0.36248
G1 X158.998 Y156.965 E0.37856
G1 X158.911 Y157.468 E0.39554
G1 X158.796 Y157.932 E0.41144
G1 X158.64 Y158.414 E0.42829
G1 X158.453 Y158.879 E0.44496
G1 X158.246 Y159.308 E0.46081
G1 X157.988 Y159.757 E0.47803
G1 X157.72 Y160.156 E0.49402
G1 X157.419 Y160.543 E0.51032
G1 X157.073 Y160.928 E0.52754
G1 X156.735 Y161.256 E0.5432
G1 X156.349 Y161.582 E0.56001
G1 X155.938 Y161.882 E0.57693
G1 X155.534 Y162.135 E0.59279
G1 X155.088 Y162.375 E0.60963
G1 X154.645 Y162.573 E0.62577
G1 X154.16 Y162.751 E0.64295
G1 X153.705 Y162.881 E0.65869
G1 X153.207 Y162.989 E0.67564
G1 X152.713 Y163.059 E0.69224
G1 X152.233 Y163.093 E0.70824
G1 X151.734 Y163.095 E0.72484
G1 X151.23 Y163.062 E0.74164
G1 X150.746 Y162.994 E0.75789
G1 X150.263 Y162.893 E0.77431
G1 X149.788 Y162.758 E0.79073
G1 X149.322 Y162.589 E0.80722
G1 X148.865 Y162.387 E0.82384
G1 X148.425 Y162.153 E0.84041
G1 X148.001 Y161.891 E0.85699
G1 X147.608 Y161.606 E0.87313
G1 X147.22 Y161.282 E0.88995
G1 X146.868 Y160.943 E0.9062
G1 X146.534 Y160.573 E0.92278
G1 X146.226 Y160.18 E0.93939
G1 X145.957 Y159.781 E0.95539
G1 X145.702 Y159.343 E0.97225
G1 X145.487 Y158.905 E0.98848
G1 X145.295 Y158.433 E1.00543
G1 X145.146 Y157.978 E1.02135
G1 X145.021 Y157.477 E1.03852
G1 X144.936 Y157.003 E1.05454
G1 X144.884 Y156.508 E1.0711
G1 X144.866 Y156.018 E1.0874
G1 X144.88 Y155.516 E1.10411
G1 X144.928 Y155.035 E1.12018
G1 X145.017 Y154.53 E1.13724
G1 X145.132 Y154.065 E1.15317
G1 X145.289 Y153.58 E1.17013
G1 X145.471 Y153.127 E1.18636
G1 X145.697 Y152.662 E1.20356
G1 X145.935 Y152.25 E1.21939
G1 X146.207 Y151.844 E1.23564
G1 X146.508 Y151.458 E1.25192
G1 X146.856 Y151.07 E1.26925
G1 X147.192 Y150.744 E1.28483
G1 X147.578 Y150.418 E1.30163
G1 X147.983 Y150.121 E1.31833
G1 X148.412 Y149.854 E1.33514
G1 X148.834 Y149.627 E1.35108
G1 X149.282 Y149.427 E1.3674
G1 X149.767 Y149.249 E1.38458
G1 X150.222 Y149.119 E1.40032
G1 X150.72 Y149.011 E1.41727
G1 X151.214 Y148.941 E1.43386
G1 X151.694 Y148.907 E1.44987
G1 X152.193 Y148.905 E1.46646
G1 X152.697 Y148.938 E1.48326
M204 S5000
M205 X30 Y30
G0 X152.687 Y149.037
G0 X154.099 Y155.851
G0 X154.058 Y156.446
G0 X153.854 Y157.004
G0 X153.656 Y157.277
G0 X153.064 Y157.906
G0 X153.015 Y157.82
M204 S500
M205 X20 Y20
G1 X153.257 Y157.656 E1.49299
G1 X153.475 Y157.46 E1.50274
G1 X153.663 Y157.236 E1.51246
G1 X153.819 Y156.986 E1.52226
G1 X153.938 Y156.719 E1.53199
G1 X154.019 Y156.438 E1.54171
G1 X154.06 Y156.147 E1.55149
G1 X154.06 Y155.853 E1.56127
G1 X154.019 Y155.562 E1.57104
G1 X153.938 Y155.281 E1.58077
G1 X153.819 Y155.014 E1.59049
G1 X153.663 Y154.764 E1.60029
G1 X153.475 Y154.54 E1.61002
G1 X153.257 Y154.344 E1.61977
G1 X153.014 Y154.18 E1.62952
G1 X152.761 Y154.057 E1.63887
G1 X152.604 Y153.998 E1.64445
G1 X152.327 Y153.931 E1.65393
G1 X152.037 Y153.9 E1.66363
G1 X151.744 Y153.91 E1.67338
G1 X151.455 Y153.962 E1.68315
G1 X151.178 Y154.051 E1.69283
G1 X150.913 Y154.18 E1.70263
G1 X150.67 Y154.344 E1.71238
G1 X150.453 Y154.54 E1.72211
G1 X150.264 Y154.764 E1.73185
G1 X150.108 Y155.014 E1.74165
G1 X149.989 Y155.281 E1.75138
G1 X149.908 Y155.562 E1.7611
G1 X149.867 Y155.853 E1.77088
G1 X149.867 Y156.147 E1.78066
G1 X149.908 Y156.438 E1.79043
G1 X149.989 Y156.719 E1.80016
G1 X150.108 Y156.986 E1.80988
G1 X150.264 Y157.236 E1.81968
G1 X150.453 Y157.46 E1.82943
G1 X150.67 Y157.656 E1.83915
G1 X150.913 Y157.82 E1.84891
G1 X151.165 Y157.943 E1.85823
G1 X151.324 Y158.002 E1.86387
G1 X151.6 Y158.069 E1.87332
G1 X151.89 Y158.1 E1.88302
G1 X152.183 Y158.09 E1.89277
G1 X152.472 Y158.038 E1.90254
G1 X152.749 Y157.949 E1.91221
G1 X153.015 Y157.82 E1.92205
M204 S5000
M205 X30 Y30
G0 X153.064 Y157.906
G0 X153.695 Y157.259
G0 X153.975 Y156.732
G0 X154.099 Y156.149
G0 X154.058 Y155.554
G0 X153.854 Y154.996
G0 X153.656 Y154.723
G0 X153.032 Y154.078
G0 X152.814 Y154.527
M204 S500
M205 X20 Y20
;TYPE:WALL-OUTER
G1 X152.603 Y154.425 E1.92984
G1 X152.486 Y154.381 E1.934
G1 X152.259 Y154.326 E1.94177
G1 X152.023 Y154.301 E1.94966
G1 X151.786 Y154.309 E1.95755
G1 X151.552 Y154.351 E1.96545
G1 X151.327 Y154.423 E1.97331
G1 X151.114 Y154.527 E1.9812
G1 X150.917 Y154.66 E1.9891
G1 X150.741 Y154.819 E1.99699
G1 X150.588 Y155 E2.00487
G1 X150.462 Y155.202 E2.01279
G1 X150.366 Y155.418 E2.02065
G1 X150.3 Y155.646 E2.02855
G1 X150.267 Y155.881 E2.03644
G1 X150.267 Y156.119 E2.04436
G1 X150.3 Y156.354 E2.05225
G1 X150.366 Y156.582 E2.06014
G1 X150.462 Y156.798 E2.06801
G1 X150.588 Y157 E2.07592
G1 X150.741 Y157.181 E2.08381
G1 X150.917 Y157.34 E2.0917
G1 X151.114 Y157.473 E2.0996
G1 X151.323 Y157.575 E2.10734
G1 X151.441 Y157.619 E2.11153
G1 X151.668 Y157.674 E2.11929
G1 X151.904 Y157.699 E2.12719
G1 X152.141 Y157.691 E2.13507
G1 X152.375 Y157.649 E2.14298
G1 X152.6 Y157.577 E2.15084
G1 X152.814 Y157.473 E2.15875
G1 X153.01 Y157.34 E2.16663
G1 X153.187 Y157.181 E2.17454
G1 X153.339 Y157 E2.18241
G1 X153.465 Y156.798 E2.19032
G1 X153.561 Y156.582 E2.19819
G1 X153.627 Y156.354 E2.20608
G1 X153.66 Y156.119 E2.21397
G1 X153.66 Y155.881 E2.22189
G1 X153.627 Y155.646 E2.22978
G1 X153.561 Y155.418 E2.23768
G1 X153.465 Y155.202 E2.24554
G1 X153.339 Y155 E2.25346
G1 X153.187 Y154.819 E2.26132
G1 X153.01 Y154.66 E2.26923
G1 X152.814 Y154.527 E2.27711
M204 S5000
M205 X30 Y30
G0 X152.634 Y154.44
G0 X152.852 Y153.991
G0 X153.378 Y154.413
G0 X158.158 Y159.262
G0 X158.593 Y159.508
M204 S500
M205 X20 Y20
G1 X158.332 Y159.961 E2.2945
G1 X158.045 Y160.389 E2.31164
G1 X157.724 Y160.802 E2.32904
G1 X157.367 Y161.2 E2.34682
G1 X156.993 Y161.562 E2.36413
G1 X156.599 Y161.895 E2.38129
G1 X156.165 Y162.212 E2.39916
G1 X155.728 Y162.486 E2.41632
G1 X155.273 Y162.73 E2.43349
G1 X154.79 Y162.946 E2.45109
G1 X154.29 Y163.129 E2.4688
G1 X153.8 Y163.27 E2.48576
G1 X153.275 Y163.383 E2.50362
G1 X152.757 Y163.457 E2.52102
G1 X152.248 Y163.493 E2.53799
G1 X151.724 Y163.495 E2.55542
G1 X151.19 Y163.46 E2.57322
G1 X150.681 Y163.389 E2.59031
G1 X150.158 Y163.279 E2.60809
G1 X149.664 Y163.139 E2.62517
G1 X149.172 Y162.96 E2.64258
G1 X148.694 Y162.749 E2.65996
G1 X148.223 Y162.499 E2.67769
G1 X147.784 Y162.227 E2.69487
G1 X147.354 Y161.916 E2.71252
G1 X146.963 Y161.589 E2.72948
G1 X146.576 Y161.217 E2.74733
G1 X146.225 Y160.828 E2.76476
G1 X145.911 Y160.427 E2.7817
G1 X145.614 Y159.988 E2.79932
G1 X145.351 Y159.536 E2.81672
G1 X145.117 Y159.059 E2.83439
G1 X144.924 Y158.584 E2.85144
G1 X144.761 Y158.086 E2.86887
G1 X144.631 Y157.568 E2.88663
G1 X144.54 Y157.061 E2.90377
G1 X144.485 Y156.54 E2.92119
G1 X144.466 Y156.022 E2.93843
G1 X144.48 Y155.492 E2.95606
G1 X144.532 Y154.98 E2.97318
G1 X144.625 Y154.451 E2.99105
G1 X144.751 Y153.942 E3.00849
G1 X144.908 Y153.457 E3.02544
G1 X145.108 Y152.959 E3.04329
G1 X145.337 Y152.487 E3.06074
G1 X145.598 Y152.035 E3.0781
G1 X145.882 Y151.611 E3.09507
G1 X146.203 Y151.198 E3.11247
G1 X146.562 Y150.798 E3.13035
G1 X146.934 Y150.438 E3.14757
G1 X147.328 Y150.105 E3.16472
G1 X147.757 Y149.791 E3.18241
G1 X148.206 Y149.511 E3.20001
G1 X148.66 Y149.267 E3.21715
G1 X149.137 Y149.054 E3.23452
G1 X149.637 Y148.871 E3.25223
G1 X150.127 Y148.73 E3.26919
G1 X150.652 Y148.617 E3.28705
G1 X151.17 Y148.543 E3.30446
G1 X151.679 Y148.507 E3.32143
G1 X152.203 Y148.505 E3.33886
G1 X152.737 Y148.54 E3.35665
G1 X153.246 Y148.611 E3.37375
G1 X153.769 Y148.721 E3.39152
G1 X154.263 Y148.861 E3.4086
G1 X154.755 Y149.04 E3.42601
G1 X155.233 Y149.251 E3.44339
G1 X155.705 Y149.501 E3.46116
G1 X156.143 Y149.773 E3.47831
G1 X156.573 Y150.084 E3.49596
G1 X156.964 Y150.411 E3.51291
G1 X157.351 Y150.783 E3.53076
G1 X157.702 Y151.172 E3.54819
G1 X158.021 Y151.579 E3.56539
G1 X158.311 Y152.006 E3.58256
G1 X158.573 Y152.458 E3.59993
G1 X158.81 Y152.941 E3.61783
G1 X159.002 Y153.412 E3.63475
G1 X159.165 Y153.911 E3.65221
G1 X159.296 Y154.432 E3.67007
G1 X159.387 Y154.939 E3.68721
G1 X159.442 Y155.453 E3.7044
G1 X159.462 Y155.977 E3.72184
G1 X159.447 Y156.508 E3.73951
G1 X159.395 Y157.02 E3.75663
G1 X159.303 Y157.546 E3.77439
G1 X159.177 Y158.055 E3.79183
G1 X159.019 Y158.543 E3.80889
G1 X158.819 Y159.041 E3.82674
G1 X158.593 Y159.508 E3.84399
M204 S5000
M205 X30 Y30
G0 X158.493 Y159.681
G0 X158.061 Y159.432
G0 X157.903 Y159.121
M204 S500
M205 X20 Y20
;TYPE:SKIN
G1 X157.659 Y159.546 E3.86029
G1 X157.403 Y159.928 E3.87559
G1 X157.12 Y160.292 E3.89092
G1 X156.788 Y160.662 E3.90746
G1 X156.477 Y160.963 E3.92185
G1 X156.108 Y161.275 E3.93792
G1 X155.724 Y161.556 E3.95375
G1 X155.329 Y161.802 E3.96923
G1 X154.923 Y162.021 E3.98457
G1 X154.491 Y162.215 E4.00032
G1 X154.039 Y162.38 E4.01632
G1 X153.607 Y162.503 E4.03126
G1 X153.141 Y162.605 E4.04713
G1 X152.686 Y162.669 E4.06241
G1 X152.206 Y162.703 E4.07842
G1 X151.757 Y162.705 E4.09335
G1 X151.258 Y162.672 E4.10998
G1 X150.818 Y162.61 E4.12476
G1 X150.352 Y162.513 E4.14059
G1 X149.913 Y162.389 E4.15577
G1 X149.468 Y162.226 E4.17153
G1 X149.037 Y162.036 E4.1872
G1 X148.617 Y161.813 E4.20301
G1 X148.213 Y161.563 E4.21881
G1 X147.858 Y161.306 E4.23339
G1 X147.48 Y160.99 E4.24978
G1 X147.139 Y160.662 E4.26551
G1 X146.832 Y160.322 E4.28075
G1 X146.546 Y159.956 E4.2962
G1 X146.285 Y159.569 E4.31172
G1 X146.05 Y159.165 E4.32727
G1 X145.838 Y158.733 E4.34327
G1 X145.66 Y158.295 E4.359
G1 X145.521 Y157.874 E4.37375
G1 X145.403 Y157.402 E4.38993
G1 X145.323 Y156.951 E4.40516
G1 X145.273 Y156.472 E4.42118
G1 X145.256 Y156.029 E4.43592
G1 X145.27 Y155.527 E4.45263
G1 X145.315 Y155.082 E4.4675
G1 X145.401 Y154.598 E4.48385
G1 X145.505 Y154.179 E4.49821
G1 X145.656 Y153.714 E4.51447
G1 X145.828 Y153.285 E4.52985
G1 X146.047 Y152.834 E4.54652
G1 X146.266 Y152.456 E4.56105
G1 X146.519 Y152.078 E4.57618
G1 X146.807 Y151.709 E4.59175
G1 X147.146 Y151.331 E4.60864
G1 X147.45 Y151.037 E4.6227
G1 X147.83 Y150.716 E4.63925
G1 X148.196 Y150.448 E4.65434
G1 X148.608 Y150.191 E4.67049
G1 X148.999 Y149.981 E4.68525
G1 X149.436 Y149.785 E4.70118
G1 X149.888 Y149.62 E4.71718
G1 X150.32 Y149.497 E4.73212
G1 X150.786 Y149.395 E4.74799
G1 X151.241 Y149.331 E4.76327
G1 X151.721 Y149.297 E4.77927
G1 X152.17 Y149.295 E4.79421
G1 X152.669 Y149.328 E4.81084
G1 X153.109 Y149.39 E4.82562
G1 X153.575 Y149.487 E4.84145
G1 X154.014 Y149.611 E4.85662
G1 X154.459 Y149.774 E4.87239
G1 X154.899 Y149.968 E4.88838
G1 X155.314 Y150.188 E4.904
G1 X155.703 Y150.429 E4.91922
G1 X156.069 Y150.694 E4.93425
G1 X156.447 Y151.01 E4.95064
G1 X156.788 Y151.338 E4.96638
G1 X157.095 Y151.678 E4.98161
G1 X157.383 Y152.046 E4.99715
G1 X157.643 Y152.428 E5.01252
G1 X157.871 Y152.823 E5.02769
G1 X158.095 Y153.279 E5.04459
G1 X158.26 Y153.683 E5.0591
G1 X158.402 Y154.117 E5.07429
G1 X158.52 Y154.584 E5.09031
G1 X158.606 Y155.059 E5.10637
G1 X158.653 Y155.497 E5.12102
G1 X158.672 Y155.983 E5.1372
G1 X158.657 Y156.462 E5.15314
G1 X158.612 Y156.914 E5.16824
G1 X158.529 Y157.392 E5.18438
G1 X158.423 Y157.818 E5.19898
G1 X158.273 Y158.28 E5.21514
G1 X158.096 Y158.721 E5.23094
G1 X157.903 Y159.121 E5.24571
M204 S5000
M205 X30 Y30
G0 X154.164 Y157.169
M204 S500
M205 X20 Y20
G1 X154.305 Y156.853 E5.25722
G1 X154.401 Y156.52 E5.26875
G1 X154.45 Y156.174 E5.28037
G1 X154.45 Y155.826 E5.29195
G1 X154.401 Y155.48 E5.30357
G1 X154.305 Y155.147 E5.3151
G1 X154.164 Y154.831 E5.32661
G1 X153.979 Y154.534 E5.33824
G1 X153.756 Y154.269 E5.34976
G1 X153.497 Y154.036 E5.36135
G1 X153.209 Y153.841 E5.37292
G1 X152.915 Y153.698 E5.38379
G1 X152.719 Y153.624 E5.39076
G1 X152.393 Y153.546 E5.40191
G1 X152.051 Y153.51 E5.41335
G1 X151.703 Y153.522 E5.42493
G1 X151.36 Y153.583 E5.43652
G1 X151.032 Y153.688 E5.44797
G1 X150.718 Y153.841 E5.45959
G1 X150.428 Y154.036 E5.47121
G1 X150.172 Y154.269 E5.48272
G1 X149.948 Y154.534 E5.49427
G1 X149.763 Y154.831 E5.5059
G1 X149.622 Y155.147 E5.51741
G1 X149.526 Y155.48 E5.52894
G1 X149.477 Y155.826 E5.54056
G1 X149.477 Y156.174 E5.55214
G1 X149.526 Y156.52 E5.56376
G1 X149.622 Y156.853 E5.57529
G1 X149.763 Y157.169 E5.58679
G1 X149.948 Y157.466 E5.59843
G1 X150.172 Y157.731 E5.60997
G1 X150.428 Y157.964 E5.62149
G1 X150.718 Y158.159 E5.63311
G1 X151.011 Y158.302 E5.64395
G1 X151.209 Y158.376 E5.65098
G1 X151.534 Y158.454 E5.6621
G1 X151.876 Y158.49 E5.67354
G1 X152.224 Y158.478 E5.68512
G1 X152.567 Y158.417 E5.69671
G1 X152.895 Y158.312 E5.70816
G1 X153.21 Y158.159 E5.71981
G1 X153.498 Y157.964 E5.73138
G1 X153.756 Y157.731 E5.74294
G1 X153.979 Y157.466 E5.75446
G1 X154.164 Y157.169 E5.7661
M204 S5000
M205 X30 Y30
G0 X157.21 Y152.119
M204 S500
M205 X20 Y20
G1 X155.846 Y150.755 E5.83026
G1 X155.776 Y150.685
M204 S5000
M205 X30 Y30
G0 X154.527 Y150.002
M204 S500
M205 X20 Y20
G1 X157.966 Y153.44 E5.99199
G1 X158.036 Y153.51
M204 S5000
M205 X30 Y30
G0 X158.262 Y154.302
M204 S500
M205 X20 Y20
G1 X153.657 Y149.697 E6.2086
M204 S5000
M205 X30 Y30
G0 X152.943 Y149.549
M204 S500
M205 X20 Y20
G1 X158.415 Y155.021 E6.46598
M204 S5000
M205 X30 Y30
G0 X158.478 Y155.65
M204 S500
M205 X20 Y20
G1 X152.314 Y149.485 E6.75594
M204 S5000
M205 X30 Y30
G0 X151.74 Y149.477
M204 S500
M205 X20 Y20
G1 X158.483 Y156.221 E7.07314
M204 S5000
M205 X30 Y30
G0 X158.447 Y156.75
M204 S500
M205 X20 Y20
G1 X151.214 Y149.517 E7.41335
M204 S5000
M205 X30 Y30
G0 X150.723 Y149.591
M204 S500
M205 X20 Y20
G1 X158.372 Y157.24 E7.77314
M204 S5000
M205 X30 Y30
G0 X158.266 Y157.701
M204 S500
M205 X20 Y20
G1 X150.265 Y149.7 E8.14948
M204 S5000
M205 X30 Y30
G0 X149.832 Y149.832
M204 S500
M205 X20 Y20
G1 X158.132 Y158.132 E8.53989
M204 S5000
M205 X30 Y30
G0 X157.974 Y158.539
M204 S500
M205 X20 Y20
G1 X154.438 Y155.004 E8.70619
M204 S5000
M205 X30 Y30
G0 X154.621 Y155.752
M204 S500
M205 X20 Y20
G1 X157.795 Y158.927 E8.85551
M204 S5000
M205 X30 Y30
G0 X157.596 Y159.293
M204 S500
M205 X20 Y20
G1 X154.611 Y156.308 E8.99591
M204 S5000
M205 X30 Y30
G0 X154.514 Y156.776
M204 S500
M205 X20 Y20
G1 X157.379 Y159.642 E9.1307
M204 S5000
M205 X30 Y30
G0 X157.141 Y159.97
M204 S500
M205 X20 Y20
G1 X154.354 Y157.182 E9.26181
M204 S5000
M205 X30 Y30
G0 X154.145 Y157.539
M204 S500
M205 X20 Y20
G1 X156.887 Y160.281 E9.39079
M204 S5000
M205 X30 Y30
G0 X156.616 Y160.576
M204 S500
M205 X20 Y20
G1 X153.889 Y157.849 E9.51906
M204 S5000
M205 X30 Y30
G0 X153.592 Y158.117
M204 S500
M205 X20 Y20
G1 X156.327 Y160.852 E9.6477
M204 S5000
M205 X30 Y30
G0 X156.02 Y161.112
M204 S500
M205 X20 Y20
G1 X153.249 Y158.34 E9.77807
M204 S5000
M205 X30 Y30
G0 X152.856 Y158.513
M204 S500
M205 X20 Y20
G1 X155.695 Y161.352 E9.9116
M204 S5000
M205 X30 Y30
G0 X155.352 Y161.574
