;FLAVOR:Marlin
;TIME:5125
;Filament used: 2.37832m
;Layer height: 0.1
;Generated with Cura_SteamEngine 3.6.0
M140 S60
M105
M190 S60
M104 S195
M105
M109 S195
M82 ;absolute extrusion mode
G28 ;Home
G1 Z15.0 F6000 ;Move the platform down 15mm
;Prime the extruder
G92 E0
G1 F200 E3
G92 E0
G92 E0
G1 F2400 E-5
;LAYER_COUNT:26
;LAYER:0
M107
M204 S5000
M205 X30 Y30
G0 F3600 X98.254 Y99.984 Z0.2
M204 S500
M205 X20 Y20
;TYPE:SKIRT
G1 F2400 E0
G1 F1800 X98.799 Y99.521 E0.02378
G1 X99.66 Y98.97 E0.05778
G1 X103.621 Y96.86 E0.20705
G1 X108.236 Y94.099 E0.38592
G1 X110.359 Y92.703 E0.47043
G1 X114.73 Y89.556 E0.64957
G1 X117.751 Y87.173 E0.77755
G1 X118.336 Y86.762 E0.80133
G1 X118.964 Y86.419 E0.82513
G1 X119.589 Y86.161 E0.84762
G1 X120.265 Y85.923 E0.87145
G1 X120.952 Y85.724 E0.89524
G1 X121.656 Y85.602 E0.91901
G1 X122.37 Y85.56 E0.94279
G1 X122.982 Y85.587 E0.96317
G1 X129.144 Y86.159 E1.169
G1 X134.446 Y86.386 E1.34551
G1 X139.767 Y86.312 E1.5225
G1 X143.635 Y86.079 E1.65138
G1 X144.002 Y86.067 E1.6636
G1 X147.275 Y86.058 E1.77246
G1 X147.575 Y86.064 E1.78244
G1 X154.854 Y86.385 E2.02477
G1 X160.127 Y86.312 E2.20017
G1 X165.476 Y85.933 E2.37853
G1 X168.633 Y85.585 E2.48416
G1 X169.347 Y85.546 E2.50795
G1 X170.192 Y85.604 E2.53612
G1 X170.747 Y85.679 E2.55474
G1 X171.449 Y85.814 E2.57852
G1 X172.365 Y86.119 E2.61063
G1 X172.687 Y86.254 E2.62224
G1 X173.33 Y86.567 E2.64603
G1 X173.798 Y86.855 E2.66431
G1 X180.087 Y91.11 E2.91686
G1 X184.634 Y93.77 E3.09207
G1 X189.35 Y96.185 E3.26829
G1 X194.174 Y98.318 E3.44373
G1 X199.145 Y100.189 E3.62038
G1 X204.196 Y101.77 E3.79642
G1 X209.393 Y103.081 E3.97469
G1 X211.892 Y103.597 E4.05956
G1 X218.185 Y104.624 E4.27163
G1 X218.884 Y104.778 E4.29544
G1 X219.666 Y105.054 E4.32302
G1 X220.24 Y105.299 E4.34378
G1 X220.882 Y105.616 E4.36759
G1 X221.483 Y106.003 E4.39137
G1 X222.231 Y106.637 E4.42398
G1 X222.832 Y107.232 E4.45211
G1 X223.311 Y107.763 E4.47589
G1 X223.728 Y108.344 E4.49968
G1 X224.124 Y109.065 E4.52704
G1 X224.355 Y109.558 E4.54515
G1 X224.622 Y110.221 E4.56892
G1 X224.813 Y110.91 E4.5927
G1 X224.927 Y111.627 E4.61685
G1 X225.029 Y112.633 E4.65048
G1 X225.062 Y113.284 E4.67216
G1 X225.05 Y127.612 E5.14871
G1 X225.009 Y128.326 E5.1725
G1 X224.889 Y129.032 E5.19632
G1 X224.692 Y129.719 E5.22009
G1 X224.418 Y130.38 E5.24389
G1 X224.03 Y131.073 E5.2703
G1 X221.689 Y134.707 E5.41408
G1 X219.022 Y139.33 E5.59159
G1 X216.65 Y144.038 E5.76693
G1 X214.517 Y148.946 E5.94492
G1 X213.561 Y151.422 E6.0332
G1 X212.72 Y153.814 E6.11753
G1 X211.152 Y158.936 E6.29569
G1 X209.883 Y164.112 E6.47295
G1 X209.363 Y166.699 E6.56071
G1 X208.928 Y169.246 E6.64665
G1 X208.252 Y174.527 E6.82373
G1 X207.878 Y179.82 E7.00022
G1 X207.795 Y184.616 E7.15976
G1 X207.866 Y194.368 E7.48412
G1 X207.792 Y195.383 E7.51797
G1 X206.809 Y201.798 E7.73382
G1 X206.374 Y206.008 E7.87459
G1 X206.261 Y206.714 E7.89837
G1 X206.069 Y207.403 E7.92216
G1 X205.802 Y208.066 E7.94593
G1 X205.463 Y208.696 E7.96973
G1 X205.055 Y209.284 E7.99353
G1 X204.585 Y209.823 E8.01732
G1 X204.057 Y210.305 E8.0411
G1 X203.479 Y210.726 E8.06488
G1 X202.857 Y211.08 E8.08868
G1 X202.2 Y211.362 E8.11246
G1 X201.65 Y211.535 E8.13164
G1 X195.295 Y213.222 E8.35033
G1 X190.153 Y214.784 E8.52907
G1 X185.205 Y216.599 E8.70436
G1 X179.706 Y218.992 E8.90383
G1 X179.035 Y219.241 E8.92763
G1 X178.341 Y219.413 E8.95141
G1 X177.632 Y219.506 E8.9752
G1 X176.916 Y219.52 E8.99901
G1 X176.204 Y219.453 E9.0228
G1 X175.809 Y219.381 E9.03615
G1 X173.519 Y218.889 E9.11406
G1 X168.242 Y217.975 E9.29219
G1 X162.969 Y217.365 E9.46874
G1 X157.696 Y217.057 E9.64442
G1 X152.393 Y217.046 E9.82079
G1 X147.128 Y217.334 E9.99617
G1 X141.844 Y217.924 E10.17301
G1 X136.591 Y218.814 E10.35021
G1 X133.126 Y219.563 E10.46812
G1 X132.826 Y219.621 E10.47829
G1 X122.629 Y221.322 E10.82213
G1 X122.119 Y221.386 E10.83922
G1 X117.75 Y221.758 E10.98506
G1 X117.035 Y221.779 E11.00885
G1 X116.673 Y221.759 E11.02091
G1 X112.444 Y221.405 E11.16206
G1 X111.87 Y221.33 E11.18131
G1 X104.828 Y220.092 E11.41912
G1 X101.76 Y219.646 E11.52224
G1 X101.059 Y219.504 E11.54603
G1 X100.378 Y219.284 E11.56983
G1 X99.726 Y218.99 E11.59362
G1 X99.111 Y218.625 E11.6174
G1 X98.541 Y218.193 E11.64119
G1 X98.022 Y217.701 E11.66498
G1 X97.562 Y217.154 E11.68875
G1 X97.165 Y216.559 E11.71254
G1 X96.837 Y215.923 E11.73634
G1 X96.583 Y215.254 E11.76014
G1 X96.404 Y214.562 E11.78391
G1 X96.304 Y213.854 E11.8077
G1 X96.281 Y213.353 E11.82438
G1 X96.269 Y211.426 E11.88847
G1 X96.283 Y210.958 E11.90404
G1 X96.687 Y204.934 E12.10485
G1 X96.746 Y200.987 E12.23614
G1 X96.283 Y130.111 E14.59354
G1 X95.95 Y124.789 E14.7709
G1 X95.408 Y120.106 E14.92769
G1 X95.365 Y119.362 E14.95248
G1 X95.368 Y117.005 E15.03088
G1 X95.411 Y116.271 E15.05533
G1 X95.809 Y112.86 E15.16955
G1 X96.189 Y107.511 E15.34791
G1 X96.271 Y104.446 E15.44989
G1 X96.33 Y103.733 E15.47368
G1 X96.469 Y103.031 E15.49748
G1 X96.685 Y102.35 E15.52125
G1 X96.975 Y101.696 E15.54504
G1 X97.337 Y101.079 E15.56883
G1 X97.765 Y100.506 E15.59262
G1 X98.254 Y99.984 E15.61641
M204 S5000
M205 X30 Y30
G0 F3600 X98.643 Y100.169
M204 S500
M205 X20 Y20
G1 F1800 X99.183 Y99.735 E15.63945
G1 X99.848 Y99.323 E15.66547
G1 X103.82 Y97.207 E15.81516
G1 X108.445 Y94.44 E15.99441
G1 X110.581 Y93.037 E16.07941
G1 X114.968 Y89.877 E16.25924
G1 X117.998 Y87.487 E16.38759
G1 X118.566 Y87.09 E16.41064
G1 X119.175 Y86.762 E16.43365
G1 X119.721 Y86.539 E16.45326
G1 X120.397 Y86.301 E16.4771
G1 X121.063 Y86.109 E16.50015
G1 X121.746 Y85.995 E16.52318
G1 X122.438 Y85.96 E16.54623
G1 X122.945 Y85.986 E16.56312
G1 X129.089 Y86.557 E16.76835
G1 X134.452 Y86.786 E16.94688
G1 X139.775 Y86.712 E17.12394
G1 X143.659 Y86.478 E17.25336
G1 X144.004 Y86.467 E17.26484
G1 X147.277 Y86.458 E17.3737
G1 X147.558 Y86.464 E17.38305
G1 X154.842 Y86.785 E17.62555
G1 X160.143 Y86.711 E17.80188
G1 X165.498 Y86.333 E17.98043
G1 X168.677 Y85.982 E18.08681
G1 X169.369 Y85.946 E18.10986
G1 X170.139 Y86 E18.13553
G1 X170.694 Y86.075 E18.15416
G1 X171.373 Y86.207 E18.17716
G1 X172.21 Y86.488 E18.20653
G1 X172.532 Y86.623 E18.21814
G1 X173.154 Y86.927 E18.24117
G1 X173.574 Y87.187 E18.2576
G1 X179.864 Y91.443 E18.51019
G1 X184.442 Y94.121 E18.6866
G1 X189.184 Y96.549 E18.86379
G1 X194.028 Y98.691 E19.03995
G1 X199.006 Y100.565 E19.21686
G1 X204.088 Y102.156 E19.39398
G1 X209.306 Y103.471 E19.57296
G1 X211.793 Y103.985 E19.65742
G1 X218.121 Y105.018 E19.87068
G1 X218.797 Y105.169 E19.89372
G1 X219.509 Y105.422 E19.91885
G1 X220.083 Y105.667 E19.93961
G1 X220.704 Y105.975 E19.96266
G1 X221.284 Y106.352 E19.98567
G1 X221.949 Y106.921 E20.01478
G1 X222.55 Y107.516 E20.04291
G1 X223.014 Y108.031 E20.06596
G1 X223.414 Y108.596 E20.08899
G1 X223.762 Y109.234 E20.11316
G1 X223.993 Y109.727 E20.13127
G1 X224.25 Y110.37 E20.1543
G1 X224.432 Y111.039 E20.17736
G1 X224.529 Y111.668 E20.19853
G1 X224.631 Y112.674 E20.23216
G1 X224.662 Y113.284 E20.25247
G1 X224.65 Y127.612 E20.72903
G1 X224.609 Y128.303 E20.75205
G1 X224.49 Y128.985 E20.77507
G1 X224.292 Y129.649 E20.79812
G1 X224.019 Y130.286 E20.82117
G1 X223.694 Y130.856 E20.84299
G1 X221.342 Y134.508 E20.98747
G1 X218.676 Y139.129 E21.16491
G1 X216.287 Y143.87 E21.34149
G1 X214.145 Y148.799 E21.52024
G1 X213.195 Y151.26 E21.60798
G1 X212.329 Y153.719 E21.69469
G1 X210.768 Y158.823 E21.87221
G1 X209.49 Y164.035 E22.05069
G1 X208.971 Y166.618 E22.13832
G1 X208.534 Y169.175 E22.2246
G1 X207.854 Y174.485 E22.40266
G1 X207.478 Y179.804 E22.58001
G1 X207.395 Y184.612 E22.73995
G1 X207.466 Y194.371 E23.06454
G1 X207.397 Y195.322 E23.09625
G1 X206.411 Y201.758 E23.31281
G1 X205.976 Y205.966 E23.45352
G1 X205.865 Y206.65 E23.47657
G1 X205.676 Y207.316 E23.49959
G1 X205.412 Y207.956 E23.52262
G1 X205.075 Y208.562 E23.54568
G1 X204.672 Y209.124 E23.56868
G1 X204.205 Y209.636 E23.59173
G1 X203.683 Y210.091 E23.61476
G1 X203.113 Y210.483 E23.63777
G1 X202.5 Y210.807 E23.66083
G1 X201.547 Y211.148 E23.6945
G1 X195.193 Y212.834 E23.91315
G1 X190.036 Y214.401 E24.09241
G1 X185.059 Y216.227 E24.26874
G1 X179.546 Y218.626 E24.46871
G1 X178.896 Y218.865 E24.49174
G1 X178.223 Y219.028 E24.51477
G1 X177.536 Y219.112 E24.53779
G1 X176.843 Y219.116 E24.56084
G1 X175.893 Y218.99 E24.59272
G1 X173.598 Y218.497 E24.67079
G1 X168.284 Y217.576 E24.85017
G1 X163.021 Y216.968 E25.02638
G1 X157.702 Y216.657 E25.20359
G1 X152.389 Y216.646 E25.38031
G1 X147.081 Y216.937 E25.55712
G1 X141.801 Y217.526 E25.73382
G1 X136.505 Y218.423 E25.91247
G1 X133.041 Y219.172 E26.03035
G1 X132.76 Y219.226 E26.03987
G1 X122.563 Y220.927 E26.38371
G1 X122.085 Y220.987 E26.39973
G1 X117.716 Y221.359 E26.54557
G1 X116.707 Y221.36 E26.57913
G1 X112.478 Y221.006 E26.72028
G1 X111.939 Y220.936 E26.73835
G1 X104.922 Y219.703 E26.97532
G1 X101.817 Y219.251 E27.07968
G1 X101.139 Y219.111 E27.1027
G1 X100.481 Y218.895 E27.12574
G1 X99.853 Y218.605 E27.14875
G1 X99.262 Y218.243 E27.1718
G1 X98.716 Y217.817 E27.19483
G1 X98.224 Y217.33 E27.21785
G1 X97.791 Y216.789 E27.2409
G1 X97.423 Y216.203 E27.26392
G1 X97.125 Y215.577 E27.28698
G1 X96.901 Y214.922 E27.31
G1 X96.754 Y214.245 E27.33304
G1 X96.681 Y213.35 E27.36291
G1 X96.669 Y211.423 E27.427
G1 X96.682 Y210.985 E27.44158
G1 X97.087 Y204.948 E27.64282
G1 X97.146 Y200.989 E27.77451
G1 X96.683 Y130.084 E30.13287
G1 X96.351 Y124.774 E30.30983
G1 X95.805 Y120.06 E30.46766
G1 X95.765 Y119.362 E30.49092
G1 X95.768 Y117.005 E30.56931
G1 X95.809 Y116.317 E30.59224
G1 X96.207 Y112.91 E30.70632
G1 X96.589 Y107.516 E30.88618
G1 X96.671 Y104.457 E30.98796
G1 X96.73 Y103.767 E31.01099
G1 X96.867 Y103.088 E31.03403
G1 X97.082 Y102.43 E31.05705
G1 X97.372 Y101.801 E31.08009
G1 X97.732 Y101.209 E31.10314
G1 X98.157 Y100.663 E31.12615
G1 X98.643 Y100.169 E31.1492
M204 S5000
M205 X30 Y30
G0 F3600 X99.031 Y100.361
M204 S500
M205 X20 Y20
G1 F1800 X99.565 Y99.957 E31.17147
G1 X100.036 Y99.676 E31.18971
G1 X104.011 Y97.558 E31.33952
G1 X108.654 Y94.781 E31.51946
G1 X110.817 Y93.359 E31.60555
G1 X115.213 Y90.193 E31.78574
G1 X118.246 Y87.801 E31.91421
G1 X118.795 Y87.419 E31.93646
G1 X119.386 Y87.105 E31.95872
G1 X119.854 Y86.916 E31.9755
G1 X120.53 Y86.678 E31.99934
G1 X121.174 Y86.494 E32.02162
G1 X121.834 Y86.388 E32.04385
G1 X122.503 Y86.361 E32.06612
G1 X122.908 Y86.384 E32.07961
G1 X129.075 Y86.957 E32.28561
G1 X134.44 Y87.187 E32.46421
G1 X139.783 Y87.112 E32.64194
G1 X143.683 Y86.877 E32.77189
G1 X144.005 Y86.867 E32.7826
G1 X147.278 Y86.858 E32.89147
G1 X147.54 Y86.863 E32.90018
G1 X154.847 Y87.186 E33.14345
G1 X160.159 Y87.111 E33.32015
G1 X165.545 Y86.73 E33.49973
G1 X168.721 Y86.38 E33.60601
G1 X169.389 Y86.346 E33.62825
G1 X170.085 Y86.396 E33.65146
G1 X170.64 Y86.471 E33.67009
G1 X171.296 Y86.6 E33.69232
G1 X172.055 Y86.857 E33.71898
G1 X172.377 Y86.992 E33.73059
G1 X172.978 Y87.287 E33.75286
G1 X173.35 Y87.518 E33.76742
G1 X179.663 Y91.789 E34.02093
G1 X184.237 Y94.465 E34.19719
G1 X188.998 Y96.903 E34.37509
G1 X193.89 Y99.066 E34.553
G1 X198.888 Y100.947 E34.73061
G1 X203.976 Y102.54 E34.90794
G1 X209.219 Y103.862 E35.08778
G1 X211.721 Y104.379 E35.17276
G1 X218.056 Y105.413 E35.38625
G1 X218.709 Y105.56 E35.40851
G1 X219.352 Y105.79 E35.43122
G1 X219.926 Y106.035 E35.45198
G1 X220.525 Y106.333 E35.47423
G1 X221.084 Y106.702 E35.49651
G1 X221.668 Y107.205 E35.52215
G1 X222.269 Y107.8 E35.55028
G1 X222.715 Y108.299 E35.57254
G1 X223.099 Y108.847 E35.59479
G1 X223.4 Y109.404 E35.61585
G1 X223.631 Y109.897 E35.63396
G1 X223.878 Y110.519 E35.65622
G1 X224.049 Y111.165 E35.67844
G1 X224.131 Y111.708 E35.69671
G1 X224.233 Y112.714 E35.73034
G1 X224.262 Y113.284 E35.74932
G1 X224.25 Y127.612 E36.22587
G1 X224.209 Y128.279 E36.2481
G1 X224.09 Y128.938 E36.27037
G1 X223.892 Y129.577 E36.29262
G1 X223.62 Y130.188 E36.31487
G1 X223.358 Y130.64 E36.33224
G1 X220.998 Y134.303 E36.47717
G1 X218.322 Y138.942 E36.6553
G1 X215.92 Y143.709 E36.83284
G1 X213.77 Y148.656 E37.01224
G1 X212.819 Y151.12 E37.10009
G1 X211.958 Y153.567 E37.18637
G1 X210.383 Y158.716 E37.36546
G1 X209.098 Y163.953 E37.54481
G1 X208.577 Y166.55 E37.6329
G1 X208.141 Y169.103 E37.71905
G1 X207.455 Y174.458 E37.89861
G1 X207.078 Y179.788 E38.07633
G1 X206.995 Y184.608 E38.23667
G1 X207.066 Y194.374 E38.56149
G1 X207.001 Y195.262 E38.59111
G1 X206.015 Y201.699 E38.8077
G1 X205.578 Y205.925 E38.94901
G1 X205.47 Y206.585 E38.97125
G1 X205.283 Y207.228 E38.99352
G1 X205.022 Y207.844 E39.01578
G1 X204.688 Y208.424 E39.03804
G1 X204.288 Y208.96 E39.06028
G1 X203.827 Y209.445 E39.08254
G1 X203.311 Y209.871 E39.10479
G1 X202.749 Y210.233 E39.12703
G1 X202.147 Y210.525 E39.14928
G1 X201.445 Y210.762 E39.17392
G1 X195.059 Y212.457 E39.39368
G1 X189.908 Y214.022 E39.57273
G1 X184.913 Y215.854 E39.74969
G1 X179.387 Y218.259 E39.95014
G1 X178.758 Y218.489 E39.97241
G1 X178.107 Y218.642 E39.99465
G1 X177.442 Y218.716 E40.01691
G1 X176.773 Y218.711 E40.03916
G1 X175.977 Y218.599 E40.0659
G1 X173.672 Y218.104 E40.14431
G1 X168.35 Y217.182 E40.32396
G1 X163.036 Y216.567 E40.50188
G1 X157.726 Y216.257 E40.67879
G1 X152.386 Y216.246 E40.8564
G1 X147.033 Y216.539 E41.03471
G1 X141.745 Y217.129 E41.21168
G1 X136.463 Y218.024 E41.38986
G1 X132.957 Y218.782 E41.50917
G1 X132.694 Y218.832 E41.51807
G1 X122.497 Y220.533 E41.86191
G1 X122.051 Y220.589 E41.87686
G1 X117.682 Y220.961 E42.0227
G1 X116.74 Y220.961 E42.05403
G1 X112.511 Y220.607 E42.19518
G1 X112.009 Y220.542 E42.21202
G1 X104.984 Y219.307 E42.44925
G1 X101.875 Y218.855 E42.55375
G1 X101.22 Y218.719 E42.576
G1 X100.586 Y218.506 E42.59824
G1 X99.981 Y218.219 E42.62051
G1 X99.415 Y217.862 E42.64277
G1 X98.896 Y217.44 E42.66502
G1 X98.431 Y216.96 E42.68725
G1 X98.026 Y216.427 E42.70951
G1 X97.688 Y215.849 E42.73178
G1 X97.421 Y215.236 E42.75402
G1 X97.23 Y214.595 E42.77627
G1 X97.116 Y213.936 E42.79851
G1 X97.081 Y213.348 E42.8181
G1 X97.069 Y211.421 E42.88219
G1 X97.082 Y211.012 E42.89581
G1 X97.486 Y204.981 E43.09685
G1 X97.546 Y200.989 E43.22964
G1 X97.083 Y130.074 E45.58833
G1 X96.75 Y124.741 E45.76605
G1 X96.202 Y120.014 E45.92432
G1 X96.165 Y119.363 E45.94601
G1 X96.168 Y117.006 E46.02441
G1 X96.206 Y116.363 E46.04583
G1 X96.606 Y112.941 E46.16042
G1 X96.988 Y107.544 E46.34037
G1 X97.071 Y104.468 E46.44272
G1 X97.129 Y103.801 E46.46499
G1 X97.266 Y103.146 E46.48724
G1 X97.48 Y102.512 E46.5095
G1 X97.768 Y101.909 E46.53173
G1 X98.126 Y101.343 E46.554
G1 X98.549 Y100.825 E46.57624
G1 X99.031 Y100.361 E46.5985
M204 S5000
M205 X30 Y30
G0 F3600 X98.94 Y100.994
M204 S500
M205 X20 Y20
G1 F1800 X99.417 Y100.56 E46.61995
G1 X100.224 Y100.029 E46.65208
G1 X104.217 Y97.902 E46.80255
G1 X108.856 Y95.126 E46.98236
G1 X111.038 Y93.692 E47.0692
G1 X115.462 Y90.507 E47.25051
G1 X118.494 Y88.115 E47.37896
G1 X119.024 Y87.748 E47.4004
G1 X119.595 Y87.449 E47.42184
G1 X119.987 Y87.293 E47.43587
G1 X120.663 Y87.055 E47.45971
G1 X121.283 Y86.879 E47.48115
G1 X121.921 Y86.781 E47.50262
G1 X122.871 Y86.782 E47.53421
G1 X129.061 Y87.357 E47.74098
G1 X134.429 Y87.587 E47.91968
G1 X139.791 Y87.512 E48.09804
G1 X143.707 Y87.276 E48.22852
G1 X144.006 Y87.267 E48.23847
G1 X147.279 Y87.258 E48.34733
G1 X147.522 Y87.263 E48.35542
G1 X154.835 Y87.586 E48.59889
G1 X160.175 Y87.511 E48.77651
G1 X165.567 Y87.13 E48.9563
G1 X168.765 Y86.777 E49.06331
G1 X169.409 Y86.747 E49.08475
G1 X170.031 Y86.793 E49.1055
G1 X170.586 Y86.868 E49.12413
G1 X171.219 Y86.994 E49.14559
G1 X171.901 Y87.225 E49.16954
G1 X172.223 Y87.36 E49.18115
G1 X172.801 Y87.646 E49.2026
G1 X173.126 Y87.849 E49.21535
G1 X179.451 Y92.129 E49.46936
G1 X184.045 Y94.816 E49.64637
G1 X188.833 Y97.267 E49.82527
