;FLAVOR:Marlin
;TIME:2866
;Filament used: 1.3022m
;Layer height: 0.1
;Generated with Cura_SteamEngine 3.6.0
M140 S60
M105
M190 S60
M104 S195
M105
M109 S195
M82 ;absolute extrusion mode
G28 ;Home
G1 Z15.0 F6000 ;Move the platform down 15mm
;Prime the extruder
G92 E0
G1 F200 E3
G92 E0
G92 E0
G1 F2400 E-5
;LAYER_COUNT:21
;LAYER:0
M107
M204 S5000
M205 X30 Y30
G0 F3600 X105.443 Y110.876 Z0.2
M204 S500
M205 X20 Y20
;TYPE:SKIRT
G1 F2400 E0
G1 F1800 X105.992 Y110.418 E0.02378
G1 X106.589 Y110.023 E0.04759
G1 X107.03 Y109.789 E0.06419
G1 X112.683 Y107.059 E0.27299
G1 X114.91 Y105.853 E0.35722
G1 X119.516 Y103.101 E0.53568
G1 X122.96 Y100.81 E0.67326
G1 X123.577 Y100.448 E0.69705
G1 X124.118 Y100.201 E0.71683
G1 X124.541 Y100.031 E0.73199
G1 X125.219 Y99.801 E0.75581
G1 X125.918 Y99.649 E0.7796
G1 X126.629 Y99.576 E0.80337
G1 X127.127 Y99.572 E0.81994
G1 X128.222 Y99.606 E0.85637
G1 X128.624 Y99.631 E0.86977
G1 X130.508 Y99.809 E0.93271
G1 X135.824 Y100.1 E1.10979
G1 X141.153 Y100.089 E1.28703
G1 X142.639 Y100.015 E1.33652
G1 X142.855 Y100.008 E1.3437
G1 X146.794 Y99.944 E1.47473
G1 X147.111 Y99.947 E1.48528
G1 X152.412 Y100.124 E1.66169
G1 X157.712 Y100.045 E1.83799
G1 X164.294 Y99.547 E2.05753
G1 X165.009 Y99.533 E2.08131
G1 X165.721 Y99.599 E2.1051
G1 X166.442 Y99.749 E2.12959
G1 X167.088 Y99.923 E2.15184
G1 X167.767 Y100.148 E2.17563
G1 X168.417 Y100.446 E2.19942
G1 X169.029 Y100.816 E2.2232
G1 X169.631 Y101.281 E2.2485
G1 X170.055 Y101.651 E2.26722
G1 X170.567 Y102.151 E2.29102
G1 X171.02 Y102.704 E2.3148
G1 X171.311 Y103.14 E2.33223
G1 X173.378 Y106.529 E2.46426
G1 X176.077 Y110.561 E2.62564
G1 X176.441 Y111.177 E2.64944
G1 X176.803 Y112.017 E2.67986
G1 X177.054 Y112.738 E2.70525
G1 X177.251 Y113.425 E2.72902
G1 X177.37 Y114.131 E2.75284
G1 X177.41 Y114.834 E2.77626
G1 X177.429 Y129.37 E3.25973
G1 X177.411 Y129.86 E3.27603
G1 X177.1 Y133.977 E3.41336
G1 X176.873 Y139.332 E3.59162
G1 X176.947 Y144.616 E3.76739
G1 X177.323 Y149.912 E3.94398
G1 X177.993 Y155.155 E4.11978
G1 X178.962 Y160.37 E4.2962
G1 X179.541 Y162.886 E4.38207
G1 X180.964 Y168.056 E4.56042
G1 X182.663 Y173.092 E4.73719
G1 X183.586 Y175.486 E4.82253
G1 X185.026 Y178.891 E4.94549
G1 X185.267 Y179.565 E4.9693
G1 X185.432 Y180.261 E4.99309
G1 X185.518 Y180.971 E5.01688
G1 X185.531 Y181.446 E5.03268
G1 X185.495 Y185.151 E5.15592
G1 X185.468 Y185.679 E5.1735
G1 X185.31 Y187.386 E5.23052
G1 X185.234 Y187.941 E5.24915
G1 X184.782 Y190.427 E5.33319
G1 X184.628 Y191.077 E5.35541
G1 X183.928 Y193.473 E5.43843
G1 X183.743 Y194.015 E5.45748
G1 X183.081 Y195.703 E5.51778
G1 X182.896 Y196.129 E5.53323
G1 X182.18 Y197.625 E5.58839
G1 X181.974 Y198.019 E5.60318
G1 X181.119 Y199.527 E5.66084
G1 X180.844 Y199.97 E5.67818
G1 X179.616 Y201.775 E5.75079
G1 X179.181 Y202.343 E5.77459
G1 X178.685 Y202.859 E5.79839
G1 X178.135 Y203.316 E5.82218
G1 X177.538 Y203.709 E5.84595
G1 X176.9 Y204.034 E5.86976
G1 X176.231 Y204.284 E5.89352
G1 X175.537 Y204.459 E5.91732
G1 X174.828 Y204.555 E5.94112
G1 X173.92 Y204.562 E5.97132
G1 X167.471 Y204.155 E6.18624
G1 X162.194 Y204.142 E6.36176
G1 X156.9 Y204.429 E6.53809
G1 X151.642 Y205.015 E6.71406
G1 X146.407 Y205.899 E6.89064
G1 X141.294 Y207.063 E7.06505
G1 X134.944 Y208.921 E7.28511
G1 X134.2 Y209.092 E7.3105
G1 X126.045 Y210.454 E7.58549
G1 X125.52 Y210.519 E7.60309
G1 X121.939 Y210.816 E7.7226
G1 X120.896 Y210.817 E7.75729
G1 X118.217 Y210.601 E7.84668
G1 X117.711 Y210.54 E7.86363
G1 X108.797 Y209.101 E8.16395
G1 X108.098 Y208.948 E8.18775
G1 X107.421 Y208.718 E8.21153
G1 X106.774 Y208.413 E8.23532
G1 X106.165 Y208.039 E8.25909
G1 X105.601 Y207.598 E8.28291
G1 X105.09 Y207.098 E8.30669
G1 X104.638 Y206.543 E8.33049
G1 X104.251 Y205.942 E8.35427
G1 X103.933 Y205.301 E8.37807
G1 X103.689 Y204.629 E8.40185
G1 X103.521 Y203.933 E8.42566
G1 X103.418 Y202.902 E8.46012
G1 X103.403 Y202.096 E8.48693
G1 X103.412 Y201.626 E8.50257
G1 X103.718 Y196.056 E8.68811
G1 X103.783 Y191.93 E8.82536
G1 X103.413 Y136.793 E10.65926
G1 X103.079 Y131.456 E10.83712
G1 X102.718 Y128.072 E10.95031
G1 X102.682 Y127.379 E10.97339
G1 X102.686 Y125.471 E11.03685
G1 X102.725 Y124.776 E11.06
G1 X102.963 Y122.635 E11.13165
G1 X103.347 Y117.239 E11.31158
G1 X103.417 Y115.318 E11.37551
G1 X103.483 Y114.606 E11.39929
G1 X103.628 Y113.906 E11.42307
G1 X103.851 Y113.226 E11.44687
G1 X104.147 Y112.575 E11.47066
G1 X104.515 Y111.962 E11.49444
G1 X104.949 Y111.393 E11.51824
G1 X105.443 Y110.876 E11.54202
M204 S5000
M205 X30 Y30
G0 F3600 X105.83 Y111.065
M204 S500
M205 X20 Y20
G1 F1800 X106.374 Y110.635 E11.56509
G1 X107.204 Y110.149 E11.59708
G1 X112.878 Y107.41 E11.80663
G1 X115.089 Y106.211 E11.89029
G1 X119.74 Y103.432 E12.07049
G1 X123.182 Y101.143 E12.20797
G1 X123.78 Y100.794 E12.231
G1 X124.268 Y100.572 E12.24884
G1 X124.691 Y100.402 E12.264
G1 X125.347 Y100.181 E12.28702
G1 X126.024 Y100.037 E12.31004
G1 X126.714 Y99.973 E12.33309
G1 X127.114 Y99.972 E12.34639
G1 X128.209 Y100.006 E12.38283
G1 X128.587 Y100.03 E12.39543
G1 X130.451 Y100.206 E12.4577
G1 X135.82 Y100.5 E12.63654
G1 X141.153 Y100.489 E12.81392
G1 X142.659 Y100.414 E12.86407
G1 X142.862 Y100.408 E12.87083
G1 X146.801 Y100.344 E13.00186
G1 X147.098 Y100.346 E13.01173
G1 X152.425 Y100.524 E13.18901
G1 X157.731 Y100.445 E13.36551
G1 X164.324 Y99.946 E13.58542
G1 X165.017 Y99.934 E13.60847
G1 X165.706 Y100.001 E13.6315
G1 X166.337 Y100.135 E13.65295
G1 X166.983 Y100.309 E13.6752
G1 X167.641 Y100.528 E13.69827
G1 X168.268 Y100.821 E13.72129
G1 X168.858 Y101.184 E13.74433
G1 X169.368 Y101.582 E13.76584
G1 X169.792 Y101.952 E13.78456
G1 X170.287 Y102.437 E13.80761
G1 X170.722 Y102.975 E13.83062
G1 X170.969 Y103.349 E13.84553
G1 X173.023 Y106.716 E13.97671
G1 X175.745 Y110.783 E14.13948
G1 X176.096 Y111.38 E14.16251
G1 X176.425 Y112.148 E14.1903
G1 X176.676 Y112.869 E14.21569
G1 X176.866 Y113.535 E14.23873
G1 X176.978 Y114.219 E14.26178
G1 X177.01 Y114.834 E14.28226
G1 X177.029 Y129.37 E14.76573
G1 X177.012 Y129.83 E14.78104
G1 X176.702 Y133.93 E14.9178
G1 X176.473 Y139.338 E15.09783
G1 X176.547 Y144.633 E15.27396
G1 X176.923 Y149.935 E15.45075
G1 X177.6 Y155.227 E15.6282
G1 X178.572 Y160.459 E15.80519
G1 X179.156 Y162.996 E15.89178
G1 X180.579 Y168.164 E16.07006
G1 X182.292 Y173.244 E16.24837
G1 X183.213 Y175.632 E16.3335
G1 X184.657 Y179.047 E16.45682
G1 X184.89 Y179.699 E16.47985
G1 X185.045 Y180.374 E16.50288
G1 X185.122 Y181.062 E16.52591
G1 X185.131 Y181.442 E16.53855
G1 X185.095 Y185.147 E16.66179
G1 X185.069 Y185.642 E16.67827
G1 X184.911 Y187.349 E16.73529
G1 X184.84 Y187.869 E16.75275
G1 X184.388 Y190.355 E16.83679
G1 X184.244 Y190.965 E16.85763
G1 X183.544 Y193.361 E16.94066
G1 X183.371 Y193.869 E16.95851
G1 X182.709 Y195.557 E17.01881
G1 X182.535 Y195.956 E17.03329
G1 X181.819 Y197.452 E17.08845
G1 X181.626 Y197.821 E17.1023
G1 X180.771 Y199.329 E17.15996
G1 X180.513 Y199.745 E17.17624
G1 X179.285 Y201.55 E17.24885
G1 X178.863 Y202.099 E17.27188
G1 X178.38 Y202.596 E17.29493
G1 X177.844 Y203.034 E17.31796
G1 X177.261 Y203.407 E17.34098
G1 X176.638 Y203.711 E17.36403
G1 X175.985 Y203.941 E17.38706
G1 X175.309 Y204.094 E17.41011
G1 X174.621 Y204.168 E17.43313
G1 X173.946 Y204.163 E17.45558
G1 X167.481 Y203.755 E17.67103
G1 X162.174 Y203.742 E17.84754
G1 X156.869 Y204.03 E18.02425
G1 X151.582 Y204.618 E18.20118
G1 X146.34 Y205.504 E18.378
G1 X141.189 Y206.676 E18.5537
G1 X134.831 Y208.537 E18.77404
G1 X134.134 Y208.697 E18.79783
G1 X125.979 Y210.059 E19.07282
G1 X125.487 Y210.12 E19.08931
G1 X121.906 Y210.417 E19.20883
G1 X120.928 Y210.419 E19.24135
G1 X118.249 Y210.203 E19.33075
G1 X117.775 Y210.145 E19.34663
G1 X108.861 Y208.706 E19.64695
G1 X108.185 Y208.557 E19.66997
G1 X107.53 Y208.33 E19.69303
G1 X106.906 Y208.03 E19.71606
G1 X106.321 Y207.659 E19.7391
G1 X105.782 Y207.224 E19.76213
G1 X105.298 Y206.73 E19.78514
G1 X104.873 Y206.182 E19.8082
G1 X104.514 Y205.59 E19.83123
G1 X104.226 Y204.96 E19.85427
G1 X104.012 Y204.302 E19.87728
G1 X103.876 Y203.623 E19.90031
G1 X103.818 Y202.895 E19.92461
G1 X103.803 Y202.089 E19.95142
G1 X103.811 Y201.648 E19.96609
G1 X104.118 Y196.059 E20.15226
G1 X104.183 Y191.934 E20.28947
G1 X103.813 Y136.765 E22.12444
G1 X103.48 Y131.433 E22.30213
G1 X103.116 Y128.029 E22.41599
G1 X103.082 Y127.379 E22.43764
G1 X103.086 Y125.471 E22.5011
G1 X103.123 Y124.82 E22.52279
G1 X103.361 Y122.681 E22.59437
G1 X103.747 Y117.254 E22.77533
G1 X103.817 Y115.333 E22.83927
G1 X103.882 Y114.644 E22.86229
G1 X104.026 Y113.966 E22.88534
G1 X104.248 Y113.31 E22.90837
G1 X104.543 Y112.684 E22.93139
G1 X104.909 Y112.095 E22.95445
G1 X105.34 Y111.553 E22.97749
G1 X105.83 Y111.065 E23.00049
M204 S5000
M205 X30 Y30
G0 F3600 X106.216 Y111.26
M204 S500
M205 X20 Y20
G1 F1800 X106.754 Y110.862 E23.02275
G1 X107.378 Y110.509 E23.04659
G1 X113.046 Y107.772 E23.25594
G1 X115.325 Y106.538 E23.34214
G1 X119.941 Y103.78 E23.52098
G1 X123.404 Y101.476 E23.65932
G1 X123.982 Y101.14 E23.68156
G1 X124.417 Y100.943 E23.69744
G1 X124.84 Y100.773 E23.71261
G1 X125.474 Y100.561 E23.73484
G1 X126.13 Y100.426 E23.75712
G1 X127.102 Y100.372 E23.7895
G1 X128.197 Y100.406 E23.82593
G1 X128.549 Y100.428 E23.83766
G1 X130.416 Y100.604 E23.90004
G1 X135.817 Y100.9 E24.07994
G1 X141.174 Y100.889 E24.25812
G1 X142.679 Y100.814 E24.30824
G1 X142.868 Y100.808 E24.31453
G1 X146.807 Y100.744 E24.44555
G1 X147.085 Y100.746 E24.4548
G1 X152.418 Y100.924 E24.63228
G1 X157.752 Y100.845 E24.80971
G1 X164.355 Y100.345 E25.02995
G1 X165.023 Y100.334 E25.05217
G1 X165.689 Y100.404 E25.07445
G1 X166.233 Y100.522 E25.09296
G1 X166.879 Y100.696 E25.11521
G1 X167.514 Y100.908 E25.13748
G1 X168.119 Y101.194 E25.15973
G1 X168.685 Y101.551 E25.18199
G1 X169.105 Y101.884 E25.19982
G1 X169.529 Y102.254 E25.21854
G1 X170.006 Y102.723 E25.24079
G1 X170.423 Y103.246 E25.26303
G1 X170.628 Y103.557 E25.27542
G1 X172.692 Y106.942 E25.40729
G1 X175.413 Y111.006 E25.56995
G1 X175.751 Y111.583 E25.5922
G1 X176.048 Y112.28 E25.6174
G1 X176.299 Y113.001 E25.64279
G1 X176.481 Y113.645 E25.66505
G1 X176.584 Y114.306 E25.6873
G1 X176.61 Y114.835 E25.70491
G1 X176.629 Y129.371 E26.18838
G1 X176.613 Y129.8 E26.20266
G1 X176.302 Y133.914 E26.33988
G1 X176.072 Y139.327 E26.52008
G1 X176.148 Y144.649 E26.69711
G1 X176.526 Y149.98 E26.87487
G1 X177.203 Y155.279 E27.05254
G1 X178.183 Y160.552 E27.23093
G1 X178.768 Y163.095 E27.31772
G1 X180.195 Y168.277 E27.49649
G1 X181.915 Y173.376 E27.67547
G1 X182.841 Y175.778 E27.76109
G1 X184.289 Y179.203 E27.88477
G1 X184.512 Y179.833 E27.907
G1 X184.659 Y180.486 E27.92926
G1 X184.731 Y181.438 E27.96101
G1 X184.695 Y185.143 E28.08425
G1 X184.671 Y185.605 E28.09964
G1 X184.513 Y187.312 E28.15665
G1 X184.447 Y187.798 E28.17297
G1 X183.995 Y190.284 E28.25701
G1 X183.86 Y190.852 E28.27642
G1 X183.16 Y193.248 E28.35945
G1 X182.998 Y193.723 E28.37614
G1 X182.336 Y195.411 E28.43644
G1 X182.174 Y195.784 E28.44997
G1 X181.458 Y197.28 E28.50513
G1 X181.278 Y197.624 E28.51805
G1 X180.423 Y199.132 E28.5757
G1 X180.182 Y199.52 E28.59089
G1 X178.954 Y201.325 E28.66351
G1 X178.545 Y201.855 E28.68577
G1 X178.076 Y202.332 E28.70802
G1 X177.554 Y202.75 E28.73026
G1 X176.985 Y203.102 E28.75252
G1 X176.379 Y203.384 E28.77475
G1 X175.743 Y203.592 E28.797
G1 X175.087 Y203.723 E28.81925
G1 X174.42 Y203.774 E28.8415
G1 X173.971 Y203.764 E28.85644
G1 X167.491 Y203.355 E29.0724
G1 X162.17 Y203.342 E29.24937
G1 X156.84 Y203.631 E29.42691
G1 X151.526 Y204.223 E29.60475
G1 X146.253 Y205.113 E29.78261
G1 X141.104 Y206.285 E29.95825
G1 X134.719 Y208.154 E30.17952
G1 X134.069 Y208.302 E30.2017
G1 X125.914 Y209.664 E30.47669
G1 X125.454 Y209.722 E30.49211
G1 X121.873 Y210.019 E30.61162
G1 X120.96 Y210.02 E30.64199
G1 X118.281 Y209.804 E30.73138
G1 X117.839 Y209.75 E30.74619
G1 X108.925 Y208.311 E31.04651
G1 X108.272 Y208.166 E31.06876
G1 X107.641 Y207.943 E31.09102
G1 X107.041 Y207.646 E31.11329
G1 X106.481 Y207.281 E31.13552
G1 X105.968 Y206.851 E31.15778
G1 X105.511 Y206.363 E31.18002
G1 X105.114 Y205.824 E31.20228
G1 X104.785 Y205.241 E31.22455
G1 X104.528 Y204.623 E31.24681
G1 X104.346 Y203.98 E31.26904
G1 X104.243 Y203.319 E31.29129
G1 X104.218 Y202.887 E31.30568
G1 X104.203 Y202.081 E31.33249
G1 X104.21 Y201.67 E31.34616
G1 X104.518 Y196.062 E31.53297
G1 X104.583 Y191.937 E31.67018
G1 X104.213 Y136.756 E33.50555
G1 X103.877 Y131.388 E33.68444
G1 X103.514 Y127.987 E33.7982
G1 X103.482 Y127.38 E33.81842
G1 X103.486 Y125.472 E33.88188
G1 X103.52 Y124.865 E33.9021
G1 X103.76 Y122.706 E33.97435
G1 X104.147 Y117.266 E34.15574
G1 X104.217 Y115.348 E34.21958
G1 X104.281 Y114.682 E34.24183
G1 X104.424 Y114.028 E34.2641
G1 X104.645 Y113.396 E34.28637
G1 X104.938 Y112.795 E34.3086
G1 X105.302 Y112.234 E34.33085
G1 X105.73 Y111.719 E34.35312
G1 X106.216 Y111.26 E34.37535
M204 S5000
M205 X30 Y30
G0 F3600 X106.119 Y111.892
M204 S500
M205 X20 Y20
G1 F1800 X106.601 Y111.463 E34.39682
G1 X107.131 Y111.097 E34.41824
G1 X107.552 Y110.869 E34.43416
G1 X113.241 Y108.122 E34.64428
G1 X115.505 Y106.896 E34.72992
G1 X120.155 Y104.117 E34.91009
G1 X123.625 Y101.809 E35.0487
G1 X124.183 Y101.486 E35.07014
G1 X124.566 Y101.314 E35.08411
G1 X124.989 Y101.144 E35.09927
G1 X125.601 Y100.941 E35.12072
G1 X126.233 Y100.816 E35.14215
G1 X127.089 Y100.772 E35.17065
G1 X128.184 Y100.806 E35.20709
G1 X128.512 Y100.826 E35.21802
G1 X130.409 Y101.005 E35.28139
G1 X135.796 Y101.3 E35.46084
G1 X141.174 Y101.289 E35.63971
G1 X142.699 Y101.213 E35.69049
G1 X142.875 Y101.208 E35.69635
G1 X146.814 Y101.144 E35.82738
G1 X147.071 Y101.146 E35.83593
G1 X152.41 Y101.324 E36.0136
G1 X157.771 Y101.244 E36.19193
G1 X164.385 Y100.744 E36.41254
G1 X165.029 Y100.735 E36.43396
G1 X165.67 Y100.806 E36.45541
G1 X166.129 Y100.908 E36.47105
G1 X166.775 Y101.082 E36.4933
G1 X167.386 Y101.288 E36.51475
G1 X167.967 Y101.568 E36.5362
G1 X168.509 Y101.917 E36.55764
G1 X168.842 Y102.185 E36.57186
G1 X169.266 Y102.555 E36.59057
G1 X169.725 Y103.008 E36.61202
G1 X170.286 Y103.765 E36.64336
G1 X172.354 Y107.156 E36.77546
G1 X175.08 Y111.228 E36.93845
G1 X175.405 Y111.785 E36.9599
G1 X175.67 Y112.411 E36.98251
G1 X175.921 Y113.132 E37.0079
G1 X176.095 Y113.753 E37.02935
G1 X176.19 Y114.391 E37.0508
G1 X176.21 Y114.835 E37.06558
G1 X176.229 Y129.371 E37.54905
G1 X176.214 Y129.77 E37.56233
G1 X175.902 Y133.897 E37.69999
G1 X175.672 Y139.316 E37.88039
G1 X175.748 Y144.665 E38.05832
G1 X176.128 Y150.024 E38.237
G1 X176.808 Y155.349 E38.41555
G1 X177.788 Y160.623 E38.59397
G1 X178.375 Y163.172 E38.68097
G1 X179.816 Y168.406 E38.86153
G1 X181.534 Y173.499 E39.0403
G1 X182.483 Y175.961 E39.12806
G1 X183.92 Y179.359 E39.25077
G1 X184.134 Y179.967 E39.27221
G1 X184.271 Y180.597 E39.29365
G1 X184.331 Y181.435 E39.32159
G1 X184.295 Y185.14 E39.44483
G1 X184.273 Y185.568 E39.45908
G1 X184.115 Y187.275 E39.5161
G1 X184.053 Y187.726 E39.53124
G1 X183.601 Y190.212 E39.61528
G1 X183.476 Y190.74 E39.63333
G1 X182.776 Y193.136 E39.71635
G1 X182.626 Y193.577 E39.73184
G1 X181.964 Y195.265 E39.79215
G1 X181.813 Y195.611 E39.80471
G1 X181.097 Y197.107 E39.85987
G1 X180.931 Y197.427 E39.87186
G1 X180.076 Y198.935 E39.92952
G1 X179.851 Y199.295 E39.94364
G1 X178.623 Y201.1 E40.01625
G1 X178.228 Y201.609 E40.03768
G1 X177.773 Y202.066 E40.05913
G1 X177.265 Y202.463 E40.08057
G1 X176.712 Y202.794 E40.102
G1 X176.122 Y203.054 E40.12345
G1 X175.505 Y203.239 E40.14487
G1 X174.869 Y203.346 E40.16632
G1 X173.996 Y203.365 E40.19537
G1 X167.5 Y202.955 E40.41185
G1 X162.149 Y202.942 E40.58983
G1 X156.808 Y203.232 E40.76773
G1 X151.469 Y203.826 E40.94641
G1 X146.186 Y204.718 E41.12461
