;FLAVOR:Marlin
;TIME:2420
;Filament used: 1.11641m
;Layer height: 0.1
;Generated with Cura_SteamEngine 3.6.0
M140 S60
M105
M190 S60
M104 S195
M105
M109 S195
M82 ;absolute extrusion mode
G28 ;Home
G1 Z15.0 F6000 ;Move the platform down 15mm
;Prime the extruder
G92 E0
G1 F200 E3
G92 E0
G92 E0
G1 F2400 E-5
;LAYER_COUNT:16
;LAYER:0
M107
M204 S5000
M205 X30 Y30
G0 F3600 X105.443 Y110.876 Z0.2
M204 S500
M205 X20 Y20
;TYPE:SKIRT
G1 F2400 E0
G1 F1800 X105.992 Y110.418 E0.02378
G1 X106.589 Y110.023 E0.04759
G1 X107.03 Y109.789 E0.06419
G1 X112.683 Y107.059 E0.27299
G1 X114.91 Y105.853 E0.35722
G1 X119.516 Y103.101 E0.53568
G1 X122.96 Y100.81 E0.67326
G1 X123.577 Y100.448 E0.69705
G1 X124.118 Y100.201 E0.71683
G1 X124.541 Y100.031 E0.73199
G1 X125.219 Y99.801 E0.75581
G1 X125.918 Y99.649 E0.7796
G1 X126.629 Y99.576 E0.80337
G1 X127.127 Y99.572 E0.81994
G1 X128.222 Y99.606 E0.85637
G1 X128.624 Y99.631 E0.86977
G1 X130.508 Y99.809 E0.93271
G1 X135.824 Y100.1 E1.10979
G1 X141.153 Y100.089 E1.28703
G1 X142.639 Y100.015 E1.33652
G1 X142.855 Y100.008 E1.3437
G1 X146.794 Y99.944 E1.47473
G1 X147.111 Y99.947 E1.48528
G1 X152.412 Y100.124 E1.66169
G1 X157.712 Y100.045 E1.83799
G1 X164.294 Y99.547 E2.05753
G1 X165.009 Y99.533 E2.08131
G1 X165.721 Y99.599 E2.1051
G1 X166.442 Y99.749 E2.12959
G1 X167.088 Y99.923 E2.15184
G1 X167.767 Y100.148 E2.17563
G1 X168.417 Y100.446 E2.19942
G1 X169.029 Y100.816 E2.2232
G1 X169.629 Y101.279 E2.24841
G1 X170.051 Y101.647 E2.26703
G1 X170.563 Y102.147 E2.29084
G1 X171.016 Y102.7 E2.31461
G1 X171.405 Y103.301 E2.33842
G1 X171.642 Y103.759 E2.35557
G1 X171.896 Y104.302 E2.37551
G1 X172.162 Y104.966 E2.3993
G1 X172.353 Y105.655 E2.42308
G1 X172.466 Y106.362 E2.4469
G1 X172.496 Y107.208 E2.47505
G1 X172.478 Y107.802 E2.49482
G1 X172.416 Y108.514 E2.51859
G1 X172.202 Y109.477 E2.5514
G1 X170.08 Y116.427 E2.79309
G1 X168.853 Y121.613 E2.97034
G1 X168.373 Y124.113 E3.05501
G1 X167.591 Y129.39 E3.23244
G1 X167.111 Y134.658 E3.40838
G1 X166.924 Y140.62 E3.60678
G1 X166.914 Y170.599 E4.60388
G1 X166.897 Y171.068 E4.61949
G1 X166.442 Y177.237 E4.82523
G1 X166.189 Y187.022 E5.15079
G1 X166.13 Y187.735 E5.17459
G1 X165.993 Y188.437 E5.19837
G1 X165.778 Y189.119 E5.22216
G1 X165.488 Y189.773 E5.24595
G1 X165.127 Y190.391 E5.26976
G1 X164.699 Y190.964 E5.29355
G1 X164.21 Y191.486 E5.31734
G1 X163.666 Y191.95 E5.34112
G1 X163.241 Y192.247 E5.35836
G1 X161.057 Y193.645 E5.44461
G1 X160.204 Y194.105 E5.47684
G1 X155.867 Y196.03 E5.63466
G1 X151.136 Y198.436 E5.8112
G1 X146.569 Y201.092 E5.98691
G1 X142.153 Y204.007 E6.16291
G1 X136.974 Y207.899 E6.37838
G1 X136.379 Y208.296 E6.40217
G1 X135.744 Y208.625 E6.42596
G1 X135.075 Y208.88 E6.44977
G1 X134.182 Y209.096 E6.48033
G1 X126.044 Y210.454 E6.75474
G1 X125.52 Y210.519 E6.7723
G1 X121.939 Y210.816 E6.89181
G1 X120.896 Y210.817 E6.9265
G1 X118.217 Y210.601 E7.0159
G1 X117.711 Y210.54 E7.03285
G1 X108.797 Y209.101 E7.33317
G1 X108.098 Y208.948 E7.35697
G1 X107.421 Y208.718 E7.38075
G1 X106.774 Y208.413 E7.40454
G1 X106.165 Y208.039 E7.42831
G1 X105.601 Y207.598 E7.45212
G1 X105.09 Y207.098 E7.4759
G1 X104.638 Y206.543 E7.49971
G1 X104.251 Y205.942 E7.52348
G1 X103.933 Y205.301 E7.54728
G1 X103.689 Y204.629 E7.57106
G1 X103.521 Y203.933 E7.59487
G1 X103.418 Y202.9 E7.6294
G1 X103.403 Y202.083 E7.65658
G1 X103.412 Y201.614 E7.67218
G1 X103.718 Y196.054 E7.85739
G1 X103.783 Y191.93 E7.99457
G1 X103.413 Y136.793 E9.82848
G1 X103.079 Y131.456 E10.00633
G1 X102.718 Y128.072 E10.11952
G1 X102.682 Y127.379 E10.1426
G1 X102.686 Y125.471 E10.20606
G1 X102.725 Y124.776 E10.22922
G1 X102.963 Y122.635 E10.30086
G1 X103.347 Y117.239 E10.48079
G1 X103.417 Y115.318 E10.54473
G1 X103.483 Y114.606 E10.56851
G1 X103.628 Y113.906 E10.59228
G1 X103.851 Y113.226 E10.61609
G1 X104.147 Y112.575 E10.63987
G1 X104.515 Y111.962 E10.66365
G1 X104.949 Y111.393 E10.68745
G1 X105.443 Y110.876 E10.71124
M204 S5000
M205 X30 Y30
G0 F3600 X105.83 Y111.065
M204 S500
M205 X20 Y20
G1 F1800 X106.374 Y110.635 E10.7343
G1 X107.204 Y110.149 E10.76629
G1 X112.878 Y107.41 E10.97585
G1 X115.089 Y106.211 E11.0595
G1 X119.74 Y103.432 E11.2397
G1 X123.182 Y101.143 E11.37719
G1 X123.78 Y100.794 E11.40022
G1 X124.268 Y100.572 E11.41805
G1 X124.691 Y100.402 E11.43321
G1 X125.347 Y100.181 E11.45624
G1 X126.024 Y100.037 E11.47926
G1 X126.714 Y99.973 E11.50231
G1 X127.114 Y99.972 E11.51561
G1 X128.209 Y100.006 E11.55205
G1 X128.587 Y100.03 E11.56464
G1 X130.451 Y100.206 E11.62692
G1 X135.82 Y100.5 E11.80576
G1 X141.153 Y100.489 E11.98313
G1 X142.659 Y100.414 E12.03329
G1 X142.862 Y100.408 E12.04004
G1 X146.801 Y100.344 E12.17107
G1 X147.098 Y100.346 E12.18095
G1 X152.425 Y100.524 E12.35822
G1 X157.731 Y100.445 E12.53472
G1 X164.324 Y99.946 E12.75463
G1 X165.017 Y99.934 E12.77769
G1 X165.706 Y100.001 E12.80071
G1 X166.337 Y100.135 E12.82217
G1 X166.983 Y100.309 E12.84442
G1 X167.641 Y100.528 E12.86748
G1 X168.268 Y100.821 E12.8905
G1 X168.858 Y101.184 E12.91354
G1 X169.366 Y101.581 E12.93499
G1 X169.788 Y101.949 E12.95361
G1 X170.283 Y102.433 E12.97663
G1 X170.719 Y102.972 E12.99969
G1 X171.09 Y103.557 E13.02273
G1 X171.28 Y103.929 E13.03663
G1 X171.534 Y104.472 E13.05656
G1 X171.791 Y105.115 E13.0796
G1 X171.971 Y105.783 E13.10261
G1 X172.074 Y106.468 E13.12565
G1 X172.096 Y107.196 E13.14987
G1 X172.078 Y107.79 E13.16964
G1 X172.017 Y108.48 E13.19267
G1 X171.82 Y109.36 E13.22267
G1 X169.693 Y116.326 E13.46492
G1 X168.46 Y121.537 E13.64302
G1 X167.978 Y124.053 E13.72823
G1 X167.192 Y129.347 E13.90624
G1 X166.712 Y134.627 E14.08257
G1 X166.524 Y140.607 E14.28157
G1 X166.514 Y170.599 E15.27911
G1 X166.498 Y171.038 E15.29372
G1 X166.042 Y177.217 E15.49979
G1 X165.789 Y187.012 E15.82568
G1 X165.731 Y187.702 E15.84871
G1 X165.594 Y188.381 E15.87175
G1 X165.38 Y189.04 E15.8948
G1 X165.091 Y189.669 E15.91782
G1 X164.732 Y190.261 E15.94085
G1 X164.307 Y190.808 E15.96389
G1 X163.821 Y191.302 E15.98693
G1 X163.026 Y191.91 E16.02022
G1 X160.842 Y193.308 E16.10647
G1 X160.041 Y193.739 E16.13672
G1 X155.694 Y195.669 E16.29491
G1 X150.953 Y198.079 E16.4718
G1 X146.361 Y200.75 E16.64849
G1 X141.922 Y203.68 E16.8254
G1 X136.734 Y207.579 E17.04125
G1 X136.157 Y207.963 E17.0643
G1 X135.54 Y208.277 E17.08733
G1 X134.891 Y208.518 E17.11035
G1 X134.117 Y208.701 E17.13681
G1 X125.979 Y210.059 E17.41122
G1 X125.487 Y210.12 E17.42771
G1 X121.906 Y210.417 E17.54722
G1 X120.928 Y210.419 E17.57975
G1 X118.249 Y210.203 E17.66914
G1 X117.775 Y210.145 E17.68503
G1 X108.861 Y208.706 E17.98535
G1 X108.185 Y208.557 E18.00837
G1 X107.53 Y208.33 E18.03143
G1 X106.906 Y208.03 E18.05445
G1 X106.321 Y207.659 E18.07749
G1 X105.782 Y207.224 E18.10053
G1 X105.298 Y206.73 E18.12353
G1 X104.873 Y206.182 E18.1466
G1 X104.514 Y205.59 E18.16963
G1 X104.226 Y204.96 E18.19267
G1 X104.012 Y204.302 E18.21568
G1 X103.876 Y203.623 E18.23871
G1 X103.818 Y202.893 E18.26307
G1 X103.803 Y202.076 E18.29025
G1 X103.811 Y201.636 E18.30488
G1 X104.118 Y196.057 E18.49072
G1 X104.183 Y191.91 E18.62867
G1 X103.813 Y136.765 E20.46284
G1 X103.48 Y131.433 E20.64053
G1 X103.116 Y128.029 E20.75439
G1 X103.082 Y127.379 E20.77604
G1 X103.086 Y125.471 E20.8395
G1 X103.123 Y124.82 E20.86119
G1 X103.361 Y122.681 E20.93277
G1 X103.747 Y117.254 E21.11373
G1 X103.817 Y115.333 E21.17767
G1 X103.882 Y114.644 E21.20068
G1 X104.026 Y113.966 E21.22374
G1 X104.248 Y113.31 E21.24677
G1 X104.543 Y112.684 E21.26979
G1 X104.909 Y112.095 E21.29285
G1 X105.34 Y111.553 E21.31588
G1 X105.83 Y111.065 E21.33889
M204 S5000
M205 X30 Y30
G0 F3600 X106.216 Y111.26
M204 S500
M205 X20 Y20
G1 F1800 X106.754 Y110.862 E21.36114
G1 X107.378 Y110.509 E21.38499
G1 X113.046 Y107.772 E21.59434
G1 X115.325 Y106.538 E21.68053
G1 X119.941 Y103.78 E21.85938
G1 X123.404 Y101.476 E21.99772
G1 X123.982 Y101.14 E22.01996
G1 X124.417 Y100.943 E22.03584
G1 X124.84 Y100.773 E22.051
G1 X125.474 Y100.561 E22.07324
G1 X126.13 Y100.426 E22.09552
G1 X127.102 Y100.372 E22.12789
G1 X128.197 Y100.406 E22.16433
G1 X128.549 Y100.428 E22.17606
G1 X130.416 Y100.604 E22.23843
G1 X135.817 Y100.9 E22.41834
G1 X141.174 Y100.889 E22.59652
G1 X142.679 Y100.814 E22.64663
G1 X142.868 Y100.808 E22.65292
G1 X146.807 Y100.744 E22.78395
G1 X147.085 Y100.746 E22.7932
G1 X152.418 Y100.924 E22.97067
G1 X157.752 Y100.845 E23.1481
G1 X164.355 Y100.345 E23.36835
G1 X165.023 Y100.334 E23.39057
G1 X165.689 Y100.404 E23.41284
G1 X166.233 Y100.522 E23.43136
G1 X166.879 Y100.696 E23.45361
G1 X167.514 Y100.908 E23.47588
G1 X168.119 Y101.194 E23.49813
G1 X168.685 Y101.551 E23.52039
G1 X169.104 Y101.882 E23.53815
G1 X169.526 Y102.25 E23.55677
G1 X170.003 Y102.719 E23.57902
G1 X170.42 Y103.242 E23.60127
G1 X170.917 Y104.098 E23.63419
G1 X171.171 Y104.641 E23.65413
G1 X171.418 Y105.263 E23.67639
G1 X171.589 Y105.91 E23.69865
G1 X171.682 Y106.573 E23.72091
G1 X171.696 Y107.184 E23.74124
G1 X171.678 Y107.778 E23.76101
G1 X171.618 Y108.444 E23.78325
G1 X171.437 Y109.243 E23.8105
G1 X169.305 Y116.225 E24.0533
G1 X168.07 Y121.444 E24.23168
G1 X167.583 Y123.984 E24.3177
G1 X166.796 Y129.289 E24.49608
G1 X166.312 Y134.611 E24.67382
G1 X166.124 Y140.595 E24.87295
G1 X166.114 Y170.599 E25.87088
G1 X166.099 Y171.009 E25.88453
G1 X165.642 Y177.199 E26.09097
G1 X165.389 Y187.002 E26.41713
G1 X165.332 Y187.668 E26.43936
G1 X165.196 Y188.323 E26.46161
G1 X164.982 Y188.957 E26.48386
G1 X164.695 Y189.561 E26.50611
G1 X164.337 Y190.127 E26.52838
G1 X163.915 Y190.646 E26.55063
G1 X163.433 Y191.11 E26.57288
G1 X162.81 Y191.573 E26.5987
G1 X160.626 Y192.971 E26.68495
G1 X159.879 Y193.373 E26.71316
G1 X155.537 Y195.3 E26.87116
G1 X150.763 Y197.728 E27.0493
G1 X146.141 Y200.417 E27.22715
G1 X141.693 Y203.352 E27.4044
G1 X136.493 Y207.26 E27.62075
G1 X135.936 Y207.629 E27.64297
G1 X135.338 Y207.929 E27.66522
G1 X134.708 Y208.156 E27.68749
G1 X134.051 Y208.307 E27.70992
G1 X125.913 Y209.665 E27.98433
G1 X125.454 Y209.722 E27.99971
G1 X121.873 Y210.019 E28.11923
G1 X120.96 Y210.02 E28.14959
G1 X118.281 Y209.804 E28.23899
G1 X117.839 Y209.75 E28.2538
G1 X108.925 Y208.311 E28.55412
G1 X108.272 Y208.166 E28.57636
G1 X107.641 Y207.943 E28.59862
G1 X107.041 Y207.646 E28.62089
G1 X106.481 Y207.281 E28.64312
G1 X105.968 Y206.851 E28.66539
G1 X105.511 Y206.363 E28.68762
G1 X105.114 Y205.824 E28.70989
G1 X104.785 Y205.241 E28.73215
G1 X104.528 Y204.623 E28.75442
G1 X104.346 Y203.98 E28.77664
G1 X104.243 Y203.319 E28.79889
G1 X104.218 Y202.886 E28.81332
G1 X104.203 Y202.069 E28.8405
G1 X104.21 Y201.658 E28.85417
G1 X104.518 Y196.06 E29.04064
G1 X104.583 Y191.937 E29.17779
G1 X104.213 Y136.756 E31.01316
G1 X103.877 Y131.388 E31.19205
G1 X103.514 Y127.987 E31.30581
G1 X103.482 Y127.38 E31.32602
G1 X103.486 Y125.472 E31.38948
G1 X103.52 Y124.865 E31.4097
G1 X103.76 Y122.706 E31.48196
G1 X104.147 Y117.266 E31.66335
G1 X104.217 Y115.348 E31.72718
G1 X104.281 Y114.682 E31.74944
G1 X104.424 Y114.028 E31.7717
G1 X104.645 Y113.396 E31.79397
G1 X104.938 Y112.795 E31.81621
G1 X105.302 Y112.234 E31.83845
G1 X105.73 Y111.719 E31.86072
G1 X106.216 Y111.26 E31.88296
M204 S5000
M205 X30 Y30
G0 F3600 X106.119 Y111.892
M204 S500
M205 X20 Y20
G1 F1800 X106.601 Y111.463 E31.90442
G1 X107.131 Y111.097 E31.92584
G1 X107.552 Y110.869 E31.94177
G1 X113.241 Y108.122 E32.15189
G1 X115.505 Y106.896 E32.23752
G1 X120.155 Y104.117 E32.41769
G1 X123.625 Y101.809 E32.55631
G1 X124.183 Y101.486 E32.57775
G1 X124.566 Y101.314 E32.59171
G1 X124.989 Y101.144 E32.60688
G1 X125.601 Y100.941 E32.62832
G1 X126.233 Y100.816 E32.64975
G1 X127.089 Y100.772 E32.67826
G1 X128.184 Y100.806 E32.7147
G1 X128.512 Y100.826 E32.72562
G1 X130.409 Y101.005 E32.789
G1 X135.796 Y101.3 E32.96844
G1 X141.174 Y101.289 E33.14731
G1 X142.699 Y101.213 E33.1981
G1 X142.875 Y101.208 E33.20395
G1 X146.814 Y101.144 E33.33498
G1 X147.071 Y101.146 E33.34353
G1 X152.41 Y101.324 E33.52121
G1 X157.771 Y101.244 E33.69953
G1 X164.385 Y100.744 E33.92014
G1 X165.029 Y100.735 E33.94157
G1 X165.67 Y100.806 E33.96302
G1 X166.129 Y100.908 E33.97865
G1 X166.775 Y101.082 E34.00091
G1 X167.386 Y101.288 E34.02235
G1 X167.967 Y101.568 E34.0438
G1 X168.509 Y101.917 E34.06524
G1 X168.841 Y102.184 E34.07941
G1 X169.263 Y102.552 E34.09804
G1 X169.721 Y103.005 E34.11946
G1 X170.12 Y103.511 E34.1409
G1 X170.555 Y104.268 E34.16993
G1 X170.809 Y104.811 E34.18987
G1 X171.046 Y105.41 E34.2113
G1 X171.206 Y106.035 E34.23276
G1 X171.288 Y106.674 E34.25418
G1 X171.297 Y107.172 E34.27075
G1 X171.279 Y107.766 E34.29052
G1 X171.219 Y108.407 E34.31193
G1 X171.054 Y109.126 E34.33646
G1 X168.922 Y116.109 E34.5793
G1 X167.677 Y121.368 E34.75905
G1 X167.192 Y123.901 E34.84483
G1 X166.399 Y129.246 E35.02455
G1 X165.912 Y134.597 E35.20326
G1 X165.724 Y140.582 E35.40242
G1 X165.714 Y170.599 E36.40079
G1 X165.7 Y170.98 E36.41347
G1 X165.243 Y177.181 E36.62028
G1 X164.989 Y186.991 E36.94667
G1 X164.933 Y187.634 E36.96814
G1 X164.797 Y188.264 E36.98957
G1 X164.585 Y188.872 E37.01099
G1 X164.298 Y189.45 E37.03245
G1 X163.943 Y189.988 E37.05389
G1 X163.524 Y190.478 E37.07534
G1 X163.047 Y190.912 E37.09679
G1 X162.594 Y191.237 E37.11533
G1 X160.41 Y192.635 E37.20158
G1 X159.717 Y193.008 E37.22775
G1 X155.35 Y194.947 E37.38667
G1 X150.574 Y197.375 E37.56487
G1 X145.924 Y200.08 E37.7438
G1 X141.469 Y203.02 E37.92133
G1 X136.253 Y206.94 E38.13834
G1 X135.715 Y207.295 E38.15978
G1 X135.137 Y207.58 E38.18122
G1 X134.528 Y207.791 E38.20265
G1 X133.985 Y207.912 E38.22116
G1 X125.847 Y209.27 E38.49557
G1 X125.421 Y209.323 E38.50985
G1 X121.84 Y209.62 E38.62936
G1 X120.992 Y209.621 E38.65757
G1 X118.313 Y209.405 E38.74696
G1 X117.902 Y209.356 E38.76073
G1 X108.988 Y207.917 E39.06105
G1 X108.359 Y207.775 E39.08249
G1 X107.753 Y207.556 E39.10392
G1 X107.178 Y207.264 E39.12537
G1 X106.644 Y206.903 E39.14681
G1 X106.159 Y206.479 E39.16824
G1 X105.73 Y205.998 E39.18967
G1 X105.363 Y205.467 E39.21114
G1 X105.065 Y204.895 E39.2326
G1 X104.841 Y204.291 E39.25402
G1 X104.692 Y203.664 E39.27546
G1 X104.618 Y202.878 E39.30171
G1 X104.603 Y202.061 E39.32889
G1 X104.61 Y201.68 E39.34157
G1 X104.918 Y196.089 E39.52781
G1 X104.983 Y191.941 E39.66579
G1 X104.613 Y136.747 E41.50159
G1 X104.276 Y131.365 E41.68094
G1 X103.911 Y127.944 E41.79537
G1 X103.882 Y127.381 E41.81412
G1 X103.886 Y125.473 E41.87758
G1 X103.918 Y124.909 E41.89637
G1 X104.158 Y122.753 E41.96852
G1 X104.545 Y117.309 E42.15005
G1 X104.616 Y115.362 E42.21485
G1 X104.68 Y114.721 E42.23628
G1 X104.822 Y114.092 E42.25772
G1 X105.041 Y113.486 E42.27915
G1 X105.334 Y112.911 E42.30062
G1 X105.695 Y112.377 E42.32206
G1 X106.119 Y111.892 E42.34348
M204 S5000
M205 X30 Y30
G1 F2400 E37.34348
;MESH:Object 7
G0 F3600 X128.164 Y109.828
G0 X128.774 Y108.608
G0 X160.375 Y108.625
G0 X160.586 Y108.582
G0 X160.372 Y108.586
M204 S500
M205 X20 Y20
;TYPE:WALL-INNER
G1 F2400 E42.34348
G1 F1800 X161.709 Y108.238 E42.38943
G1 X162.6 Y108.006 E42.42006
G1 X162.811 Y107.941 E42.4274
G1 X163.025 Y107.859 E42.43502
G1 X163.237 Y107.757 E42.44285
G1 X163.437 Y107.64 E42.45055
G1 X163.563 Y107.553 E42.45565
G1 X163.591 Y107.533 E42.45679
G1 X163.64 Y107.499 E42.45877
G1 X163.661 Y107.577 E42.45952
G1 X163.688 Y107.671 E42.46128
G1 X163.771 Y107.852 E42.46675
G1 X163.885 Y108.014 E42.47333
G1 X164.02 Y108.152 E42.47975
G1 X164.168 Y108.261 E42.48587
G1 X164.178 Y108.269 E42.48629
G1 X164.243 Y108.301 E42.4887
G1 X164.348 Y108.352 E42.49259
G1 X164.233 Y108.399 E42.4935
G1 X164.186 Y108.419
G1 X164.123 Y108.441 E42.49412
G1 X164.003 Y108.484 E42.49673
G1 X163.791 Y108.543 E42.50405
G1 X163.619 Y108.581 E42.5099
G1 X163.413 Y108.611 E42.51683
