;FLAVOR:Marlin
;TIME:1924
;Filament used: 1.50597m
;Layer height: 0.15
;Generated with Cura_SteamEngine 3.6.0
M140 S60
M105
M190 S60
M104 S200
M105
M109 S200
M82 ;absolute extrusion mode
G28 ;Home
G1 Z15.0 F6000 ;Move the platform down 15mm
;Prime the extruder
G92 E0
G1 F200 E3
G92 E0
G92 E0
G1 F2400 E-5
;LAYER_COUNT:14
;LAYER:-6
M107
M204 S5000
M205 X30 Y30
G0 F7200 X74.77 Y140.526 Z0.24
M204 S500
M205 X20 Y20
;TYPE:SUPPORT-INTERFACE
G1 F2400 E0
G1 F1350 X75.024 Y140.398 E0.0227
G1 X75.294 Y140.282 E0.04616
G1 X75.55 Y140.19 E0.06788
G1 X75.842 Y140.106 E0.09213
G1 X76.099 Y140.05 E0.11313
G1 X76.425 Y140.002 E0.13943
G1 X77.08 Y139.862 E0.1929
G1 X77.723 Y139.638 E0.24725
G1 X78.262 Y139.374 E0.29516
G1 X78.571 Y139.201 E0.32343
G1 X79.146 Y138.937 E0.37393
G1 X79.309 Y138.878 E0.38777
G1 X79.712 Y138.754 E0.42143
G1 X79.973 Y138.692 E0.44284
G1 X80.521 Y138.602 E0.48717
G1 X80.734 Y138.586 E0.50422
G1 X81.104 Y138.571 E0.53378
G1 X81.4 Y138.58 E0.55742
G1 X81.946 Y138.635 E0.60122
G1 X82.156 Y138.673 E0.61826
G1 X82.618 Y138.777 E0.65606
G1 X83.28 Y138.883 E0.70958
G1 X83.962 Y138.906 E0.76405
G1 X84.637 Y138.841 E0.81818
G1 X85.075 Y138.754 E0.85383
G1 X85.317 Y138.696 E0.87369
G1 X85.818 Y138.621 E0.91413
G1 X86.132 Y138.6 E0.93925
G1 X86.84 Y138.613 E0.99577
G1 X87.333 Y138.678 E1.03547
G1 X87.644 Y138.743 E1.06083
G1 X88.302 Y138.942 E1.1157
G1 X88.62 Y139.077 E1.14328
G1 X89.249 Y139.309 E1.1968
G1 X89.915 Y139.462 E1.25134
G1 X90.589 Y139.53 E1.30542
G1 X90.983 Y139.53 E1.33687
G1 X91.235 Y139.521 E1.357
G1 X93.802 Y139.525 E1.56191
G1 X94.179 Y139.549 E1.59206
G1 X94.477 Y139.586 E1.61603
G1 X94.766 Y139.642 E1.63953
G1 X95.027 Y139.709 E1.66104
G1 X95.402 Y139.833 E1.69257
G1 X96.051 Y140.001 E1.74608
G1 X96.728 Y140.089 E1.80058
G1 X97.41 Y140.091 E1.85502
G1 X98.091 Y140.005 E1.90981
G1 X98.884 Y139.79 E1.9754
G1 X98.997 Y139.75 E1.98496
G1 X99.249 Y139.677 E2.00591
G1 X99.52 Y139.619 E2.02803
G1 X99.84 Y139.571 E2.05386
G1 X100.308 Y139.535 E2.09133
G1 X100.5 Y139.528 E2.10666
G1 X102.998 Y139.528 E2.30606
G1 X103.632 Y139.548 E2.3567
G1 X103.632 Y139.53 E2.35814
G1 X104.225 Y139.476 E2.40567
G1 X104.885 Y139.331 E2.45961
G1 X105.328 Y139.184 E2.49687
G1 X105.601 Y139.106 E2.51953
G1 X106.455 Y138.918 E2.58933
G1 X106.453 Y138.911 E2.58991
G1 X106.633 Y138.87 E2.60465
G1 X106.934 Y138.785 E2.62962
G1 X107.421 Y138.71 E2.66895
G1 X107.649 Y138.689 E2.68723
G1 X108.022 Y138.678 E2.71701
G1 X108.279 Y138.686 E2.73754
G1 X108.625 Y138.71 E2.76522
G1 X108.93 Y138.752 E2.7898
G1 X109.368 Y138.845 E2.82554
G1 X110.026 Y138.941 E2.87862
G1 X110.46 Y138.958 E2.91329
G1 X111.081 Y138.958 E2.96286
G1 X111.748 Y138.916 E3.01621
G1 X112.34 Y138.806 E3.06428
G1 X112.59 Y138.751 E3.08471
G1 X112.786 Y138.721 E3.10054
G1 X113.172 Y138.682 E3.13151
G1 X113.48 Y138.671 E3.15611
G1 X114.155 Y138.703 E3.21005
G1 X114.651 Y138.784 E3.25017
G1 X114.95 Y138.856 E3.27472
G1 X115.535 Y139.048 E3.32387
G1 X115.712 Y139.123 E3.33921
G1 X116.078 Y139.295 E3.37149
G1 X116.343 Y139.437 E3.39549
G1 X116.953 Y139.715 E3.449
G1 X117.603 Y139.918 E3.50336
G1 X118.454 Y140.079 E3.5725
G1 X118.739 Y140.154 E3.59602
G1 X118.999 Y140.239 E3.61785
G1 X119.371 Y140.386 E3.64978
G1 X120.008 Y140.594 E3.70327
G1 X120.679 Y140.723 E3.75782
G1 X121.36 Y140.766 E3.81229
G1 X122.042 Y140.723 E3.86683
G1 X122.713 Y140.593 E3.92139
G1 X123.363 Y140.379 E3.97602
G1 X124.13 Y140 E4.04431
G1 X124.708 Y139.731 E4.0952
G1 X124.859 Y139.669 E4.10823
G1 X125.439 Y139.491 E4.15666
G1 X125.584 Y139.453 E4.16862
G1 X125.743 Y139.422 E4.18156
G1 X126.235 Y139.345 E4.22131
G1 X126.417 Y139.324 E4.23593
G1 X126.975 Y139.309 E4.28049
G1 X127.258 Y139.321 E4.3031
G1 X127.772 Y139.379 E4.34439
G1 X128.5 Y139.485 E4.40312
G1 X128.5 Y139.476 E4.40383
G1 X128.629 Y139.492 E4.41421
G1 X129.311 Y139.49 E4.46865
G1 X129.889 Y139.42 E4.51513
G1 X130.348 Y139.344 E4.55226
G1 X130.486 Y139.334 E4.56331
G1 X131.04 Y139.314 E4.60756
G1 X131.306 Y139.322 E4.6288
G1 X131.895 Y139.385 E4.67609
G1 X132.574 Y139.542 E4.73172
G1 X132.74 Y139.588 E4.74547
G1 X133.376 Y139.837 E4.79999
G1 X134.013 Y140.045 E4.85348
G1 X134.684 Y140.174 E4.90802
G1 X135.365 Y140.216 E4.96249
G1 X136.047 Y140.173 E5.01703
G1 X136.721 Y140.042 E5.07184
G1 X137.49 Y139.777 E5.13677
G1 X137.733 Y139.683 E5.15757
G1 X138.38 Y139.488 E5.21151
G1 X138.52 Y139.459 E5.22292
G1 X138.969 Y139.384 E5.25926
G1 X139.131 Y139.363 E5.2723
G1 X139.259 Y139.354 E5.28254
G1 X139.938 Y139.338 E5.33676
G1 X140.117 Y139.353 E5.3511
G1 X140.595 Y139.407 E5.3895
G1 X140.799 Y139.439 E5.40598
G1 X141.465 Y139.518 E5.45951
G1 X142.146 Y139.514 E5.51388
G1 X142.699 Y139.446 E5.55835
G1 X143.152 Y139.37 E5.59502
G1 X143.781 Y139.342 E5.64528
G1 X143.938 Y139.341 E5.65781
G1 X144.722 Y139.418 E5.72069
G1 X145.345 Y139.563 E5.77175
G1 X145.496 Y139.605 E5.78426
G1 X146.096 Y139.835 E5.83556
G1 X146.339 Y139.949 E5.85698
G1 X146.899 Y140.266 E5.90835
G1 X147.023 Y140.352 E5.92039
G1 X147.499 Y140.71 E5.96794
G1 X148.097 Y141.105 E6.02515
G1 X148.71 Y141.405 E6.07962
G1 X149.356 Y141.624 E6.13407
G1 X150.026 Y141.76 E6.18865
G1 X150.707 Y141.811 E6.24316
G1 X151.389 Y141.775 E6.29767
G1 X152.065 Y141.652 E6.35252
G1 X152.338 Y141.56 E6.37552
G1 X152.341 Y141.57 E6.37635
G1 X153.082 Y141.306 E6.43914
G1 X153.57 Y141.109 E6.48115
G1 X153.839 Y141.013 E6.50395
G1 X154.182 Y140.914 E6.53245
G1 X154.732 Y140.723 E6.57892
G1 X154.929 Y140.641 E6.59596
G1 X155.369 Y140.476 E6.63347
G1 X155.518 Y140.426 E6.64601
G1 X156.248 Y140.256 E6.70584
G1 X156.429 Y140.233 E6.72041
G1 X156.953 Y140.187 E6.7624
G1 X157.117 Y140.178 E6.77551
G1 X157.757 Y140.208 E6.82665
G1 X157.895 Y140.221 E6.83772
G1 X158.545 Y140.323 E6.89024
G1 X158.546 Y140.312 E6.89112
G1 X159.237 Y140.328 E6.94629
G1 X159.917 Y140.255 E7.00089
G1 X160.229 Y140.207 E7.02608
G1 X160.349 Y140.198 E7.03569
G1 X160.961 Y140.18 E7.08456
G1 X161.77 Y140.259 E7.14945
G1 X162.134 Y140.342 E7.17925
G1 X162.794 Y140.458 E7.23274
G1 X163.475 Y140.491 E7.28717
G1 X164.082 Y140.447 E7.33575
G1 X164.409 Y140.409 E7.36202
G1 X164.636 Y140.4 E7.38016
G1 X165.275 Y140.409 E7.43117
G1 X165.466 Y140.427 E7.44649
G1 X165.903 Y140.49 E7.48173
G1 X166.576 Y140.542 E7.53561
G1 X166.973 Y140.513 E7.56739
G1 X166.976 Y140.547 E7.57011
G1 X167.5 Y140.476 E7.61232
G1 X167.667 Y140.459 E7.62572
G1 X168.133 Y140.429 E7.663
G1 X168.353 Y140.423 E7.68056
G1 X169.001 Y140.465 E7.7324
G1 X169.309 Y140.503 E7.75717
G1 X170.084 Y140.557 E7.81918
G1 X170.766 Y140.512 E7.87374
G1 X170.991 Y140.483 E7.89185
G1 X171.162 Y140.471 E7.90554
G1 X171.84 Y140.456 E7.95967
G1 X172.487 Y140.518 E8.01155
G1 X173.124 Y140.605 E8.06287
G1 X173.126 Y140.592 E8.06392
G1 X173.167 Y140.597 E8.06722
G1 X173.845 Y140.595 E8.12134
G1 X174.223 Y140.555 E8.15168
G1 X174.519 Y140.513 E8.17555
G1 X174.726 Y140.493 E8.19215
G1 X174.88 Y140.488 E8.20445
G1 X175.54 Y140.495 E8.25713
G1 X175.743 Y140.516 E8.27343
G1 X176.428 Y140.619 E8.32872
G1 X177.177 Y140.806 E8.39034
G1 X177.177 Y140.792 E8.39146
G1 X177.242 Y140.807 E8.39679
G1 X177.922 Y140.871 E8.45131
G1 X178.61 Y140.848 E8.50626
G1 X179.549 Y140.67 E8.58255
G1 X179.639 Y140.644 E8.59002
G1 X179.87 Y140.593 E8.60891
G1 X180.366 Y140.518 E8.64895
G1 X180.863 Y140.488 E8.68869
G1 X181.176 Y140.495 E8.71369
G1 X181.78 Y140.551 E8.76211
G1 X181.983 Y140.588 E8.77858
G1 X182.489 Y140.703 E8.82
G1 X183.153 Y140.81 E8.87369
G1 X183.943 Y140.827 E8.93676
G1 X184.254 Y140.816 E8.9616
G1 X184.679 Y140.822 E8.99553
G1 X185.062 Y140.849 E9.02618
G1 X185.36 Y140.888 E9.05017
G1 X185.764 Y140.967 E9.08303
G1 X187.007 Y141.277 E9.18529
G1 X187.374 Y141.392 E9.21599
G1 X187.625 Y141.489 E9.23747
G1 X187.888 Y141.61 E9.26058
G1 X188.167 Y141.76 E9.28587
G1 X188.392 Y141.9 E9.30702
G1 X188.648 Y142.084 E9.33219
G1 X188.85 Y142.248 E9.35296
G1 X189.092 Y142.472 E9.37928
G1 X189.275 Y142.664 E9.40045
G1 X189.462 Y142.886 E9.42362
G1 X189.638 Y143.125 E9.44731
G1 X189.783 Y143.352 E9.46881
G1 X189.94 Y143.635 E9.49465
G1 X190.051 Y143.867 E9.51518
G1 X190.174 Y144.172 E9.54143
G1 X190.259 Y144.426 E9.56281
G1 X190.366 Y144.838 E9.59679
G1 X190.41 Y145.067 E9.6154
G1 X190.467 Y145.444 E9.64584
G1 X190.489 Y145.691 E9.66563
G1 X190.497 Y146.008 E9.69095
G1 X190.485 Y146.298 E9.71412
G1 X190.458 Y146.569 E9.73585
G1 X190.407 Y146.871 E9.7603
G1 X190.343 Y147.151 E9.78323
G1 X190.256 Y147.437 E9.80709
G1 X190.161 Y147.695 E9.82904
G1 X190.037 Y147.974 E9.85341
G1 X189.907 Y148.222 E9.87576
G1 X189.755 Y148.475 E9.89932
G1 X189.59 Y148.71 E9.92224
G1 X189.403 Y148.945 E9.94622
G1 X189.207 Y149.162 E9.96956
G1 X189.005 Y149.361 E9.99219
G1 X188.687 Y149.635 E10.0257
G1 X188.074 Y150.118 E10.088
G1 X187.574 Y150.565 E10.14153
G1 X187.127 Y151.081 E10.19603
G1 X186.748 Y151.649 E10.25054
G1 X186.444 Y152.262 E10.30515
G1 X186.202 Y152.978 E10.36548
G1 X186.111 Y153.327 E10.39427
G1 X186.022 Y153.599 E10.41712
G1 X185.916 Y153.866 E10.44005
G1 X185.782 Y154.148 E10.46497
G1 X185.366 Y154.899 E10.5335
G1 X185.374 Y154.903 E10.53422
G1 X185.26 Y155.117 E10.55357
G1 X185.135 Y155.411 E10.57907
G1 X185.017 Y155.711 E10.60481
G1 X184.888 Y155.982 E10.62877
G1 X184.744 Y156.241 E10.65242
G1 X184.605 Y156.46 E10.67313
G1 X184.41 Y156.722 E10.6992
G1 X183.986 Y157.208 E10.75068
G1 X183.654 Y157.54 E10.78816
G1 X183.661 Y157.547 E10.78895
G1 X183.588 Y157.623 E10.79736
G1 X183.383 Y157.863 E10.82256
G1 X183.263 Y157.992 E10.83662
G1 X182.768 Y158.455 E10.89073
G1 X182.486 Y158.685 E10.91977
G1 X182.27 Y158.833 E10.94067
G1 X181.986 Y159.007 E10.96726
G1 X181.684 Y159.163 E10.99439
G1 X181.188 Y159.373 E11.03739
G1 X181.007 Y159.436 E11.05269
G1 X180.664 Y159.524 E11.08095
G1 X180.35 Y159.585 E11.10649
G1 X180.038 Y159.624 E11.13159
G1 X179.802 Y159.643 E11.15049
G1 X179.553 Y159.649 E11.17037
G1 X178.52 Y159.633 E11.25284
G1 X178.52 Y159.625 E11.25348
G1 X178.302 Y159.626 E11.27088
G1 X178.302 Y159.633 E11.27144
G1 X177.805 Y159.652 E11.31114
G1 X176.909 Y159.648 E11.38266
G1 X176.532 Y159.624 E11.41282
G1 X176.237 Y159.587 E11.43655
G1 X175.937 Y159.529 E11.46094
G1 X175.785 Y159.49 E11.47347
G1 X175.127 Y159.362 E11.52697
G1 X174.445 Y159.319 E11.58152
G1 X173.768 Y159.362 E11.63567
G1 X173.293 Y159.443 E11.67414
G1 X172.895 Y159.53 E11.70666
G1 X172.568 Y159.578 E11.73304
G1 X172.123 Y159.612 E11.76866
G1 X171.928 Y159.62 E11.78424
G1 X170.693 Y159.621 E11.88283
G1 X170.089 Y159.585 E11.93113
G1 X169.121 Y159.554 E12.00844
G1 X168.722 Y159.578 E12.04034
G1 X168.526 Y159.583 E12.05599
G1 X167.82 Y159.568 E12.11236
G1 X167.15 Y159.596 E12.16589
G1 X166.477 Y159.711 E12.22039
G1 X165.823 Y159.91 E12.27496
G1 X165.2 Y160.189 E12.32945
G1 X164.618 Y160.545 E12.38391
G1 X164.084 Y160.972 E12.43849
G1 X163.608 Y161.464 E12.49313
G1 X163.114 Y162.147 E12.56042
G1 X162.867 Y162.553 E12.59835
G1 X162.703 Y162.788 E12.62123
G1 X162.521 Y163.016 E12.64452
G1 X161.859 Y163.747 E12.72324
G1 X161.867 Y163.751 E12.72395
G1 X161.498 Y164.291 E12.77616
G1 X161.257 Y164.742 E12.81698
G1 X161.116 Y165.038 E12.84315
G1 X161.03 Y165.197 E12.85758
G1 X161.025 Y165.195 E12.85801
G1 X160.669 Y165.949 E12.92457
G1 X160.525 Y166.208 E12.94823
G1 X160.386 Y166.427 E12.96893
G1 X160.182 Y166.701 E12.9962
G1 X159.881 Y167.052 E13.03311
G1 X159.455 Y167.527 E13.08404
G1 X159.258 Y167.731 E13.10668
G1 X159.002 Y167.963 E13.13426
G1 X158.601 Y168.266 E13.17438
G1 X158.337 Y168.436 E13.19944
G1 X158.102 Y168.567 E13.22092
G1 X157.813 Y168.706 E13.24652
G1 X157.563 Y168.806 E13.26801
G1 X157.279 Y168.9 E13.29189
G1 X157.016 Y168.969 E13.31359
G1 X156.715 Y169.027 E13.33806
G1 X156.381 Y169.071 E13.36495
G1 X156.163 Y169.088 E13.38241
G1 X155.919 Y169.095 E13.40189
G1 X155.481 Y169.087 E13.43686
G1 X154.955 Y169.093 E13.47885
G1 X154.641 Y169.087 E13.50392
G1 X154.269 Y169.062 E13.53368
G1 X154.056 Y169.035 E13.55082
G1 X153.388 Y168.99 E13.60427
G1 X152.761 Y169.025 E13.65439
G1 X152.512 Y169.055 E13.67441
G1 X152.054 Y169.076 E13.71101
G1 X151.459 Y169.069 E13.75851
G1 X151.177 Y169.051 E13.78107
G1 X150.989 Y169.051 E13.79607
G1 X150.989 Y169.041 E13.79687
G1 X150.277 Y169.057 E13.85372
G1 X149.643 Y169.039 E13.90435
G1 X149.643 Y169.031 E13.90499
G1 X149.141 Y169.037 E13.94506
G1 X148.638 Y169.029 E13.98522
G1 X148.379 Y169.008 E14.00596
G1 X147.551 Y169.006 E14.07206
G1 X146.985 Y169.049 E14.11737
G1 X146.556 Y169.057 E14.15162
G1 X146.055 Y169.029 E14.19167
G1 X145.738 Y168.99 E14.21717
G1 X145.086 Y168.949 E14.26932
G1 X142.407 Y168.949 E14.48317
G1 X142.407 Y168.943 E14.48365
G1 X141.54 Y168.96 E14.55287
G1 X141.209 Y168.946 E14.57931
G1 X140.997 Y168.926 E14.59631
G1 X140.722 Y168.885 E14.6185
G1 X140.455 Y168.829 E14.64028
G1 X139.538 Y168.596 E14.71581
G1 X139.537 Y168.602 E14.71629
G1 X139.481 Y168.588 E14.7209
G1 X138.803 Y168.508 E14.7754
G1 X138.118 Y168.513 E14.83008
G1 X137.843 Y168.554 E14.85227
G1 X137.843 Y168.521 E14.8549
G1 X137.225 Y168.648 E14.90527
G1 X136.837 Y168.705 E14.93657
G1 X136.65 Y168.721 E14.95155
G1 X135.841 Y168.853 E15.01699
G1 X135.571 Y168.908 E15.03898
G1 X134.597 Y169.06 E15.11767
G1 X134.31 Y169.087 E15.14068
G1 X134.017 Y169.096 E15.16408
G1 X133.724 Y169.085 E15.18749
G1 X132.831 Y168.996 E15.25912
G1 X132.831 Y169.002 E15.2596
G1 X132.687 Y168.989 E15.27114
G1 X132.402 Y168.984 E15.2939
G1 X132.124 Y168.962 E15.31616
G1 X132.124 Y168.954 E15.31679
G1 X131.574 Y168.917 E15.3608
G1 X131.129 Y168.853 E15.39668
G1 X130.697 Y168.755 E15.43204
G1 X129.493 Y168.381 E15.53268
G1 X129.491 Y168.387 E15.53319
G1 X129.16 Y168.276 E15.56106
G1 X128.216 Y167.895 E15.64232
G1 X127.555 Y167.726 E15.69678
G1 X126.877 Y167.641 E15.75132
G1 X126.195 Y167.643 E15.80576
G1 X125.517 Y167.731 E15.86034
G1 X124.858 Y167.903 E15.9147
G1 X124.293 Y168.125 E15.96316
G1 X124.06 Y168.232 E15.98363
G1 X123.85 Y168.316 E16.00168
G1 X123.559 Y168.414 E16.02619
G1 X123.048 Y168.534 E16.06809
G1 X122.792 Y168.58 E16.08885
G1 X122.459 Y168.616 E16.11559
G1 X122.022 Y168.633 E16.1505
G1 X103.135 Y168.629 E17.65814
G1 X102.754 Y168.612 E17.68859
G1 X102.55 Y168.591 E17.70496
G1 X102.146 Y168.533 E17.73754
G1 X101.932 Y168.491 E17.75494
G1 X101.598 Y168.404 E17.7825
G1 X101.392 Y168.337 E17.79979
G1 X101.055 Y168.213 E17.82845
G1 X100.78 Y168.093 E17.8524
G1 X100.507 Y167.952 E17.87693
G1 X100.294 Y167.829 E17.89656
G1 X100.094 Y167.698 E17.91565
G1 X99.725 Y167.408 E17.95311
G1 X99.464 Y167.165 E17.98158
G1 X99.05 Y166.712 E18.03056
G1 X98.837 Y166.445 E18.05783
G1 X98.484 Y165.949 E18.10642
G1 X98.37 Y165.777 E18.1229
G1 X98.18 Y165.434 E18.1542
G1 X98.062 Y165.186 E18.17612
G1 X97.942 Y164.881 E18.20228
G1 X97.864 Y164.654 E18.22144
G1 X97.812 Y164.476 E18.23624
G1 X97.747 Y164.202 E18.25872
G1 X97.68 Y163.846 E18.28764
G1 X97.641 Y163.54 E18.31226
G1 X97.615 Y163.053 E18.35119
G1 X97.615 Y162.892 E18.36404
G1 X97.573 Y162.224 E18.41747
G1 X97.444 Y161.553 E18.47202
G1 X97.231 Y160.904 E18.52654
G1 X96.939 Y160.287 E18.58103
G1 X96.571 Y159.712 E18.63552
G1 X96.133 Y159.188 E18.69004
G1 X95.633 Y158.724 E18.74449
G1 X95.077 Y158.325 E18.79912
G1 X94.477 Y158.001 E18.85355
G1 X93.841 Y157.755 E18.90798
G1 X93.172 Y157.589 E18.963
G1 X92.233 Y157.505 E19.03826
G1 X78.342 Y157.505 E20.1471
G1 X77.982 Y157.491 E20.17586
G1 X77.6 Y157.459 E20.20646
G1 X76.935 Y157.359 E20.26014
G1 X76.67 Y157.293 E20.28194
G1 X76.02 Y157.09 E20.33629
G1 X75.827 Y157.02 E20.35268
G1 X75.301 Y156.767 E20.39927
G1 X75.113 Y156.662 E20.41646
G1 X74.873 Y156.509 E20.43918
G1 X74.401 Y156.149 E20.48657
