;FLAVOR:Marlin
;TIME:2679
;Filament used: 0.293052m
;Layer height: 0.06
;Generated with Cura_SteamEngine 3.6.0
M140 S60
M105
M190 S60
M104 S195
M105
M109 S195
M82 ;absolute extrusion mode
G28 ;Home
G1 Z15.0 F6000 ;Move the platform down 15mm
;Prime the extruder
G92 E0
G1 F200 E3
G92 E0
G92 E0
G1 F2400 E-5
;LAYER_COUNT:127
;LAYER:0
M107
M204 S5000
M205 X30 Y30
;MESH:Battery Case V2 Top.stl
G0 F1200 X139.924 Y121.111 Z0.2
M204 S500
M205 X20 Y20
;TYPE:WALL-INNER
G1 F2400 E0
G1 F1200 X140.47 Y121.158 E0.01823
G1 X140.989 Y121.238 E0.03569
G1 X141.526 Y121.361 E0.05402
G1 X142.03 Y121.514 E0.07153
G1 X142.54 Y121.708 E0.08968
G1 X143.031 Y121.937 E0.1077
G1 X143.491 Y122.191 E0.12518
G1 X143.954 Y122.49 E0.14351
G1 X144.381 Y122.811 E0.16128
G1 X144.778 Y123.154 E0.17873
G1 X145.167 Y123.541 E0.19698
G1 X145.517 Y123.941 E0.21466
G1 X145.85 Y124.38 E0.23298
G1 X146.143 Y124.83 E0.25084
G1 X146.407 Y125.304 E0.26889
G1 X146.625 Y125.772 E0.28606
G1 X146.827 Y126.295 E0.30471
G1 X146.98 Y126.793 E0.32204
G1 X147.103 Y127.317 E0.33994
G1 X147.191 Y127.862 E0.3583
G1 X147.237 Y128.377 E0.3755
G1 X147.248 Y128.919 E0.39353
G1 X147.222 Y129.466 E0.41174
G1 X147.157 Y130.004 E0.42977
G1 X147.057 Y130.529 E0.44754
G1 X146.92 Y131.042 E0.4652
G1 X146.746 Y131.556 E0.48325
G1 X146.539 Y132.046 E0.50094
G1 X146.294 Y132.529 E0.51896
G1 X146.014 Y132.997 E0.53709
G1 X145.715 Y133.427 E0.55451
G1 X145.368 Y133.858 E0.57292
G1 X145.006 Y134.249 E0.59064
G1 X144.612 Y134.615 E0.60853
G1 X144.195 Y134.955 E0.62642
G1 X143.751 Y135.268 E0.64449
G1 X143.291 Y135.546 E0.66237
G1 X142.824 Y135.785 E0.67981
G1 X142.314 Y136.003 E0.69826
G1 X141.806 Y136.179 E0.71614
G1 X141.289 Y136.319 E0.73396
G1 X140.762 Y136.424 E0.75183
G1 X140.232 Y136.488 E0.76959
G1 X139.694 Y136.518 E0.78751
G1 X139.155 Y136.51 E0.80544
G1 X138.616 Y136.464 E0.82343
G1 X138.085 Y136.381 E0.84131
G1 X137.558 Y136.262 E0.85928
G1 X137.042 Y136.105 E0.87721
G1 X136.545 Y135.915 E0.89491
G1 X136.058 Y135.689 E0.91277
G1 X135.583 Y135.427 E0.93081
G1 X135.136 Y135.138 E0.94851
G1 X134.701 Y134.811 E0.96661
G1 X134.3 Y134.464 E0.98425
G1 X133.914 Y134.08 E1.00236
G1 X133.562 Y133.677 E1.02016
G1 X133.23 Y133.24 E1.03841
G1 X132.941 Y132.796 E1.05603
G1 X132.67 Y132.308 E1.0746
G1 X132.456 Y131.849 E1.09144
G1 X132.253 Y131.326 E1.1101
G1 X132.105 Y130.841 E1.12697
G1 X131.975 Y130.284 E1.14599
G1 X131.891 Y129.765 E1.16348
G1 X131.844 Y129.24 E1.18101
G1 X131.833 Y128.703 E1.19887
G1 X131.859 Y128.156 E1.21709
G1 X131.924 Y127.618 E1.23511
G1 X132.022 Y127.104 E1.25252
G1 X132.166 Y126.563 E1.27114
G1 X132.338 Y126.057 E1.28891
G1 X132.542 Y125.575 E1.30632
G1 X132.787 Y125.093 E1.3243
G1 X133.07 Y124.62 E1.34264
G1 X133.366 Y124.195 E1.35986
G1 X133.716 Y123.76 E1.37843
G1 X134.082 Y123.366 E1.39632
G1 X134.461 Y123.012 E1.41357
G1 X134.886 Y122.666 E1.43179
G1 X135.335 Y122.35 E1.45006
G1 X135.781 Y122.081 E1.46738
G1 X136.265 Y121.833 E1.48547
G1 X136.757 Y121.623 E1.50326
G1 X137.275 Y121.443 E1.5215
G1 X137.798 Y121.302 E1.53951
G1 X138.313 Y121.2 E1.55698
G1 X138.853 Y121.133 E1.57507
G1 X139.388 Y121.104 E1.59289
G1 X139.924 Y121.111 E1.61072
M204 S5000
M205 X30 Y30
G0 X139.92 Y121.21
G0 X137.347 Y128.62
G0 X137.446 Y128.628
M204 S500
M205 X20 Y20
G1 X137.443 Y128.921 E1.62047
G1 X137.477 Y129.211 E1.63018
G1 X137.553 Y129.494 E1.63993
G1 X137.668 Y129.766 E1.64975
G1 X137.82 Y130.016 E1.65948
G1 X138.003 Y130.244 E1.6692
G1 X138.219 Y130.445 E1.67902
G1 X138.458 Y130.612 E1.68872
G1 X138.719 Y130.746 E1.69847
G1 X138.997 Y130.841 E1.70825
G1 X139.286 Y130.897 E1.71804
G1 X139.579 Y130.912 E1.72779
G1 X139.87 Y130.886 E1.73751
G1 X140.155 Y130.82 E1.74724
G1 X140.427 Y130.715 E1.75694
G1 X140.685 Y130.574 E1.76672
G1 X140.92 Y130.397 E1.7765
G1 X141.127 Y130.19 E1.78624
G1 X141.303 Y129.955 E1.796
G1 X141.446 Y129.698 E1.80579
G1 X141.551 Y129.424 E1.81555
G1 X141.616 Y129.138 E1.8253
G1 X141.641 Y128.847 E1.83502
G1 X141.626 Y128.555 E1.84474
G1 X141.57 Y128.267 E1.8545
G1 X141.475 Y127.99 E1.86424
G1 X141.342 Y127.728 E1.87401
G1 X141.174 Y127.489 E1.88373
G1 X140.975 Y127.275 E1.89345
G1 X140.747 Y127.09 E1.90321
G1 X140.495 Y126.938 E1.913
G1 X140.224 Y126.824 E1.92278
G1 X139.941 Y126.747 E1.93253
G1 X139.649 Y126.713 E1.94231
G1 X139.358 Y126.718 E1.95199
G1 X139.068 Y126.763 E1.96175
G1 X138.787 Y126.849 E1.97153
G1 X138.521 Y126.974 E1.9813
G1 X138.276 Y127.132 E1.991
G1 X138.054 Y127.325 E2.00078
G1 X137.862 Y127.548 E2.01057
G1 X137.704 Y127.792 E2.02024
G1 X137.579 Y128.057 E2.02998
G1 X137.493 Y128.337 E2.03973
G1 X137.446 Y128.628 E2.04953
M204 S5000
M205 X30 Y30
G0 X137.846 Y128.663
M204 S500
M205 X20 Y20
;TYPE:WALL-OUTER
G1 X137.843 Y128.9 E2.05741
G1 X137.871 Y129.135 E2.06528
G1 X137.932 Y129.364 E2.07317
G1 X138.025 Y129.583 E2.08108
G1 X138.148 Y129.786 E2.08897
G1 X138.297 Y129.971 E2.09688
G1 X138.471 Y130.133 E2.10478
G1 X138.665 Y130.269 E2.11266
G1 X138.876 Y130.377 E2.12055
G1 X139.1 Y130.454 E2.12842
G1 X139.334 Y130.499 E2.13635
G1 X139.571 Y130.511 E2.14424
G1 X139.807 Y130.49 E2.15212
G1 X140.038 Y130.437 E2.16001
G1 X140.258 Y130.352 E2.16785
G1 X140.467 Y130.237 E2.17578
G1 X140.657 Y130.094 E2.18369
G1 X140.824 Y129.927 E2.19155
G1 X140.967 Y129.737 E2.19946
G1 X141.082 Y129.529 E2.20736
G1 X141.167 Y129.307 E2.21527
G1 X141.22 Y129.076 E2.22315
G1 X141.24 Y128.84 E2.23103
G1 X141.228 Y128.603 E2.23892
G1 X141.183 Y128.371 E2.24678
G1 X141.106 Y128.147 E2.25466
G1 X140.998 Y127.935 E2.26257
G1 X140.862 Y127.741 E2.27045
G1 X140.701 Y127.568 E2.27831
G1 X140.516 Y127.418 E2.28624
G1 X140.313 Y127.295 E2.29413
G1 X140.094 Y127.203 E2.30203
G1 X139.865 Y127.141 E2.30992
G1 X139.629 Y127.113 E2.31783
G1 X139.393 Y127.117 E2.32568
G1 X139.158 Y127.154 E2.33359
G1 X138.931 Y127.223 E2.34148
G1 X138.716 Y127.324 E2.34938
G1 X138.517 Y127.453 E2.35727
G1 X138.338 Y127.608 E2.36514
G1 X138.183 Y127.788 E2.37305
G1 X138.054 Y127.987 E2.38093
G1 X137.953 Y128.201 E2.3888
G1 X137.884 Y128.428 E2.39669
G1 X137.846 Y128.663 E2.40461
M204 S5000
M205 X30 Y30
G0 X137.844 Y128.863
G0 X137.344 Y128.857
G0 X137.633 Y129.784
G0 X137.974 Y130.271
G0 X138.438 Y130.646
G0 X145.635 Y133.368
G0 X146.032 Y133.672
M204 S500
M205 X20 Y20
G1 X145.677 Y134.113 E2.42344
G1 X145.283 Y134.538 E2.44272
G1 X144.879 Y134.914 E2.46107
G1 X144.441 Y135.271 E2.47987
G1 X143.97 Y135.603 E2.49903
G1 X143.485 Y135.896 E2.51788
G1 X142.99 Y136.149 E2.53637
G1 X142.459 Y136.376 E2.55558
G1 X141.928 Y136.56 E2.57427
G1 X141.381 Y136.708 E2.59312
G1 X140.822 Y136.819 E2.61207
G1 X140.272 Y136.886 E2.6305
G1 X139.696 Y136.918 E2.64969
G1 X139.13 Y136.91 E2.66851
G1 X138.577 Y136.863 E2.68697
G1 X138.007 Y136.774 E2.70616
G1 X137.453 Y136.648 E2.72506
G1 X136.922 Y136.487 E2.74351
G1 X136.382 Y136.28 E2.76275
G1 X135.881 Y136.048 E2.78111
G1 X135.374 Y135.768 E2.80037
G1 X134.907 Y135.466 E2.81887
G1 X134.451 Y135.123 E2.83785
G1 X134.025 Y134.755 E2.85657
G1 X133.627 Y134.359 E2.87525
G1 X133.245 Y133.922 E2.89455
G1 X132.911 Y133.482 E2.91293
G1 X132.595 Y132.997 E2.93218
G1 X132.32 Y132.502 E2.95101
G1 X132.086 Y132.001 E2.9694
G1 X131.877 Y131.461 E2.98866
G1 X131.715 Y130.933 E3.00703
G1 X131.583 Y130.368 E3.02633
G1 X131.495 Y129.82 E3.04479
G1 X131.444 Y129.256 E3.06363
G1 X131.433 Y128.693 E3.08235
G1 X131.459 Y128.129 E3.10113
G1 X131.529 Y127.553 E3.12043
G1 X131.633 Y127.01 E3.13882
G1 X131.782 Y126.449 E3.15813
G1 X131.959 Y125.928 E3.17643
G1 X132.185 Y125.394 E3.19571
G1 X132.435 Y124.901 E3.2141
G1 X132.733 Y124.404 E3.23337
G1 X133.049 Y123.95 E3.25177
G1 X133.404 Y123.509 E3.2706
G1 X133.798 Y123.084 E3.28988
G1 X134.202 Y122.707 E3.30825
G1 X134.64 Y122.35 E3.32705
G1 X135.115 Y122.016 E3.34636
G1 X135.587 Y121.731 E3.3647
G1 X136.099 Y121.469 E3.38383
G1 X136.612 Y121.25 E3.40238
G1 X137.157 Y121.061 E3.42157
G1 X137.7 Y120.914 E3.44028
G1 X138.259 Y120.804 E3.45923
G1 X138.809 Y120.735 E3.47766
G1 X139.387 Y120.704 E3.49692
G1 X139.951 Y120.711 E3.51568
G1 X140.505 Y120.759 E3.53417
G1 X141.072 Y120.846 E3.55325
G1 X141.628 Y120.974 E3.57223
G1 X142.158 Y121.135 E3.59065
G1 X142.7 Y121.341 E3.60993
G1 X143.2 Y121.574 E3.62828
G1 X143.7 Y121.85 E3.64728
G1 X144.183 Y122.162 E3.6664
G1 X144.631 Y122.499 E3.68505
G1 X145.053 Y122.863 E3.70358
G1 X145.454 Y123.262 E3.7224
G1 X145.836 Y123.699 E3.7417
G1 X146.169 Y124.138 E3.76003
G1 X146.486 Y124.625 E3.77936
G1 X146.761 Y125.119 E3.79816
G1 X146.995 Y125.62 E3.81655
G1 X147.204 Y126.16 E3.83581
G1 X147.366 Y126.689 E3.85421
G1 X147.498 Y127.253 E3.87348
G1 X147.586 Y127.798 E3.89184
G1 X147.637 Y128.362 E3.91068
G1 X147.648 Y128.929 E3.92954
G1 X147.622 Y129.493 E3.94832
G1 X147.552 Y130.069 E3.96761
G1 X147.449 Y130.61 E3.98593
G1 X147.299 Y131.17 E4.00521
G1 X147.122 Y131.694 E4.02361
G1 X146.896 Y132.227 E4.04286
G1 X146.646 Y132.721 E4.06128
G1 X146.348 Y133.218 E4.08055
G1 X146.032 Y133.672 E4.09895
M204 S5000
M205 X30 Y30
G0 X145.907 Y133.827
G0 X145.519 Y133.513
G0 X145.411 Y133.183
M204 S500
M205 X20 Y20
;TYPE:SKIN
G1 X145.075 Y133.601 E4.11679
G1 X144.73 Y133.973 E4.13366
G1 X144.356 Y134.321 E4.15065
G1 X143.961 Y134.643 E4.1676
G1 X143.54 Y134.94 E4.18474
G1 X143.106 Y135.203 E4.20162
G1 X142.67 Y135.426 E4.21791
G1 X142.168 Y135.64 E4.23606
G1 X141.685 Y135.808 E4.25307
G1 X141.203 Y135.939 E4.26968
G1 X140.715 Y136.036 E4.28623
G1 X140.194 Y136.098 E4.30368
G1 X139.678 Y136.128 E4.32087
G1 X139.166 Y136.12 E4.3379
G1 X138.676 Y136.078 E4.35426
G1 X138.145 Y135.995 E4.37213
G1 X137.659 Y135.886 E4.3887
G1 X137.167 Y135.736 E4.40581
G1 X136.691 Y135.554 E4.42276
G1 X136.242 Y135.345 E4.43923
G1 X135.791 Y135.096 E4.45636
G1 X135.348 Y134.81 E4.4739
G1 X134.946 Y134.506 E4.49067
G1 X134.569 Y134.181 E4.50722
G1 X134.199 Y133.813 E4.52458
G1 X133.856 Y133.42 E4.54193
G1 X133.554 Y133.023 E4.55852
G1 X133.268 Y132.583 E4.57597
G1 X133.011 Y132.119 E4.59361
G1 X132.813 Y131.693 E4.60924
G1 X132.622 Y131.203 E4.62673
G1 X132.482 Y130.741 E4.64279
G1 X132.358 Y130.209 E4.66096
G1 X132.278 Y129.713 E4.67767
G1 X132.234 Y129.226 E4.69393
G1 X132.223 Y128.721 E4.71073
G1 X132.247 Y128.203 E4.72798
G1 X132.311 Y127.665 E4.746
G1 X132.402 Y127.191 E4.76205
G1 X132.543 Y126.663 E4.78023
G1 X132.702 Y126.196 E4.79663
G1 X132.895 Y125.74 E4.8131
G1 X133.122 Y125.294 E4.82975
G1 X133.405 Y124.821 E4.84808
G1 X133.67 Y124.439 E4.86354
G1 X134.011 Y124.015 E4.88164
G1 X134.354 Y123.646 E4.8984
G1 X134.728 Y123.297 E4.91541
G1 X135.121 Y122.977 E4.93227
G1 X135.548 Y122.677 E4.94963
G1 X135.966 Y122.424 E4.96588
G1 X136.426 Y122.189 E4.98306
G1 X136.904 Y121.985 E5.00034
G1 X137.398 Y121.813 E5.01774
G1 X137.884 Y121.682 E5.03448
G1 X138.371 Y121.586 E5.05099
G1 X138.883 Y121.523 E5.06815
G1 X139.403 Y121.494 E5.08547
G1 X139.913 Y121.501 E5.10244
G1 X140.411 Y121.544 E5.11906
G1 X140.924 Y121.623 E5.13632
G1 X141.426 Y121.738 E5.15345
G1 X141.891 Y121.879 E5.16961
G1 X142.395 Y122.071 E5.18755
G1 X142.852 Y122.284 E5.20432
G1 X143.291 Y122.526 E5.221
G1 X143.731 Y122.81 E5.23841
G1 X144.137 Y123.116 E5.25532
G1 X144.503 Y123.431 E5.27138
G1 X144.882 Y123.808 E5.28916
G1 X145.223 Y124.198 E5.30639
G1 X145.523 Y124.593 E5.32289
G1 X145.816 Y125.043 E5.34075
G1 X146.066 Y125.493 E5.35787
G1 X146.266 Y125.924 E5.37368
G1 X146.458 Y126.423 E5.39146
G1 X146.603 Y126.895 E5.40788
G1 X146.72 Y127.393 E5.4249
G1 X146.804 Y127.91 E5.44232
G1 X146.847 Y128.385 E5.45818
G1 X146.858 Y128.901 E5.47535
G1 X146.834 Y129.419 E5.4926
G1 X146.77 Y129.957 E5.51062
G1 X146.678 Y130.435 E5.52681
G1 X146.543 Y130.939 E5.54416
G1 X146.384 Y131.411 E5.56072
G1 X146.18 Y131.892 E5.5781
G1 X145.959 Y132.328 E5.59436
G1 X145.679 Y132.796 E5.6125
G1 X145.411 Y133.183 E5.62816
M204 S5000
M205 X30 Y30
G0 X141.423 Y130.446
M204 S500
M205 X20 Y20
G1 X141.631 Y130.168 E5.6397
G1 X141.801 Y129.864 E5.65129
G1 X141.925 Y129.537 E5.66292
G1 X142.002 Y129.198 E5.67448
G1 X142.031 Y128.853 E5.686
G1 X142.014 Y128.508 E5.69749
G1 X141.948 Y128.166 E5.70907
G1 X141.835 Y127.838 E5.72061
G1 X141.677 Y127.527 E5.73221
G1 X141.478 Y127.243 E5.74375
G1 X141.242 Y126.99 E5.75525
G1 X140.972 Y126.77 E5.76684
G1 X140.672 Y126.589 E5.77849
G1 X140.351 Y126.455 E5.79006
G1 X140.015 Y126.363 E5.80165
G1 X139.668 Y126.323 E5.81327
G1 X139.325 Y126.328 E5.82467
G1 X138.98 Y126.382 E5.83629
G1 X138.646 Y126.484 E5.8479
G1 X138.332 Y126.632 E5.85945
G1 X138.042 Y126.82 E5.87094
G1 X137.777 Y127.05 E5.88262
G1 X137.55 Y127.314 E5.8942
G1 X137.363 Y127.602 E5.90562
G1 X137.214 Y127.916 E5.91718
G1 X137.113 Y128.248 E5.92872
G1 X137.056 Y128.595 E5.94041
G1 X137.053 Y128.942 E5.95196
G1 X137.093 Y129.285 E5.96344
G1 X137.183 Y129.621 E5.97501
G1 X137.319 Y129.944 E5.98667
G1 X137.5 Y130.24 E5.99821
G1 X137.716 Y130.511 E6.00973
G1 X137.973 Y130.749 E6.02138
G1 X138.257 Y130.947 E6.0329
G1 X138.566 Y131.106 E6.04446
G1 X138.896 Y131.219 E6.05606
G1 X139.239 Y131.285 E6.06768
G1 X139.587 Y131.302 E6.07926
G1 X139.932 Y131.272 E6.09078
G1 X140.27 Y131.194 E6.10232
G1 X140.591 Y131.07 E6.11377
G1 X140.897 Y130.903 E6.12536
G1 X141.177 Y130.692 E6.13702
G1 X141.423 Y130.446 E6.14859
M204 S5000
M205 X30 Y30
G0 X145.862 Y125.498
M204 S500
M205 X20 Y20
G1 X142.858 Y122.494 E6.28989
G1 X142.788 Y122.424
M204 S5000
M205 X30 Y30
G0 X141.859 Y122.06
M204 S500
M205 X20 Y20
G1 X146.291 Y126.492 E6.49836
G1 X146.361 Y126.562
M204 S5000
M205 X30 Y30
G0 X146.506 Y127.272
M204 S500
M205 X20 Y20
G1 X141.076 Y121.842 E6.75377
M204 S5000
M205 X30 Y30
G0 X140.391 Y121.723
M204 S500
M205 X20 Y20
G1 X146.627 Y127.96 E7.04712
M204 S5000
M205 X30 Y30
G0 X146.67 Y128.568
M204 S500
M205 X20 Y20
G1 X139.781 Y121.679 E7.37115
M204 S5000
M205 X30 Y30
G0 X139.221 Y121.685
M204 S500
M205 X20 Y20
G1 X146.666 Y129.13 E7.72134
M204 S5000
M205 X30 Y30
G0 X146.624 Y129.653
M204 S500
M205 X20 Y20
G1 X138.698 Y121.727 E8.09416
M204 S5000
M205 X30 Y30
G0 X138.206 Y121.801
M204 S500
M205 X20 Y20
G1 X146.55 Y130.145 E8.48663
M204 S5000
M205 X30 Y30
G0 X146.446 Y130.606
M204 S500
M205 X20 Y20
G1 X137.745 Y121.906 E8.89588
M204 S5000
M205 X30 Y30
G0 X137.308 Y122.035
M204 S500
M205 X20 Y20
G1 X146.316 Y131.043 E9.31959
M204 S5000
M205 X30 Y30
G0 X146.167 Y131.459
M204 S500
M205 X20 Y20
G1 X136.893 Y122.185 E9.75581
M204 S5000
M205 X30 Y30
G0 X136.497 Y122.355
M204 S500
M205 X20 Y20
G1 X140.439 Y126.297 E9.94123
M204 S5000
M205 X30 Y30
G0 X139.724 Y126.147
M204 S500
M205 X20 Y20
G1 X136.123 Y122.546 E10.11061
M204 S5000
M205 X30 Y30
G0 X135.765 Y122.755
M204 S500
M205 X20 Y20
G1 X139.179 Y126.168 E10.27117
M204 S5000
M205 X30 Y30
G0 X138.718 Y126.273
M204 S500
M205 X20 Y20
G1 X135.427 Y122.982 E10.42597
M204 S5000
M205 X30 Y30
G0 X135.103 Y123.223
M204 S500
M205 X20 Y20
G1 X138.318 Y126.439 E10.57721
M204 S5000
M205 X30 Y30
G0 X137.967 Y126.653
M204 S500
M205 X20 Y20
G1 X134.794 Y123.48 E10.72646
M204 S5000
M205 X30 Y30
G0 X134.502 Y123.754
M204 S500
M205 X20 Y20
G1 X137.66 Y126.912 E10.875
M204 S5000
M205 X30 Y30
G0 X137.398 Y127.216
M204 S500
M205 X20 Y20
G1 X134.227 Y124.044 E11.02418
M204 S5000
M205 X30 Y30
G0 X133.969 Y124.352
M204 S500
M205 X20 Y20
G1 X137.181 Y127.564 E11.17526
M204 S5000
M205 X30 Y30
G0 X137.011 Y127.96
M204 S500
M205 X20 Y20
G1 X133.724 Y124.673 E11.32987
M204 S5000
M205 X30 Y30
G0 X133.498 Y125.013
M204 S500
M205 X20 Y20
G1 X136.902 Y128.417 E11.48999
M204 S5000
M205 X30 Y30
G0 X136.872 Y128.952
M204 S500
M205 X20 Y20
G1 X133.286 Y125.367 E11.65864
M204 S5000
