;Sliced by ideaMaker 3.3.0.2343, 2018-11-11 13:05:10 UTC-0500
;Dimension: 300.000 300.000 400.000 0.400
;Plate Shape: 0
;Extruder Offset #1: 25.000 0.000
;Filament Diameter #1: 1.750
;Filament Diameter #2: 1.750
;Filament Compensation #1: 90.00
;Filament Compensation #2: 90.00
;Filament Density #1: 1240.00
;Filament Density #2: 1240.00
;Model Gap: 0.000
M221 T0 S90.00
M140 S60.00
M104 T0 S205.00
M109 T0 S205.00
T0
M190 S60.00
G21
G90
M82
M107
G28 X0 Y0
G28 Z0
G1 Z15.0 F6000.0
G92 E0
G1 F140 E29
G1 X20 Y0 F140 E30
G92 E0
G1 F6000.0
M117 Printing...
M1001
;LAYER:0
;Z:0.300
;HEIGHT:0.300
M106 S0
G1 F2400 E-1.5000
G0 F6000 X12.544 Y11.673
G0 F960 Z0.300
;TYPE:SKIRT
;WIDTH:0.400
G1 F1500 E0.0000
G1 F900 X13.040 Y11.226 E0.0333
G1 X15.403 Y9.508 E0.1791
G1 X15.982 Y9.173 E0.2124
G1 X18.650 Y7.984 E0.3582
G1 X19.288 Y7.777 E0.3916
G1 X22.145 Y7.170 E0.5373
G1 X22.810 Y7.100 E0.5707
G1 X25.730 Y7.100 E0.7164
G1 X26.395 Y7.170 E0.7497
G1 X29.252 Y7.777 E0.8955
G1 X29.890 Y7.984 E0.9289
G1 X32.558 Y9.173 E1.0747
G1 X33.137 Y9.508 E1.1080
G1 X35.500 Y11.226 E1.2538
G1 X35.996 Y11.673 E1.2871
G1 X37.950 Y13.844 E1.4328
G1 X38.344 Y14.386 E1.4662
G1 X39.804 Y16.917 E1.6120
G1 X40.075 Y17.527 E1.6453
G1 X40.978 Y20.306 E1.7911
G1 X41.118 Y20.961 E1.8245
G1 X41.423 Y23.867 E1.9703
G1 X41.422 Y24.535 E2.0036
G1 X41.117 Y27.441 E2.1494
G1 X40.978 Y28.096 E2.1828
G1 X40.075 Y30.875 E2.3286
G1 X39.804 Y31.485 E2.3619
G1 X39.523 Y31.971 E2.3899
G1 X142.235 Y134.739 E9.6388
G1 X144.380 Y133.783 E9.7559
G1 X145.018 Y133.576 E9.7894
G1 X147.875 Y132.969 E9.9351
G1 X148.540 Y132.899 E9.9685
G1 X151.460 Y132.899 E10.1141
G1 X152.125 Y132.969 E10.1475
G1 X154.982 Y133.576 E10.2932
G1 X155.620 Y133.783 E10.3267
G1 X157.765 Y134.739 E10.4438
G1 X260.477 Y31.971 E17.6927
G1 X260.196 Y31.485 E17.7207
G1 X259.925 Y30.875 E17.7540
G1 X259.022 Y28.096 E17.8998
G1 X258.882 Y27.441 E17.9332
G1 X258.577 Y24.535 E18.0790
G1 X258.577 Y23.867 E18.1123
G1 X258.882 Y20.961 E18.2581
G1 X259.022 Y20.306 E18.2915
G1 X259.925 Y17.527 E18.4373
G1 X260.196 Y16.917 E18.4706
G1 X261.656 Y14.386 E18.6164
G1 X262.050 Y13.844 E18.6498
G1 X264.004 Y11.673 E18.7955
G1 X264.500 Y11.226 E18.8288
G1 X266.863 Y9.508 E18.9746
G1 X267.442 Y9.173 E19.0080
G1 X270.110 Y7.984 E19.1537
G1 X270.748 Y7.777 E19.1871
G1 X273.605 Y7.170 E19.3329
G1 X274.270 Y7.100 E19.3662
G1 X277.190 Y7.100 E19.5119
G1 X277.855 Y7.170 E19.5453
G1 X280.712 Y7.777 E19.6910
G1 X281.350 Y7.984 E19.7244
G1 X284.018 Y9.173 E19.8702
G1 X284.597 Y9.508 E19.9035
G1 X286.960 Y11.226 E20.0493
G1 X287.456 Y11.673 E20.0826
G1 X289.410 Y13.844 E20.2283
G1 X289.804 Y14.386 E20.2618
G1 X291.264 Y16.917 E20.4075
G1 X291.535 Y17.527 E20.4408
G1 X292.438 Y20.306 E20.5866
G1 X292.578 Y20.961 E20.6200
G1 X292.883 Y23.867 E20.7658
G1 X292.883 Y24.535 E20.7991
G1 X292.578 Y27.441 E20.9449
G1 X292.438 Y28.096 E20.9783
G1 X291.535 Y30.875 E21.1241
G1 X291.264 Y31.485 E21.1574
G1 X289.804 Y34.016 E21.3032
G1 X289.410 Y34.558 E21.3366
G1 X287.456 Y36.729 E21.4823
G1 X286.960 Y37.176 E21.5157
G1 X284.597 Y38.894 E21.6614
G1 X284.018 Y39.229 E21.6948
G1 X281.350 Y40.418 E21.8405
G1 X280.712 Y40.625 E21.8740
G1 X277.855 Y41.232 E22.0197
G1 X277.190 Y41.302 E22.0531
G1 X274.270 Y41.302 E22.1987
G1 X273.605 Y41.232 E22.2321
G1 X270.748 Y40.625 E22.3778
G1 X270.110 Y40.418 E22.4113
G1 X267.965 Y39.462 E22.5284
G1 X165.253 Y142.230 E29.7773
G1 X165.534 Y142.716 E29.8053
G1 X165.805 Y143.326 E29.8386
G1 X166.708 Y146.105 E29.9844
G1 X166.848 Y146.760 E30.0178
G1 X167.153 Y149.666 E30.1636
G1 X167.153 Y150.334 E30.1969
G1 X166.848 Y153.240 E30.3427
G1 X166.708 Y153.895 E30.3761
G1 X165.805 Y156.674 E30.5219
G1 X165.534 Y157.284 E30.5552
G1 X165.253 Y157.770 E30.5832
G1 X267.965 Y260.538 E37.8321
G1 X270.110 Y259.582 E37.9492
G1 X270.748 Y259.375 E37.9827
G1 X273.605 Y258.768 E38.1284
G1 X274.270 Y258.698 E38.1618
G1 X277.190 Y258.698 E38.3074
G1 X277.855 Y258.768 E38.3408
G1 X280.712 Y259.375 E38.4865
G1 X281.350 Y259.582 E38.5200
G1 X284.018 Y260.771 E38.6657
G1 X284.597 Y261.106 E38.6991
G1 X286.960 Y262.824 E38.8448
G1 X287.456 Y263.271 E38.8781
G1 X289.410 Y265.442 E39.0239
G1 X289.804 Y265.984 E39.0573
G1 X291.264 Y268.515 E39.2031
G1 X291.535 Y269.125 E39.2364
G1 X292.438 Y271.904 E39.3822
G1 X292.578 Y272.559 E39.4156
G1 X292.883 Y275.465 E39.5613
G1 X292.883 Y276.133 E39.5947
G1 X292.578 Y279.039 E39.7405
G1 X292.438 Y279.694 E39.7739
G1 X291.535 Y282.473 E39.9196
G1 X291.264 Y283.083 E39.9529
G1 X289.804 Y285.614 E40.0987
G1 X289.410 Y286.156 E40.1322
G1 X287.456 Y288.327 E40.2779
G1 X286.960 Y288.774 E40.3112
G1 X284.597 Y290.492 E40.4569
G1 X284.018 Y290.827 E40.4903
G1 X281.350 Y292.016 E40.6360
G1 X280.712 Y292.223 E40.6695
G1 X277.855 Y292.830 E40.8152
G1 X277.190 Y292.900 E40.8486
G1 X274.270 Y292.900 E40.9943
G1 X273.605 Y292.830 E41.0276
G1 X270.748 Y292.223 E41.1733
G1 X270.110 Y292.016 E41.2068
G1 X267.442 Y290.827 E41.3525
G1 X266.863 Y290.492 E41.3859
G1 X264.500 Y288.774 E41.5317
G1 X264.004 Y288.327 E41.5650
G1 X262.050 Y286.156 E41.7107
G1 X261.656 Y285.614 E41.7441
G1 X260.196 Y283.083 E41.8899
G1 X259.925 Y282.473 E41.9232
G1 X259.022 Y279.694 E42.0690
G1 X258.882 Y279.039 E42.1024
G1 X258.577 Y276.133 E42.2482
G1 X258.577 Y275.465 E42.2815
G1 X258.882 Y272.559 E42.4273
G1 X259.022 Y271.904 E42.4607
G1 X259.925 Y269.125 E42.6065
G1 X260.196 Y268.515 E42.6398
G1 X260.477 Y268.029 E42.6678
G1 X157.765 Y165.261 E49.9166
G1 X155.620 Y166.217 E50.0338
G1 X154.982 Y166.424 E50.0673
G1 X152.125 Y167.031 E50.2130
G1 X151.460 Y167.101 E50.2463
G1 X148.540 Y167.101 E50.3920
G1 X147.875 Y167.031 E50.4254
G1 X145.018 Y166.424 E50.5711
G1 X144.380 Y166.217 E50.6046
G1 X142.235 Y165.261 E50.7217
G1 X39.523 Y268.029 E57.9706
G1 X39.804 Y268.515 E57.9986
G1 X40.075 Y269.125 E58.0319
G1 X40.978 Y271.904 E58.1777
G1 X41.118 Y272.559 E58.2111
G1 X41.423 Y275.465 E58.3569
G1 X41.423 Y276.133 E58.3902
G1 X41.118 Y279.039 E58.5360
G1 X40.978 Y279.694 E58.5694
G1 X40.075 Y282.473 E58.7152
G1 X39.804 Y283.083 E58.7485
G1 X38.344 Y285.614 E58.8943
G1 X37.950 Y286.156 E58.9277
G1 X35.996 Y288.327 E59.0734
G1 X35.500 Y288.774 E59.1067
G1 X33.137 Y290.492 E59.2525
G1 X32.558 Y290.827 E59.2858
G1 X29.890 Y292.016 E59.4316
G1 X29.252 Y292.223 E59.4650
G1 X26.395 Y292.830 E59.6108
G1 X25.730 Y292.900 E59.6441
G1 X22.810 Y292.900 E59.7898
G1 X22.145 Y292.830 E59.8232
G1 X19.288 Y292.223 E59.9689
G1 X18.650 Y292.016 E60.0023
G1 X15.982 Y290.827 E60.1481
G1 X15.403 Y290.492 E60.1814
G1 X13.040 Y288.774 E60.3272
G1 X12.544 Y288.327 E60.3605
G1 X10.590 Y286.156 E60.5062
G1 X10.196 Y285.614 E60.5397
G1 X8.736 Y283.083 E60.6854
G1 X8.465 Y282.473 E60.7187
G1 X7.562 Y279.694 E60.8645
G1 X7.422 Y279.039 E60.8979
G1 X7.117 Y276.133 E61.0437
G1 X7.117 Y275.465 E61.0770
G1 X7.422 Y272.559 E61.2228
G1 X7.562 Y271.904 E61.2562
G1 X8.465 Y269.125 E61.4020
G1 X8.736 Y268.515 E61.4353
G1 X10.196 Y265.984 E61.5811
G1 X10.590 Y265.442 E61.6145
G1 X12.544 Y263.271 E61.7602
G1 X13.040 Y262.824 E61.7935
G1 X15.403 Y261.106 E61.9393
G1 X15.982 Y260.771 E61.9727
G1 X18.650 Y259.582 E62.1184
G1 X19.288 Y259.375 E62.1519
G1 X22.145 Y258.768 E62.2976
G1 X22.810 Y258.698 E62.3309
G1 X25.730 Y258.698 E62.4766
G1 X26.395 Y258.768 E62.5100
G1 X29.252 Y259.375 E62.6557
G1 X29.890 Y259.582 E62.6892
G1 X32.035 Y260.538 E62.8063
G1 X134.747 Y157.770 E70.0552
G1 X134.466 Y157.284 E70.0832
G1 X134.195 Y156.674 E70.1165
G1 X133.292 Y153.895 E70.2623
G1 X133.152 Y153.240 E70.2957
G1 X132.847 Y150.334 E70.4415
G1 X132.847 Y149.666 E70.4748
G1 X133.152 Y146.760 E70.6206
G1 X133.292 Y146.105 E70.6540
G1 X134.195 Y143.326 E70.7998
G1 X134.466 Y142.716 E70.8331
G1 X134.747 Y142.230 E70.8611
G1 X32.035 Y39.462 E78.1099
G1 X29.890 Y40.418 E78.2271
G1 X29.252 Y40.625 E78.2606
G1 X26.395 Y41.232 E78.4063
G1 X25.730 Y41.302 E78.4396
G1 X22.810 Y41.302 E78.5853
G1 X22.145 Y41.232 E78.6187
G1 X19.288 Y40.625 E78.7644
G1 X18.650 Y40.418 E78.7979
G1 X15.982 Y39.229 E78.9436
G1 X15.403 Y38.894 E78.9770
G1 X13.040 Y37.176 E79.1227
G1 X12.544 Y36.729 E79.1560
G1 X10.590 Y34.558 E79.3018
G1 X10.196 Y34.016 E79.3352
G1 X8.736 Y31.485 E79.4810
G1 X8.465 Y30.875 E79.5143
G1 X7.562 Y28.096 E79.6600
G1 X7.422 Y27.441 E79.6935
G1 X7.117 Y24.535 E79.8392
G1 X7.117 Y23.867 E79.8726
G1 X7.422 Y20.961 E80.0183
G1 X7.562 Y20.306 E80.0518
G1 X8.465 Y17.527 E80.1975
G1 X8.736 Y16.917 E80.2308
G1 X10.196 Y14.386 E80.3766
G1 X10.590 Y13.844 E80.4100
G1 X12.544 Y11.673 E80.5558
G1 F2400 E79.0558
G0 F6000 X34.687 Y32.508
;TYPE:WALL-INNER
;WIDTH:0.400
G1 F1500 E80.5558
G1 F900 X141.708 Y139.586 E88.1087
G1 X143.317 Y138.417 E88.2079
G1 X145.869 Y137.280 E88.3473
G1 X148.603 Y136.699 E88.4867
G1 X151.397 Y136.699 E88.6261
G1 X154.131 Y137.280 E88.7656
G1 X156.683 Y138.417 E88.9050
G1 X158.292 Y139.586 E89.0042
G1 X265.313 Y32.508 E96.5571
G1 X264.917 Y32.064 E96.5868
G1 X263.519 Y29.640 E96.7264
G1 X262.655 Y26.981 E96.8659
G1 X262.363 Y24.201 E97.0053
G1 X262.655 Y21.421 E97.1448
G1 X263.519 Y18.762 E97.2843
G1 X264.916 Y16.339 E97.4238
G1 X266.786 Y14.262 E97.5632
G1 X269.047 Y12.618 E97.7027
G1 X271.599 Y11.481 E97.8421
G1 X274.333 Y10.900 E97.9815
G1 X277.127 Y10.900 E98.1209
G1 X279.861 Y11.481 E98.2604
G1 X282.413 Y12.618 E98.3998
G1 X284.674 Y14.262 E98.5392
G1 X286.544 Y16.339 E98.6787
G1 X287.941 Y18.762 E98.8182
G1 X288.805 Y21.421 E98.9577
G1 X289.097 Y24.201 E99.0971
G1 X288.805 Y26.981 E99.2366
G1 X287.941 Y29.640 E99.3761
G1 X286.544 Y32.063 E99.5156
G1 X284.674 Y34.140 E99.6551
G1 X282.413 Y35.784 E99.7945
G1 X279.861 Y36.921 E99.9339
G1 X277.127 Y37.502 E100.0734
G1 X274.333 Y37.502 E100.2128
G1 X271.599 Y36.921 E100.3522
G1 X269.047 Y35.784 E100.4916
G1 X267.438 Y34.615 E100.5908
G1 X160.417 Y141.693 E108.1437
G1 X160.813 Y142.137 E108.1734
G1 X162.211 Y144.561 E108.3130
G1 X163.075 Y147.220 E108.4525
G1 X163.367 Y150.000 E108.5920
G1 X163.075 Y152.780 E108.7314
G1 X162.211 Y155.439 E108.8709
G1 X160.813 Y157.863 E109.0105
G1 X160.417 Y158.307 E109.0402
G1 X267.438 Y265.385 E116.5931
G1 X269.047 Y264.216 E116.6923
G1 X271.599 Y263.079 E116.8317
G1 X274.333 Y262.498 E116.9712
G1 X277.127 Y262.498 E117.1106
G1 X279.861 Y263.079 E117.2500
G1 X282.413 Y264.216 E117.3894
G1 X284.674 Y265.860 E117.5289
G1 X286.544 Y267.937 E117.6683
G1 X287.941 Y270.360 E117.8078
G1 X288.805 Y273.019 E117.9473
G1 X289.097 Y275.799 E118.0868
G1 X288.805 Y278.579 E118.2262
G1 X287.941 Y281.238 E118.3657
G1 X286.544 Y283.661 E118.5052
G1 X284.674 Y285.738 E118.6447
G1 X282.413 Y287.382 E118.7841
G1 X279.861 Y288.519 E118.9235
G1 X277.127 Y289.100 E119.0630
G1 X274.333 Y289.100 E119.2024
G1 X271.599 Y288.519 E119.3418
G1 X269.047 Y287.382 E119.4812
G1 X266.786 Y285.738 E119.6207
G1 X264.916 Y283.661 E119.7601
G1 X263.519 Y281.238 E119.8996
G1 X262.655 Y278.579 E120.0391
G1 X262.363 Y275.799 E120.1786
G1 X262.655 Y273.019 E120.3180
G1 X263.519 Y270.360 E120.4575
G1 X264.917 Y267.936 E120.5971
G1 X265.313 Y267.492 E120.6268
G1 X158.292 Y160.414 E128.1797
G1 X156.683 Y161.583 E128.2790
G1 X154.131 Y162.720 E128.4183
G1 X151.397 Y163.301 E128.5578
G1 X148.603 Y163.301 E128.6972
G1 X145.869 Y162.720 E128.8366
G1 X143.317 Y161.583 E128.9760
G1 X141.708 Y160.414 E129.0752
G1 X34.687 Y267.492 E136.6282
G1 X35.083 Y267.936 E136.6578
G1 X36.481 Y270.360 E136.7974
G1 X37.345 Y273.019 E136.9369
G1 X37.637 Y275.799 E137.0764
G1 X37.345 Y278.579 E137.2158
G1 X36.481 Y281.238 E137.3553
G1 X35.084 Y283.661 E137.4949
G1 X33.214 Y285.738 E137.6343
G1 X30.953 Y287.382 E137.7738
G1 X28.401 Y288.519 E137.9131
G1 X25.667 Y289.100 E138.0526
G1 X22.873 Y289.100 E138.1920
G1 X20.139 Y288.519 E138.3314
G1 X17.587 Y287.382 E138.4708
G1 X15.326 Y285.738 E138.6103
G1 X13.456 Y283.661 E138.7497
G1 X12.059 Y281.238 E138.8893
G1 X11.195 Y278.579 E139.0287
G1 X10.903 Y275.799 E139.1682
G1 X11.195 Y273.019 E139.3077
G1 X12.059 Y270.360 E139.4471
G1 X13.456 Y267.937 E139.5867
G1 X15.326 Y265.860 E139.7261
G1 X17.587 Y264.216 E139.8656
G1 X20.139 Y263.079 E140.0050
G1 X22.873 Y262.498 E140.1444
G1 X25.667 Y262.498 E140.2838
G1 X28.401 Y263.079 E140.4232
G1 X30.953 Y264.216 E140.5626
G1 X32.562 Y265.385 E140.6619
G1 X139.583 Y158.307 E148.2148
G1 X139.187 Y157.863 E148.2445
G1 X137.789 Y155.439 E148.3841
G1 X136.925 Y152.780 E148.5235
G1 X136.633 Y150.000 E148.6630
G1 X136.925 Y147.220 E148.8025
G1 X137.789 Y144.561 E148.9419
G1 X139.187 Y142.137 E149.0816
G1 X139.583 Y141.693 E149.1112
G1 X32.562 Y34.615 E156.6642
G1 X30.953 Y35.784 E156.7634
G1 X28.401 Y36.921 E156.9028
G1 X25.667 Y37.502 E157.0422
G1 X22.873 Y37.502 E157.1816
G1 X20.139 Y36.921 E157.3210
G1 X17.587 Y35.784 E157.4604
G1 X15.326 Y34.140 E157.5999
G1 X13.456 Y32.063 E157.7393
G1 X12.059 Y29.640 E157.8789
G1 X11.195 Y26.981 E158.0184
G1 X10.903 Y24.201 E158.1578
G1 X11.195 Y21.421 E158.2973
G1 X12.059 Y18.762 E158.4368
G1 X13.456 Y16.339 E158.5763
G1 X15.326 Y14.262 E158.7157
G1 X17.587 Y12.618 E158.8552
G1 X20.139 Y11.481 E158.9946
G1 X22.873 Y10.900 E159.1340
G1 X25.667 Y10.900 E159.2734
G1 X28.401 Y11.481 E159.4129
G1 X30.953 Y12.618 E159.5523
G1 X33.214 Y14.262 E159.6917
G1 X35.084 Y16.339 E159.8312
G1 X36.481 Y18.762 E159.9707
G1 X37.345 Y21.421 E160.1102
G1 X37.637 Y24.201 E160.2496
G1 X37.345 Y26.981 E160.3891
G1 X36.481 Y29.640 E160.5286
G1 X35.083 Y32.064 E160.6682
G1 X34.687 Y32.508 E160.6979
G1 F2400 E159.1979
G0 F6000 X35.237 Y32.492
;TYPE:WALL-OUTER
;WIDTH:0.400
G1 F1500 E160.6979
G1 F900 X141.749 Y139.062 E168.2149
G1 X143.116 Y138.069 E168.2992
G1 X145.745 Y136.897 E168.4428
G1 X148.561 Y136.299 E168.5864
G1 X151.439 Y136.299 E168.7300
G1 X154.255 Y136.897 E168.8736
G1 X156.884 Y138.069 E169.0172
G1 X158.251 Y139.062 E169.1015
G1 X264.763 Y32.492 E176.6186
G1 X264.591 Y32.299 E176.6315
G1 X263.152 Y29.804 E176.7752
G1 X262.262 Y27.065 E176.9189
G1 X261.961 Y24.201 E177.0625
G1 X262.262 Y21.337 E177.2062
G1 X263.152 Y18.598 E177.3499
G1 X264.591 Y16.103 E177.4936
G1 X266.517 Y13.963 E177.6372
G1 X268.846 Y12.270 E177.7809
G1 X271.475 Y11.098 E177.9245
G1 X274.291 Y10.500 E178.0681
G1 X277.169 Y10.500 E178.2117
G1 X279.985 Y11.098 E178.3553
G1 X282.614 Y12.270 E178.4989
G1 X284.943 Y13.963 E178.6426
G1 X286.869 Y16.103 E178.7862
G1 X288.308 Y18.598 E178.9299
G1 X289.198 Y21.337 E179.0736
G1 X289.499 Y24.201 E179.2172
G1 X289.198 Y27.065 E179.3609
G1 X288.308 Y29.804 E179.5046
G1 X286.869 Y32.299 E179.6483
G1 X284.943 Y34.439 E179.7919
G1 X282.614 Y36.132 E179.9356
G1 X279.985 Y37.304 E180.0792
G1 X277.169 Y37.902 E180.2228
G1 X274.291 Y37.902 E180.3664
G1 X271.475 Y37.304 E180.5100
G1 X268.846 Y36.132 E180.6536
G1 X267.479 Y35.139 E180.7379
G1 X160.967 Y141.709 E188.2550
G1 X161.139 Y141.902 E188.2679
G1 X162.578 Y144.397 E188.4115
G1 X163.468 Y147.136 E188.5552
G1 X163.769 Y150.000 E188.6989
G1 X163.468 Y152.864 E188.8426
G1 X162.578 Y155.603 E188.9863
G1 X161.139 Y158.098 E189.1300
G1 X160.967 Y158.291 E189.1429
G1 X267.479 Y264.861 E196.6599
G1 X268.846 Y263.868 E196.7442
G1 X271.475 Y262.696 E196.8878
G1 X274.291 Y262.098 E197.0314
G1 X277.169 Y262.098 E197.1750
G1 X279.985 Y262.696 E197.3186
G1 X282.614 Y263.868 E197.4622
G1 X284.943 Y265.561 E197.6059
G1 X286.869 Y267.701 E197.7495
G1 X288.308 Y270.196 E197.8932
G1 X289.198 Y272.935 E198.0369
G1 X289.499 Y275.799 E198.1806
G1 X289.198 Y278.663 E198.3242
G1 X288.308 Y281.402 E198.4679
G1 X286.869 Y283.897 E198.6116
G1 X284.943 Y286.037 E198.7553
G1 X282.614 Y287.730 E198.8989
G1 X279.985 Y288.902 E199.0425
G1 X277.169 Y289.500 E199.1861
G1 X274.291 Y289.500 E199.3297
